def Program():
  Clay_extruderTcp = p[0, 0.1765, 0.058, -1.5708, -0, 0]
  Clay_extruderWeight = 1.78
  Clay_extruderCog = [0, 0.1765, 0.058]
  Speed000 = 0.008
  Zone000 = 0
  Zone001 = 0.01
  set_tcp(Clay_extruderTcp)
  set_payload(Clay_extruderWeight, Clay_extruderCog)
  movej([-1.276, -1.5365, -1.7799, -2.9667, -1.276, -3.1416], a=3.1416, v=0.0251, r=Zone000)
  movej([-1.2779, -1.5364, -1.7801, -2.9667, -1.2779, -3.1416], a=3.1416, v=0.0201, r=Zone001)
  movej([-1.2798, -1.5363, -1.7802, -2.9668, -1.2798, -3.1416], a=3.1416, v=0.0203, r=Zone001)
  movej([-1.2818, -1.5362, -1.7802, -2.9668, -1.2818, -3.1416], a=3.1416, v=0.0204, r=Zone001)
  movej([-1.2837, -1.5362, -1.7803, -2.9668, -1.2837, -3.1416], a=3.1416, v=0.0205, r=Zone001)
  movej([-1.2857, -1.5361, -1.7803, -2.9668, -1.2857, -3.1416], a=3.1416, v=0.0206, r=Zone001)
  movej([-1.2876, -1.5362, -1.7802, -2.9668, -1.2876, -3.1416], a=3.1416, v=0.0207, r=Zone001)
  movej([-1.2896, -1.5362, -1.7802, -2.9668, -1.2896, -3.1416], a=3.1416, v=0.0208, r=Zone001)
  movej([-1.2916, -1.5363, -1.7801, -2.9668, -1.2916, -3.1416], a=3.1416, v=0.0209, r=Zone001)
  movej([-1.2936, -1.5364, -1.7799, -2.9668, -1.2936, -3.1416], a=3.1416, v=0.021, r=Zone001)
  movej([-1.2956, -1.5366, -1.7798, -2.9668, -1.2956, -3.1416], a=3.1416, v=0.0211, r=Zone001)
  movej([-1.2976, -1.5368, -1.7796, -2.9668, -1.2976, -3.1416], a=3.1416, v=0.0211, r=Zone001)
  movej([-1.2996, -1.537, -1.7794, -2.9668, -1.2996, -3.1416], a=3.1416, v=0.0212, r=Zone001)
  movej([-1.3016, -1.5373, -1.7791, -2.9668, -1.3016, -3.1416], a=3.1416, v=0.0213, r=Zone001)
  movej([-1.3037, -1.5375, -1.7788, -2.9668, -1.3037, -3.1416], a=3.1416, v=0.0213, r=Zone001)
  movej([-1.3057, -1.5379, -1.7785, -2.9668, -1.3057, -3.1416], a=3.1416, v=0.0213, r=Zone001)
  movej([-1.3077, -1.5382, -1.7782, -2.9668, -1.3077, -3.1416], a=3.1416, v=0.0214, r=Zone001)
  movej([-1.3097, -1.5386, -1.7778, -2.9668, -1.3097, -3.1416], a=3.1416, v=0.0214, r=Zone001)
  movej([-1.3118, -1.539, -1.7774, -2.9668, -1.3118, -3.1416], a=3.1416, v=0.0214, r=Zone001)
  movej([-1.3138, -1.5395, -1.7769, -2.9668, -1.3138, -3.1416], a=3.1416, v=0.0214, r=Zone001)
  movej([-1.3158, -1.54, -1.7764, -2.9668, -1.3158, -3.1416], a=3.1416, v=0.0214, r=Zone001)
  movej([-1.3179, -1.5405, -1.7759, -2.9668, -1.3179, -3.1416], a=3.1416, v=0.0214, r=Zone001)
  movej([-1.3199, -1.541, -1.7754, -2.9668, -1.3199, -3.1416], a=3.1416, v=0.0214, r=Zone001)
  movej([-1.3219, -1.5416, -1.7748, -2.9668, -1.3219, -3.1416], a=3.1416, v=0.0214, r=Zone001)
  movej([-1.3239, -1.5422, -1.7742, -2.9668, -1.3239, -3.1416], a=3.1416, v=0.0214, r=Zone001)
  movej([-1.326, -1.5428, -1.7736, -2.9667, -1.326, -3.1416], a=3.1416, v=0.0213, r=Zone001)
  movej([-1.328, -1.5435, -1.773, -2.9667, -1.328, -3.1416], a=3.1416, v=0.0213, r=Zone001)
  movej([-1.33, -1.5442, -1.7723, -2.9667, -1.33, -3.1416], a=3.1416, v=0.0212, r=Zone001)
  movej([-1.332, -1.5449, -1.7715, -2.9667, -1.332, -3.1416], a=3.1416, v=0.0212, r=Zone001)
  movej([-1.334, -1.5457, -1.7708, -2.9667, -1.334, -3.1416], a=3.1416, v=0.0211, r=Zone001)
  movej([-1.336, -1.5465, -1.77, -2.9667, -1.336, -3.1416], a=3.1416, v=0.021, r=Zone001)
  movej([-1.338, -1.5473, -1.7692, -2.9667, -1.338, -3.1416], a=3.1416, v=0.0209, r=Zone001)
  movej([-1.3399, -1.5481, -1.7684, -2.9667, -1.3399, -3.1416], a=3.1416, v=0.0209, r=Zone001)
  movej([-1.3419, -1.549, -1.7675, -2.9667, -1.3419, -3.1416], a=3.1416, v=0.0208, r=Zone001)
  movej([-1.3439, -1.5499, -1.7666, -2.9666, -1.3439, -3.1416], a=3.1416, v=0.0207, r=Zone001)
  movej([-1.3458, -1.5508, -1.7657, -2.9666, -1.3458, -3.1416], a=3.1416, v=0.0206, r=Zone001)
  movej([-1.3478, -1.5518, -1.7648, -2.9666, -1.3478, -3.1416], a=3.1416, v=0.0204, r=Zone001)
  movej([-1.3497, -1.5528, -1.7638, -2.9666, -1.3497, -3.1416], a=3.1416, v=0.0203, r=Zone001)
  movej([-1.3516, -1.5538, -1.7628, -2.9666, -1.3516, -3.1416], a=3.1416, v=0.0202, r=Zone001)
  movej([-1.3535, -1.5548, -1.7618, -2.9666, -1.3535, -3.1416], a=3.1416, v=0.0201, r=Zone001)
  movej([-1.3554, -1.5559, -1.7607, -2.9666, -1.3554, -3.1416], a=3.1416, v=0.0199, r=Zone001)
  movej([-1.3572, -1.557, -1.7596, -2.9666, -1.3572, -3.1416], a=3.1416, v=0.0198, r=Zone001)
  movej([-1.3591, -1.5581, -1.7585, -2.9666, -1.3591, -3.1416], a=3.1416, v=0.0196, r=Zone001)
  movej([-1.3609, -1.5592, -1.7574, -2.9666, -1.3609, -3.1416], a=3.1416, v=0.0195, r=Zone001)
  movej([-1.3628, -1.5604, -1.7562, -2.9666, -1.3628, -3.1416], a=3.1416, v=0.0193, r=Zone001)
  movej([-1.3646, -1.5616, -1.755, -2.9666, -1.3646, -3.1416], a=3.1416, v=0.0191, r=Zone001)
  movej([-1.3664, -1.5628, -1.7538, -2.9666, -1.3664, -3.1416], a=3.1416, v=0.0189, r=Zone001)
  movej([-1.3681, -1.564, -1.7526, -2.9666, -1.3681, -3.1416], a=3.1416, v=0.0188, r=Zone001)
  movej([-1.3699, -1.5653, -1.7513, -2.9666, -1.3699, -3.1416], a=3.1416, v=0.0186, r=Zone001)
  movej([-1.3716, -1.5666, -1.75, -2.9666, -1.3716, -3.1416], a=3.1416, v=0.0184, r=Zone001)
  movej([-1.3734, -1.5679, -1.7487, -2.9666, -1.3734, -3.1416], a=3.1416, v=0.0182, r=Zone001)
  movej([-1.3751, -1.5692, -1.7474, -2.9666, -1.3751, -3.1416], a=3.1416, v=0.018, r=Zone001)
  movej([-1.3767, -1.5706, -1.746, -2.9666, -1.3767, -3.1416], a=3.1416, v=0.0178, r=Zone001)
  movej([-1.3784, -1.5719, -1.7447, -2.9666, -1.3784, -3.1416], a=3.1416, v=0.0175, r=Zone001)
  movej([-1.38, -1.5733, -1.7432, -2.9666, -1.38, -3.1416], a=3.1416, v=0.0173, r=Zone001)
  movej([-1.3817, -1.5747, -1.7418, -2.9666, -1.3817, -3.1416], a=3.1416, v=0.0171, r=Zone001)
  movej([-1.3833, -1.5762, -1.7404, -2.9666, -1.3833, -3.1416], a=3.1416, v=0.0169, r=Zone001)
  movej([-1.3848, -1.5776, -1.7389, -2.9667, -1.3848, -3.1416], a=3.1416, v=0.0166, r=Zone001)
  movej([-1.3864, -1.5791, -1.7374, -2.9667, -1.3864, -3.1416], a=3.1416, v=0.0164, r=Zone001)
  movej([-1.3879, -1.5806, -1.7359, -2.9667, -1.3879, -3.1416], a=3.1416, v=0.0162, r=Zone001)
  movej([-1.3894, -1.5821, -1.7344, -2.9667, -1.3894, -3.1416], a=3.1416, v=0.0162, r=Zone001)
  movej([-1.3909, -1.5836, -1.7328, -2.9668, -1.3909, -3.1416], a=3.1416, v=0.0164, r=Zone001)
  movej([-1.3924, -1.5851, -1.7313, -2.9668, -1.3924, -3.1416], a=3.1416, v=0.0166, r=Zone001)
  movej([-1.3938, -1.5867, -1.7297, -2.9668, -1.3938, -3.1416], a=3.1416, v=0.0168, r=Zone001)
  movej([-1.3952, -1.5882, -1.7281, -2.9669, -1.3952, -3.1416], a=3.1416, v=0.017, r=Zone001)
  movej([-1.3966, -1.5898, -1.7265, -2.9669, -1.3966, -3.1416], a=3.1416, v=0.0172, r=Zone001)
  movej([-1.3979, -1.5914, -1.7248, -2.967, -1.3979, -3.1416], a=3.1416, v=0.0174, r=Zone001)
  movej([-1.3993, -1.593, -1.7231, -2.967, -1.3993, -3.1416], a=3.1416, v=0.0176, r=Zone001)
  movej([-1.4006, -1.5947, -1.7215, -2.9671, -1.4006, -3.1416], a=3.1416, v=0.0177, r=Zone001)
  movej([-1.4018, -1.5963, -1.7198, -2.9671, -1.4018, -3.1416], a=3.1416, v=0.0179, r=Zone001)
  movej([-1.4031, -1.598, -1.7181, -2.9672, -1.4031, -3.1416], a=3.1416, v=0.0181, r=Zone001)
  movej([-1.4043, -1.5996, -1.7163, -2.9672, -1.4043, -3.1416], a=3.1416, v=0.0182, r=Zone001)
  movej([-1.4055, -1.6013, -1.7146, -2.9673, -1.4055, -3.1416], a=3.1416, v=0.0184, r=Zone001)
  movej([-1.4067, -1.603, -1.7129, -2.9674, -1.4067, -3.1416], a=3.1416, v=0.0186, r=Zone001)
  movej([-1.4078, -1.6047, -1.7111, -2.9674, -1.4078, -3.1416], a=3.1416, v=0.0187, r=Zone001)
  movej([-1.409, -1.6064, -1.7093, -2.9675, -1.409, -3.1416], a=3.1416, v=0.0189, r=Zone001)
  movej([-1.41, -1.6081, -1.7075, -2.9676, -1.41, -3.1416], a=3.1416, v=0.019, r=Zone001)
  movej([-1.4111, -1.6098, -1.7057, -2.9677, -1.4111, -3.1416], a=3.1416, v=0.0192, r=Zone001)
  movej([-1.4121, -1.6116, -1.7039, -2.9677, -1.4121, -3.1416], a=3.1416, v=0.0193, r=Zone001)
  movej([-1.4131, -1.6133, -1.702, -2.9678, -1.4131, -3.1416], a=3.1416, v=0.0194, r=Zone001)
  movej([-1.4141, -1.6151, -1.7002, -2.9679, -1.4141, -3.1416], a=3.1416, v=0.0195, r=Zone001)
  movej([-1.4151, -1.6168, -1.6983, -2.968, -1.4151, -3.1416], a=3.1416, v=0.0197, r=Zone001)
  movej([-1.416, -1.6186, -1.6965, -2.9681, -1.416, -3.1416], a=3.1416, v=0.0198, r=Zone001)
  movej([-1.4169, -1.6204, -1.6946, -2.9682, -1.4169, -3.1416], a=3.1416, v=0.0199, r=Zone001)
  movej([-1.4177, -1.6221, -1.6927, -2.9683, -1.4177, -3.1416], a=3.1416, v=0.02, r=Zone001)
  movej([-1.4186, -1.6239, -1.6908, -2.9685, -1.4186, -3.1416], a=3.1416, v=0.0201, r=Zone001)
  movej([-1.4194, -1.6257, -1.6889, -2.9686, -1.4194, -3.1416], a=3.1416, v=0.0202, r=Zone001)
  movej([-1.4202, -1.6275, -1.687, -2.9687, -1.4202, -3.1416], a=3.1416, v=0.0203, r=Zone001)
  movej([-1.4209, -1.6293, -1.685, -2.9688, -1.4209, -3.1416], a=3.1416, v=0.0204, r=Zone001)
  movej([-1.4216, -1.6311, -1.6831, -2.9689, -1.4216, -3.1416], a=3.1416, v=0.0204, r=Zone001)
  movej([-1.4223, -1.6329, -1.6812, -2.9691, -1.4223, -3.1416], a=3.1416, v=0.0205, r=Zone001)
  movej([-1.423, -1.6347, -1.6792, -2.9692, -1.423, -3.1416], a=3.1416, v=0.0206, r=Zone001)
  movej([-1.4236, -1.6366, -1.6773, -2.9693, -1.4236, -3.1416], a=3.1416, v=0.0207, r=Zone001)
  movej([-1.4242, -1.6384, -1.6753, -2.9695, -1.4242, -3.1416], a=3.1416, v=0.0207, r=Zone001)
  movej([-1.4248, -1.6402, -1.6734, -2.9696, -1.4248, -3.1416], a=3.1416, v=0.0208, r=Zone001)
  movej([-1.4253, -1.642, -1.6714, -2.9698, -1.4253, -3.1416], a=3.1416, v=0.0208, r=Zone001)
  movej([-1.4258, -1.6438, -1.6694, -2.9699, -1.4258, -3.1416], a=3.1416, v=0.0209, r=Zone001)
  movej([-1.4263, -1.6456, -1.6675, -2.9701, -1.4263, -3.1416], a=3.1416, v=0.0209, r=Zone001)
  movej([-1.4267, -1.6474, -1.6655, -2.9703, -1.4267, -3.1416], a=3.1416, v=0.0209, r=Zone001)
  movej([-1.4272, -1.6493, -1.6635, -2.9704, -1.4272, -3.1416], a=3.1416, v=0.021, r=Zone001)
  movej([-1.4276, -1.6511, -1.6615, -2.9706, -1.4276, -3.1416], a=3.1416, v=0.021, r=Zone001)
  movej([-1.4279, -1.6529, -1.6595, -2.9708, -1.4279, -3.1416], a=3.1416, v=0.021, r=Zone001)
  movej([-1.4283, -1.6547, -1.6576, -2.9709, -1.4283, -3.1416], a=3.1416, v=0.021, r=Zone001)
  movej([-1.4286, -1.6565, -1.6556, -2.9711, -1.4286, -3.1416], a=3.1416, v=0.021, r=Zone001)
  movej([-1.4289, -1.6583, -1.6536, -2.9713, -1.4289, -3.1416], a=3.1416, v=0.021, r=Zone001)
  movej([-1.4291, -1.6601, -1.6516, -2.9715, -1.4291, -3.1416], a=3.1416, v=0.021, r=Zone001)
  movej([-1.4293, -1.6619, -1.6496, -2.9717, -1.4293, -3.1416], a=3.1416, v=0.021, r=Zone001)
  movej([-1.4295, -1.6637, -1.6476, -2.9719, -1.4295, -3.1416], a=3.1416, v=0.021, r=Zone001)
  movej([-1.4297, -1.6655, -1.6456, -2.9721, -1.4297, -3.1416], a=3.1416, v=0.021, r=Zone001)
  movej([-1.4298, -1.6673, -1.6437, -2.9722, -1.4298, -3.1416], a=3.1416, v=0.021, r=Zone001)
  movej([-1.4299, -1.669, -1.6417, -2.9724, -1.4299, -3.1416], a=3.1416, v=0.021, r=Zone001)
  movej([-1.43, -1.6708, -1.6397, -2.9726, -1.43, -3.1416], a=3.1416, v=0.0209, r=Zone001)
  movej([-1.4301, -1.6726, -1.6377, -2.9729, -1.4301, -3.1416], a=3.1416, v=0.0209, r=Zone001)
  movej([-1.4301, -1.6743, -1.6358, -2.9731, -1.4301, -3.1416], a=3.1416, v=0.0208, r=Zone001)
  movej([-1.4301, -1.6761, -1.6338, -2.9733, -1.4301, -3.1416], a=3.1416, v=0.0208, r=Zone001)
  movej([-1.4301, -1.6778, -1.6319, -2.9735, -1.4301, -3.1416], a=3.1416, v=0.0207, r=Zone001)
  movej([-1.43, -1.6796, -1.6299, -2.9737, -1.43, -3.1416], a=3.1416, v=0.0207, r=Zone001)
  movej([-1.4299, -1.6813, -1.628, -2.9739, -1.4299, -3.1416], a=3.1416, v=0.0206, r=Zone001)
  movej([-1.4298, -1.683, -1.626, -2.9741, -1.4298, -3.1416], a=3.1416, v=0.0206, r=Zone001)
  movej([-1.4297, -1.6847, -1.6241, -2.9744, -1.4297, -3.1416], a=3.1416, v=0.0205, r=Zone001)
  movej([-1.4295, -1.6864, -1.6222, -2.9746, -1.4295, -3.1416], a=3.1416, v=0.0204, r=Zone001)
  movej([-1.4293, -1.6881, -1.6203, -2.9748, -1.4293, -3.1416], a=3.1416, v=0.0203, r=Zone001)
  movej([-1.4291, -1.6898, -1.6183, -2.975, -1.4291, -3.1416], a=3.1416, v=0.0202, r=Zone001)
  movej([-1.4288, -1.6915, -1.6164, -2.9753, -1.4288, -3.1416], a=3.1416, v=0.0202, r=Zone001)
  movej([-1.4286, -1.6931, -1.6146, -2.9755, -1.4286, -3.1416], a=3.1416, v=0.0201, r=Zone001)
  movej([-1.4283, -1.6948, -1.6127, -2.9757, -1.4283, -3.1416], a=3.1416, v=0.02, r=Zone001)
  movej([-1.428, -1.6964, -1.6108, -2.976, -1.428, -3.1416], a=3.1416, v=0.0199, r=Zone001)
  movej([-1.4276, -1.698, -1.6089, -2.9762, -1.4276, -3.1416], a=3.1416, v=0.0197, r=Zone001)
  movej([-1.4272, -1.6997, -1.6071, -2.9764, -1.4272, -3.1416], a=3.1416, v=0.0196, r=Zone001)
  movej([-1.4268, -1.7013, -1.6053, -2.9767, -1.4268, -3.1416], a=3.1416, v=0.0195, r=Zone001)
  movej([-1.4264, -1.7029, -1.6034, -2.9769, -1.4264, -3.1416], a=3.1416, v=0.0194, r=Zone001)
  movej([-1.426, -1.7044, -1.6016, -2.9771, -1.426, -3.1416], a=3.1416, v=0.0192, r=Zone001)
  movej([-1.4255, -1.706, -1.5998, -2.9774, -1.4255, -3.1416], a=3.1416, v=0.0191, r=Zone001)
  movej([-1.425, -1.7075, -1.598, -2.9776, -1.425, -3.1416], a=3.1416, v=0.019, r=Zone001)
  movej([-1.4245, -1.7091, -1.5962, -2.9779, -1.4245, -3.1416], a=3.1416, v=0.0188, r=Zone001)
  movej([-1.424, -1.7106, -1.5945, -2.9781, -1.424, -3.1416], a=3.1416, v=0.0187, r=Zone001)
  movej([-1.4234, -1.7121, -1.5927, -2.9783, -1.4234, -3.1416], a=3.1416, v=0.0185, r=Zone001)
  movej([-1.4228, -1.7136, -1.591, -2.9786, -1.4228, -3.1416], a=3.1416, v=0.0184, r=Zone001)
  movej([-1.4222, -1.7151, -1.5893, -2.9788, -1.4222, -3.1416], a=3.1416, v=0.0182, r=Zone001)
  movej([-1.4216, -1.7165, -1.5876, -2.9791, -1.4216, -3.1416], a=3.1416, v=0.018, r=Zone001)
  movej([-1.4209, -1.718, -1.5859, -2.9793, -1.4209, -3.1416], a=3.1416, v=0.0179, r=Zone001)
  movej([-1.4202, -1.7194, -1.5842, -2.9796, -1.4202, -3.1416], a=3.1416, v=0.0177, r=Zone001)
  movej([-1.4195, -1.7208, -1.5826, -2.9798, -1.4195, -3.1416], a=3.1416, v=0.0175, r=Zone001)
  movej([-1.4188, -1.7222, -1.581, -2.98, -1.4188, -3.1416], a=3.1416, v=0.0173, r=Zone001)
  movej([-1.4181, -1.7236, -1.5794, -2.9803, -1.4181, -3.1416], a=3.1416, v=0.0171, r=Zone001)
  movej([-1.4173, -1.7249, -1.5778, -2.9805, -1.4173, -3.1416], a=3.1416, v=0.017, r=Zone001)
  movej([-1.4165, -1.7263, -1.5762, -2.9807, -1.4165, -3.1416], a=3.1416, v=0.0168, r=Zone001)
  movej([-1.4157, -1.7276, -1.5746, -2.981, -1.4157, -3.1416], a=3.1416, v=0.0166, r=Zone001)
  movej([-1.4149, -1.7289, -1.5731, -2.9812, -1.4149, -3.1416], a=3.1416, v=0.0164, r=Zone001)
  movej([-1.414, -1.7302, -1.5716, -2.9814, -1.414, -3.1416], a=3.1416, v=0.0161, r=Zone001)
  movej([-1.4132, -1.7314, -1.5701, -2.9817, -1.4132, -3.1416], a=3.1416, v=0.0159, r=Zone001)
  movej([-1.4123, -1.7327, -1.5686, -2.9819, -1.4123, -3.1416], a=3.1416, v=0.0157, r=Zone001)
  movej([-1.4114, -1.7339, -1.5671, -2.9821, -1.4114, -3.1416], a=3.1416, v=0.0155, r=Zone001)
  movej([-1.4104, -1.7351, -1.5657, -2.9824, -1.4104, -3.1416], a=3.1416, v=0.0153, r=Zone001)
  movej([-1.4095, -1.7363, -1.5643, -2.9826, -1.4095, -3.1416], a=3.1416, v=0.015, r=Zone001)
  movej([-1.4085, -1.7375, -1.5629, -2.9828, -1.4085, -3.1416], a=3.1416, v=0.0148, r=Zone001)
  movej([-1.4075, -1.7387, -1.5615, -2.983, -1.4075, -3.1416], a=3.1416, v=0.0146, r=Zone001)
  movej([-1.4065, -1.7398, -1.5602, -2.9832, -1.4065, -3.1416], a=3.1416, v=0.0143, r=Zone001)
  movej([-1.4055, -1.7409, -1.5588, -2.9835, -1.4055, -3.1416], a=3.1416, v=0.0141, r=Zone001)
  movej([-1.4045, -1.742, -1.5575, -2.9837, -1.4045, -3.1416], a=3.1416, v=0.0139, r=Zone001)
  movej([-1.4034, -1.7431, -1.5562, -2.9839, -1.4034, -3.1416], a=3.1416, v=0.0136, r=Zone001)
  movej([-1.4024, -1.7441, -1.555, -2.9841, -1.4024, -3.1416], a=3.1416, v=0.0134, r=Zone001)
  movej([-1.4013, -1.7451, -1.5538, -2.9843, -1.4013, -3.1416], a=3.1416, v=0.0131, r=Zone001)
  movej([-1.4002, -1.7461, -1.5525, -2.9845, -1.4002, -3.1416], a=3.1416, v=0.0128, r=Zone001)
  movej([-1.3991, -1.7471, -1.5514, -2.9847, -1.3991, -3.1416], a=3.1416, v=0.0126, r=Zone001)
  movej([-1.3979, -1.7481, -1.5502, -2.9849, -1.3979, -3.1416], a=3.1416, v=0.0123, r=Zone001)
  movej([-1.3968, -1.749, -1.5491, -2.9851, -1.3968, -3.1416], a=3.1416, v=0.0123, r=Zone001)
  movej([-1.3956, -1.7499, -1.548, -2.9853, -1.3956, -3.1416], a=3.1416, v=0.0124, r=Zone001)
  movej([-1.3944, -1.7508, -1.5469, -2.9855, -1.3944, -3.1416], a=3.1416, v=0.0126, r=Zone001)
  movej([-1.3932, -1.7517, -1.5458, -2.9856, -1.3932, -3.1416], a=3.1416, v=0.0127, r=Zone001)
  movej([-1.392, -1.7526, -1.5448, -2.9858, -1.392, -3.1416], a=3.1416, v=0.0129, r=Zone001)
  movej([-1.3908, -1.7534, -1.5438, -2.986, -1.3908, -3.1416], a=3.1416, v=0.0131, r=Zone001)
  movej([-1.3895, -1.7542, -1.5428, -2.9862, -1.3895, -3.1416], a=3.1416, v=0.0132, r=Zone001)
  movej([-1.3883, -1.755, -1.5419, -2.9863, -1.3883, -3.1416], a=3.1416, v=0.0134, r=Zone001)
  movej([-1.387, -1.7557, -1.541, -2.9865, -1.387, -3.1416], a=3.1416, v=0.0135, r=Zone001)
  movej([-1.3857, -1.7565, -1.5401, -2.9866, -1.3857, -3.1416], a=3.1416, v=0.0136, r=Zone001)
  movej([-1.3844, -1.7572, -1.5392, -2.9868, -1.3844, -3.1416], a=3.1416, v=0.0138, r=Zone001)
  movej([-1.3831, -1.7579, -1.5384, -2.987, -1.3831, -3.1416], a=3.1416, v=0.0139, r=Zone001)
  movej([-1.3818, -1.7585, -1.5375, -2.9871, -1.3818, -3.1416], a=3.1416, v=0.0141, r=Zone001)
  movej([-1.3805, -1.7592, -1.5368, -2.9872, -1.3805, -3.1416], a=3.1416, v=0.0142, r=Zone001)
  movej([-1.3791, -1.7598, -1.536, -2.9874, -1.3791, -3.1416], a=3.1416, v=0.0143, r=Zone001)
  movej([-1.3778, -1.7604, -1.5353, -2.9875, -1.3778, -3.1416], a=3.1416, v=0.0144, r=Zone001)
  movej([-1.3764, -1.761, -1.5346, -2.9876, -1.3764, -3.1416], a=3.1416, v=0.0146, r=Zone001)
  movej([-1.375, -1.7615, -1.5339, -2.9878, -1.375, -3.1416], a=3.1416, v=0.0147, r=Zone001)
  movej([-1.3736, -1.762, -1.5333, -2.9879, -1.3736, -3.1416], a=3.1416, v=0.0148, r=Zone001)
  movej([-1.3722, -1.7625, -1.5327, -2.988, -1.3722, -3.1416], a=3.1416, v=0.0149, r=Zone001)
  movej([-1.3708, -1.763, -1.5321, -2.9881, -1.3708, -3.1416], a=3.1416, v=0.015, r=Zone001)
  movej([-1.3694, -1.7634, -1.5316, -2.9882, -1.3694, -3.1416], a=3.1416, v=0.0151, r=Zone001)
  movej([-1.368, -1.7639, -1.531, -2.9883, -1.368, -3.1416], a=3.1416, v=0.0152, r=Zone001)
  movej([-1.3665, -1.7642, -1.5305, -2.9884, -1.3665, -3.1416], a=3.1416, v=0.0153, r=Zone001)
  movej([-1.3651, -1.7646, -1.5301, -2.9885, -1.3651, -3.1416], a=3.1416, v=0.0154, r=Zone001)
  movej([-1.3636, -1.765, -1.5297, -2.9886, -1.3636, -3.1416], a=3.1416, v=0.0155, r=Zone001)
  movej([-1.3622, -1.7653, -1.5293, -2.9886, -1.3622, -3.1416], a=3.1416, v=0.0156, r=Zone001)
  movej([-1.3607, -1.7656, -1.5289, -2.9887, -1.3607, -3.1416], a=3.1416, v=0.0157, r=Zone001)
  movej([-1.3592, -1.7658, -1.5286, -2.9888, -1.3592, -3.1416], a=3.1416, v=0.0158, r=Zone001)
  movej([-1.3577, -1.7661, -1.5283, -2.9888, -1.3577, -3.1416], a=3.1416, v=0.0159, r=Zone001)
  movej([-1.3562, -1.7663, -1.528, -2.9889, -1.3562, -3.1416], a=3.1416, v=0.016, r=Zone001)
  movej([-1.3547, -1.7665, -1.5277, -2.9889, -1.3547, -3.1416], a=3.1416, v=0.016, r=Zone001)
  movej([-1.3532, -1.7667, -1.5275, -2.989, -1.3532, -3.1416], a=3.1416, v=0.0161, r=Zone001)
  movej([-1.3517, -1.7668, -1.5273, -2.989, -1.3517, -3.1416], a=3.1416, v=0.0162, r=Zone001)
  movej([-1.3501, -1.7669, -1.5272, -2.9891, -1.3501, -3.1416], a=3.1416, v=0.0163, r=Zone001)
  movej([-1.3486, -1.767, -1.5271, -2.9891, -1.3486, -3.1416], a=3.1416, v=0.0163, r=Zone001)
  movej([-1.3471, -1.7671, -1.527, -2.9891, -1.3471, -3.1416], a=3.1416, v=0.0164, r=Zone001)
  movej([-1.3455, -1.7671, -1.5269, -2.9891, -1.3455, -3.1416], a=3.1416, v=0.0165, r=Zone001)
  movej([-1.344, -1.7672, -1.5269, -2.9892, -1.344, -3.1416], a=3.1416, v=0.0165, r=Zone001)
  movej([-1.3424, -1.7671, -1.5269, -2.9892, -1.3424, -3.1416], a=3.1416, v=0.0166, r=Zone001)
  movej([-1.3409, -1.7671, -1.5269, -2.9892, -1.3409, -3.1416], a=3.1416, v=0.0166, r=Zone001)
  movej([-1.3393, -1.7671, -1.527, -2.9892, -1.3393, -3.1416], a=3.1416, v=0.0167, r=Zone001)
  movej([-1.3377, -1.767, -1.5271, -2.9892, -1.3377, -3.1416], a=3.1416, v=0.0167, r=Zone001)
  movej([-1.3361, -1.7669, -1.5272, -2.9891, -1.3361, -3.1416], a=3.1416, v=0.0168, r=Zone001)
  movej([-1.3346, -1.7667, -1.5273, -2.9891, -1.3346, -3.1416], a=3.1416, v=0.0168, r=Zone001)
  movej([-1.333, -1.7666, -1.5275, -2.9891, -1.333, -3.1416], a=3.1416, v=0.0168, r=Zone001)
  movej([-1.3314, -1.7664, -1.5278, -2.9891, -1.3314, -3.1416], a=3.1416, v=0.0169, r=Zone001)
  movej([-1.3298, -1.7662, -1.528, -2.989, -1.3298, -3.1416], a=3.1416, v=0.0169, r=Zone001)
  movej([-1.3282, -1.7659, -1.5283, -2.989, -1.3282, -3.1416], a=3.1416, v=0.0169, r=Zone001)
  movej([-1.3266, -1.7657, -1.5286, -2.9889, -1.3266, -3.1416], a=3.1416, v=0.017, r=Zone001)
  movej([-1.3251, -1.7654, -1.5289, -2.9889, -1.3251, -3.1416], a=3.1416, v=0.017, r=Zone001)
  movej([-1.3235, -1.7651, -1.5293, -2.9888, -1.3235, -3.1416], a=3.1416, v=0.017, r=Zone001)
  movej([-1.3219, -1.7647, -1.5297, -2.9888, -1.3219, -3.1416], a=3.1416, v=0.017, r=Zone001)
  movej([-1.3203, -1.7644, -1.5301, -2.9887, -1.3203, -3.1416], a=3.1416, v=0.017, r=Zone001)
  movej([-1.3187, -1.764, -1.5306, -2.9886, -1.3187, -3.1416], a=3.1416, v=0.017, r=Zone001)
  movej([-1.3171, -1.7636, -1.5311, -2.9886, -1.3171, -3.1416], a=3.1416, v=0.017, r=Zone001)
  movej([-1.3155, -1.7631, -1.5316, -2.9885, -1.3155, -3.1416], a=3.1416, v=0.017, r=Zone001)
  movej([-1.3139, -1.7627, -1.5321, -2.9884, -1.3139, -3.1416], a=3.1416, v=0.017, r=Zone001)
  movej([-1.3123, -1.7622, -1.5327, -2.9883, -1.3123, -3.1416], a=3.1416, v=0.017, r=Zone001)
  movej([-1.3107, -1.7617, -1.5333, -2.9882, -1.3107, -3.1416], a=3.1416, v=0.017, r=Zone001)
  movej([-1.3091, -1.7611, -1.534, -2.9881, -1.3091, -3.1416], a=3.1416, v=0.017, r=Zone001)
  movej([-1.3075, -1.7606, -1.5346, -2.988, -1.3075, -3.1416], a=3.1416, v=0.017, r=Zone001)
  movej([-1.3059, -1.76, -1.5353, -2.9879, -1.3059, -3.1416], a=3.1416, v=0.017, r=Zone001)
  movej([-1.3043, -1.7594, -1.5361, -2.9878, -1.3043, -3.1416], a=3.1416, v=0.017, r=Zone001)
  movej([-1.3027, -1.7587, -1.5368, -2.9876, -1.3027, -3.1416], a=3.1416, v=0.017, r=Zone001)
  movej([-1.3011, -1.7581, -1.5376, -2.9875, -1.3011, -3.1416], a=3.1416, v=0.0169, r=Zone001)
  movej([-1.2995, -1.7574, -1.5384, -2.9874, -1.2995, -3.1416], a=3.1416, v=0.0169, r=Zone001)
  movej([-1.298, -1.7567, -1.5392, -2.9873, -1.298, -3.1416], a=3.1416, v=0.0169, r=Zone001)
  movej([-1.2964, -1.756, -1.5401, -2.9871, -1.2964, -3.1416], a=3.1416, v=0.0169, r=Zone001)
  movej([-1.2948, -1.7552, -1.541, -2.987, -1.2948, -3.1416], a=3.1416, v=0.0168, r=Zone001)
  movej([-1.2932, -1.7544, -1.5419, -2.9868, -1.2932, -3.1416], a=3.1416, v=0.0168, r=Zone001)
  movej([-1.2917, -1.7537, -1.5429, -2.9867, -1.2917, -3.1416], a=3.1416, v=0.0167, r=Zone001)
  movej([-1.2901, -1.7528, -1.5438, -2.9865, -1.2901, -3.1416], a=3.1416, v=0.0167, r=Zone001)
  movej([-1.2885, -1.752, -1.5448, -2.9864, -1.2885, -3.1416], a=3.1416, v=0.0167, r=Zone001)
  movej([-1.287, -1.7511, -1.5458, -2.9862, -1.287, -3.1416], a=3.1416, v=0.0166, r=Zone001)
  movej([-1.2854, -1.7502, -1.5469, -2.986, -1.2854, -3.1416], a=3.1416, v=0.0165, r=Zone001)
  movej([-1.2839, -1.7493, -1.548, -2.9859, -1.2839, -3.1416], a=3.1416, v=0.0165, r=Zone001)
  movej([-1.2823, -1.7484, -1.5491, -2.9857, -1.2823, -3.1416], a=3.1416, v=0.0164, r=Zone001)
  movej([-1.2808, -1.7474, -1.5502, -2.9855, -1.2808, -3.1416], a=3.1416, v=0.0164, r=Zone001)
  movej([-1.2793, -1.7465, -1.5514, -2.9854, -1.2793, -3.1416], a=3.1416, v=0.0163, r=Zone001)
  movej([-1.2778, -1.7455, -1.5525, -2.9852, -1.2778, -3.1416], a=3.1416, v=0.0162, r=Zone001)
  movej([-1.2763, -1.7445, -1.5537, -2.985, -1.2763, -3.1416], a=3.1416, v=0.0162, r=Zone001)
  movej([-1.2747, -1.7434, -1.555, -2.9848, -1.2747, -3.1416], a=3.1416, v=0.0161, r=Zone001)
  movej([-1.2732, -1.7424, -1.5562, -2.9846, -1.2732, -3.1416], a=3.1416, v=0.016, r=Zone001)
  movej([-1.2718, -1.7413, -1.5575, -2.9844, -1.2718, -3.1416], a=3.1416, v=0.0159, r=Zone001)
  movej([-1.2703, -1.7402, -1.5588, -2.9842, -1.2703, -3.1416], a=3.1416, v=0.0158, r=Zone001)
  movej([-1.2688, -1.7391, -1.5601, -2.984, -1.2688, -3.1416], a=3.1416, v=0.0157, r=Zone001)
  movej([-1.2673, -1.7379, -1.5614, -2.9838, -1.2673, -3.1416], a=3.1416, v=0.0157, r=Zone001)
  movej([-1.2659, -1.7368, -1.5628, -2.9836, -1.2659, -3.1416], a=3.1416, v=0.0156, r=Zone001)
  movej([-1.2644, -1.7356, -1.5642, -2.9834, -1.2644, -3.1416], a=3.1416, v=0.0155, r=Zone001)
  movej([-1.263, -1.7344, -1.5656, -2.9832, -1.263, -3.1416], a=3.1416, v=0.0154, r=Zone001)
  movej([-1.2616, -1.7332, -1.567, -2.983, -1.2616, -3.1416], a=3.1416, v=0.0153, r=Zone001)
  movej([-1.2602, -1.7319, -1.5685, -2.9828, -1.2602, -3.1416], a=3.1416, v=0.0155, r=Zone001)
  movej([-1.2587, -1.7307, -1.5699, -2.9826, -1.2587, -3.1416], a=3.1416, v=0.0157, r=Zone001)
  movej([-1.2574, -1.7294, -1.5714, -2.9824, -1.2574, -3.1416], a=3.1416, v=0.0159, r=Zone001)
  movej([-1.256, -1.7281, -1.5729, -2.9822, -1.256, -3.1416], a=3.1416, v=0.0161, r=Zone001)
  movej([-1.2546, -1.7268, -1.5744, -2.982, -1.2546, -3.1416], a=3.1416, v=0.0163, r=Zone001)
  movej([-1.2532, -1.7255, -1.576, -2.9817, -1.2532, -3.1416], a=3.1416, v=0.0165, r=Zone001)
  movej([-1.2519, -1.7241, -1.5776, -2.9815, -1.2519, -3.1416], a=3.1416, v=0.0167, r=Zone001)
  movej([-1.2505, -1.7227, -1.5791, -2.9813, -1.2505, -3.1416], a=3.1416, v=0.0169, r=Zone001)
  movej([-1.2492, -1.7214, -1.5807, -2.9811, -1.2492, -3.1416], a=3.1416, v=0.0171, r=Zone001)
  movej([-1.2479, -1.72, -1.5824, -2.9809, -1.2479, -3.1416], a=3.1416, v=0.0173, r=Zone001)
  movej([-1.2466, -1.7185, -1.584, -2.9806, -1.2466, -3.1416], a=3.1416, v=0.0175, r=Zone001)
  movej([-1.2453, -1.7171, -1.5856, -2.9804, -1.2453, -3.1416], a=3.1416, v=0.0176, r=Zone001)
  movej([-1.244, -1.7157, -1.5873, -2.9802, -1.244, -3.1416], a=3.1416, v=0.0178, r=Zone001)
  movej([-1.2428, -1.7142, -1.589, -2.98, -1.2428, -3.1416], a=3.1416, v=0.018, r=Zone001)
  movej([-1.2415, -1.7127, -1.5907, -2.9798, -1.2415, -3.1416], a=3.1416, v=0.0181, r=Zone001)
  movej([-1.2403, -1.7112, -1.5924, -2.9795, -1.2403, -3.1416], a=3.1416, v=0.0183, r=Zone001)
  movej([-1.2391, -1.7097, -1.5941, -2.9793, -1.2391, -3.1416], a=3.1416, v=0.0185, r=Zone001)
  movej([-1.2379, -1.7082, -1.5959, -2.9791, -1.2379, -3.1416], a=3.1416, v=0.0186, r=Zone001)
  movej([-1.2367, -1.7067, -1.5976, -2.9789, -1.2367, -3.1416], a=3.1416, v=0.0188, r=Zone001)
  movej([-1.2356, -1.7051, -1.5994, -2.9787, -1.2356, -3.1416], a=3.1416, v=0.0189, r=Zone001)
  movej([-1.2344, -1.7036, -1.6012, -2.9784, -1.2344, -3.1416], a=3.1416, v=0.019, r=Zone001)
  movej([-1.2333, -1.702, -1.6029, -2.9782, -1.2333, -3.1416], a=3.1416, v=0.0192, r=Zone001)
  movej([-1.2321, -1.7004, -1.6048, -2.978, -1.2321, -3.1416], a=3.1416, v=0.0193, r=Zone001)
  movej([-1.231, -1.6988, -1.6066, -2.9778, -1.231, -3.1416], a=3.1416, v=0.0194, r=Zone001)
  movej([-1.23, -1.6972, -1.6084, -2.9776, -1.23, -3.1416], a=3.1416, v=0.0195, r=Zone001)
  movej([-1.2289, -1.6956, -1.6102, -2.9774, -1.2289, -3.1416], a=3.1416, v=0.0196, r=Zone001)
  movej([-1.2278, -1.694, -1.6121, -2.9772, -1.2278, -3.1416], a=3.1416, v=0.0198, r=Zone001)
  movej([-1.2268, -1.6923, -1.6139, -2.9769, -1.2268, -3.1416], a=3.1416, v=0.0199, r=Zone001)
  movej([-1.2258, -1.6907, -1.6158, -2.9767, -1.2258, -3.1416], a=3.1416, v=0.02, r=Zone001)
  movej([-1.2248, -1.689, -1.6177, -2.9765, -1.2248, -3.1416], a=3.1416, v=0.0201, r=Zone001)
  movej([-1.2238, -1.6873, -1.6195, -2.9763, -1.2238, -3.1416], a=3.1416, v=0.0201, r=Zone001)
  movej([-1.2229, -1.6856, -1.6214, -2.9761, -1.2229, -3.1416], a=3.1416, v=0.0202, r=Zone001)
  movej([-1.2219, -1.6839, -1.6233, -2.9759, -1.2219, -3.1416], a=3.1416, v=0.0203, r=Zone001)
  movej([-1.221, -1.6822, -1.6252, -2.9757, -1.221, -3.1416], a=3.1416, v=0.0204, r=Zone001)
  movej([-1.2201, -1.6805, -1.6271, -2.9755, -1.2201, -3.1416], a=3.1416, v=0.0204, r=Zone001)
  movej([-1.2193, -1.6788, -1.6291, -2.9753, -1.2193, -3.1416], a=3.1416, v=0.0205, r=Zone001)
  movej([-1.2184, -1.6771, -1.631, -2.9751, -1.2184, -3.1416], a=3.1416, v=0.0206, r=Zone001)
  movej([-1.2176, -1.6753, -1.6329, -2.9749, -1.2176, -3.1416], a=3.1416, v=0.0206, r=Zone001)
  movej([-1.2168, -1.6736, -1.6348, -2.9748, -1.2168, -3.1416], a=3.1416, v=0.0207, r=Zone001)
  movej([-1.216, -1.6718, -1.6368, -2.9746, -1.216, -3.1416], a=3.1416, v=0.0207, r=Zone001)
  movej([-1.2152, -1.6701, -1.6387, -2.9744, -1.2152, -3.1416], a=3.1416, v=0.0208, r=Zone001)
  movej([-1.2145, -1.6683, -1.6406, -2.9742, -1.2145, -3.1416], a=3.1416, v=0.0208, r=Zone001)
  movej([-1.2137, -1.6666, -1.6426, -2.974, -1.2137, -3.1416], a=3.1416, v=0.0208, r=Zone001)
  movej([-1.213, -1.6648, -1.6445, -2.9739, -1.213, -3.1416], a=3.1416, v=0.0208, r=Zone001)
  movej([-1.2124, -1.663, -1.6465, -2.9737, -1.2124, -3.1416], a=3.1416, v=0.0209, r=Zone001)
  movej([-1.2117, -1.6612, -1.6484, -2.9735, -1.2117, -3.1416], a=3.1416, v=0.0209, r=Zone001)
  movej([-1.2111, -1.6595, -1.6504, -2.9733, -1.2111, -3.1416], a=3.1416, v=0.0209, r=Zone001)
  movej([-1.2105, -1.6577, -1.6523, -2.9732, -1.2105, -3.1416], a=3.1416, v=0.0209, r=Zone001)
  movej([-1.2099, -1.6559, -1.6543, -2.973, -1.2099, -3.1416], a=3.1416, v=0.0209, r=Zone001)
  movej([-1.2093, -1.6541, -1.6562, -2.9729, -1.2093, -3.1416], a=3.1416, v=0.0209, r=Zone001)
  movej([-1.2088, -1.6523, -1.6582, -2.9727, -1.2088, -3.1416], a=3.1416, v=0.0209, r=Zone001)
  movej([-1.2083, -1.6505, -1.6601, -2.9726, -1.2083, -3.1416], a=3.1416, v=0.0208, r=Zone001)
  movej([-1.2078, -1.6487, -1.6621, -2.9724, -1.2078, -3.1416], a=3.1416, v=0.0208, r=Zone001)
  movej([-1.2074, -1.6469, -1.664, -2.9723, -1.2074, -3.1416], a=3.1416, v=0.0208, r=Zone001)
  movej([-1.2069, -1.6451, -1.6659, -2.9721, -1.2069, -3.1416], a=3.1416, v=0.0208, r=Zone001)
  movej([-1.2065, -1.6433, -1.6679, -2.972, -1.2065, -3.1416], a=3.1416, v=0.0207, r=Zone001)
  movej([-1.2061, -1.6415, -1.6698, -2.9719, -1.2061, -3.1416], a=3.1416, v=0.0207, r=Zone001)
  movej([-1.2058, -1.6397, -1.6717, -2.9717, -1.2058, -3.1416], a=3.1416, v=0.0206, r=Zone001)
  movej([-1.2054, -1.6379, -1.6736, -2.9716, -1.2054, -3.1416], a=3.1416, v=0.0206, r=Zone001)
  movej([-1.2051, -1.6361, -1.6756, -2.9715, -1.2051, -3.1416], a=3.1416, v=0.0205, r=Zone001)
  movej([-1.2049, -1.6343, -1.6775, -2.9714, -1.2049, -3.1416], a=3.1416, v=0.0205, r=Zone001)
  movej([-1.2046, -1.6326, -1.6794, -2.9713, -1.2046, -3.1416], a=3.1416, v=0.0204, r=Zone001)
  movej([-1.2044, -1.6308, -1.6813, -2.9712, -1.2044, -3.1416], a=3.1416, v=0.0203, r=Zone001)
  movej([-1.2042, -1.629, -1.6831, -2.9711, -1.2042, -3.1416], a=3.1416, v=0.0202, r=Zone001)
  movej([-1.2041, -1.6272, -1.685, -2.971, -1.2041, -3.1416], a=3.1416, v=0.0202, r=Zone001)
  movej([-1.2039, -1.6254, -1.6869, -2.9709, -1.2039, -3.1416], a=3.1416, v=0.0201, r=Zone001)
  movej([-1.2038, -1.6237, -1.6888, -2.9708, -1.2038, -3.1416], a=3.1416, v=0.02, r=Zone001)
  movej([-1.2037, -1.6219, -1.6906, -2.9707, -1.2037, -3.1416], a=3.1416, v=0.0199, r=Zone001)
  movej([-1.2037, -1.6202, -1.6924, -2.9706, -1.2037, -3.1416], a=3.1416, v=0.0198, r=Zone001)
  movej([-1.2037, -1.6184, -1.6943, -2.9705, -1.2037, -3.1416], a=3.1416, v=0.0197, r=Zone001)
  movej([-1.2037, -1.6167, -1.6961, -2.9704, -1.2037, -3.1416], a=3.1416, v=0.0195, r=Zone001)
  movej([-1.2037, -1.6149, -1.6979, -2.9703, -1.2037, -3.1416], a=3.1416, v=0.0194, r=Zone001)
  movej([-1.2038, -1.6132, -1.6997, -2.9703, -1.2038, -3.1416], a=3.1416, v=0.0193, r=Zone001)
  movej([-1.2039, -1.6115, -1.7015, -2.9702, -1.2039, -3.1416], a=3.1416, v=0.0192, r=Zone001)
  movej([-1.204, -1.6098, -1.7033, -2.9701, -1.204, -3.1416], a=3.1416, v=0.019, r=Zone001)
  movej([-1.2041, -1.6081, -1.705, -2.9701, -1.2041, -3.1416], a=3.1416, v=0.0189, r=Zone001)
  movej([-1.2043, -1.6064, -1.7068, -2.97, -1.2043, -3.1416], a=3.1416, v=0.0188, r=Zone001)
  movej([-1.2045, -1.6047, -1.7085, -2.97, -1.2045, -3.1416], a=3.1416, v=0.0186, r=Zone001)
  movej([-1.2048, -1.603, -1.7102, -2.9699, -1.2048, -3.1416], a=3.1416, v=0.0185, r=Zone001)
  movej([-1.205, -1.6014, -1.7119, -2.9699, -1.205, -3.1416], a=3.1416, v=0.0183, r=Zone001)
  movej([-1.2053, -1.5997, -1.7136, -2.9698, -1.2053, -3.1416], a=3.1416, v=0.0182, r=Zone001)
  movej([-1.2057, -1.5981, -1.7153, -2.9698, -1.2057, -3.1416], a=3.1416, v=0.018, r=Zone001)
  movej([-1.206, -1.5965, -1.717, -2.9697, -1.206, -3.1416], a=3.1416, v=0.0178, r=Zone001)
  movej([-1.2064, -1.5949, -1.7186, -2.9697, -1.2064, -3.1416], a=3.1416, v=0.0176, r=Zone001)
  movej([-1.2068, -1.5933, -1.7202, -2.9697, -1.2068, -3.1416], a=3.1416, v=0.0175, r=Zone001)
  movej([-1.2073, -1.5917, -1.7219, -2.9697, -1.2073, -3.1416], a=3.1416, v=0.0173, r=Zone001)
  movej([-1.2078, -1.5901, -1.7234, -2.9696, -1.2078, -3.1416], a=3.1416, v=0.0171, r=Zone001)
  movej([-1.2083, -1.5886, -1.725, -2.9696, -1.2083, -3.1416], a=3.1416, v=0.0169, r=Zone001)
  movej([-1.2088, -1.587, -1.7266, -2.9696, -1.2088, -3.1416], a=3.1416, v=0.0167, r=Zone001)
  movej([-1.2094, -1.5855, -1.7281, -2.9696, -1.2094, -3.1416], a=3.1416, v=0.0165, r=Zone001)
  movej([-1.21, -1.584, -1.7296, -2.9696, -1.21, -3.1416], a=3.1416, v=0.0163, r=Zone001)
  movej([-1.2107, -1.5825, -1.7311, -2.9695, -1.2107, -3.1416], a=3.1416, v=0.0161, r=Zone001)
  movej([-1.2113, -1.581, -1.7326, -2.9695, -1.2113, -3.1416], a=3.1416, v=0.0159, r=Zone001)
  movej([-1.212, -1.5796, -1.7341, -2.9695, -1.212, -3.1416], a=3.1416, v=0.0157, r=Zone001)
  movej([-1.2127, -1.5782, -1.7355, -2.9695, -1.2127, -3.1416], a=3.1416, v=0.0154, r=Zone001)
  movej([-1.2135, -1.5767, -1.7369, -2.9695, -1.2135, -3.1416], a=3.1416, v=0.0152, r=Zone001)
  movej([-1.2143, -1.5753, -1.7383, -2.9695, -1.2143, -3.1416], a=3.1416, v=0.015, r=Zone001)
  movej([-1.2151, -1.574, -1.7397, -2.9695, -1.2151, -3.1416], a=3.1416, v=0.0148, r=Zone001)
  movej([-1.2159, -1.5726, -1.741, -2.9695, -1.2159, -3.1416], a=3.1416, v=0.0146, r=Zone001)
  movej([-1.2168, -1.5713, -1.7424, -2.9695, -1.2168, -3.1416], a=3.1416, v=0.0144, r=Zone001)
  movej([-1.2177, -1.57, -1.7437, -2.9696, -1.2177, -3.1416], a=3.1416, v=0.0141, r=Zone001)
  movej([-1.2187, -1.5687, -1.7449, -2.9696, -1.2187, -3.1416], a=3.1416, v=0.0139, r=Zone001)
  movej([-1.2196, -1.5674, -1.7462, -2.9696, -1.2196, -3.1416], a=3.1416, v=0.0137, r=Zone001)
  movej([-1.2206, -1.5661, -1.7474, -2.9696, -1.2206, -3.1416], a=3.1416, v=0.0134, r=Zone001)
  movej([-1.2216, -1.5649, -1.7486, -2.9696, -1.2216, -3.1416], a=3.1416, v=0.0132, r=Zone001)
  movej([-1.2227, -1.5637, -1.7498, -2.9696, -1.2227, -3.1416], a=3.1416, v=0.0129, r=Zone001)
  movej([-1.2238, -1.5625, -1.751, -2.9697, -1.2238, -3.1416], a=3.1416, v=0.0127, r=Zone001)
  movej([-1.2249, -1.5614, -1.7521, -2.9697, -1.2249, -3.1416], a=3.1416, v=0.0124, r=Zone001)
  movej([-1.226, -1.5602, -1.7532, -2.9697, -1.226, -3.1416], a=3.1416, v=0.0122, r=Zone001)
  movej([-1.2272, -1.5591, -1.7543, -2.9697, -1.2272, -3.1416], a=3.1416, v=0.0125, r=Zone001)
  movej([-1.2284, -1.5581, -1.7554, -2.9697, -1.2284, -3.1416], a=3.1416, v=0.0128, r=Zone001)
  movej([-1.2296, -1.557, -1.7564, -2.9698, -1.2296, -3.1416], a=3.1416, v=0.0131, r=Zone001)
  movej([-1.2308, -1.556, -1.7574, -2.9698, -1.2308, -3.1416], a=3.1416, v=0.0134, r=Zone001)
  movej([-1.2321, -1.555, -1.7584, -2.9698, -1.2321, -3.1416], a=3.1416, v=0.0137, r=Zone001)
  movej([-1.2334, -1.554, -1.7594, -2.9698, -1.2334, -3.1416], a=3.1416, v=0.014, r=Zone001)
  movej([-1.2347, -1.553, -1.7603, -2.9699, -1.2347, -3.1416], a=3.1416, v=0.0143, r=Zone001)
  movej([-1.2361, -1.5521, -1.7612, -2.9699, -1.2361, -3.1416], a=3.1416, v=0.0145, r=Zone001)
  movej([-1.2375, -1.5512, -1.7621, -2.9699, -1.2375, -3.1416], a=3.1416, v=0.0148, r=Zone001)
  movej([-1.2389, -1.5503, -1.7629, -2.97, -1.2389, -3.1416], a=3.1416, v=0.0151, r=Zone001)
  movej([-1.2403, -1.5495, -1.7637, -2.97, -1.2403, -3.1416], a=3.1416, v=0.0154, r=Zone001)
  movej([-1.2418, -1.5487, -1.7645, -2.97, -1.2418, -3.1416], a=3.1416, v=0.0156, r=Zone001)
  movej([-1.2432, -1.5479, -1.7653, -2.9701, -1.2432, -3.1416], a=3.1416, v=0.0159, r=Zone001)
  movej([-1.2447, -1.5471, -1.766, -2.9701, -1.2447, -3.1416], a=3.1416, v=0.0161, r=Zone001)
  movej([-1.2462, -1.5464, -1.7667, -2.9701, -1.2462, -3.1416], a=3.1416, v=0.0164, r=Zone001)
  movej([-1.2478, -1.5457, -1.7674, -2.9701, -1.2478, -3.1416], a=3.1416, v=0.0166, r=Zone001)
  movej([-1.2494, -1.545, -1.768, -2.9702, -1.2494, -3.1416], a=3.1416, v=0.0169, r=Zone001)
  movej([-1.2509, -1.5444, -1.7686, -2.9702, -1.2509, -3.1416], a=3.1416, v=0.0171, r=Zone001)
  movej([-1.2526, -1.5438, -1.7692, -2.9702, -1.2526, -3.1416], a=3.1416, v=0.0173, r=Zone001)
  movej([-1.2542, -1.5432, -1.7697, -2.9702, -1.2542, -3.1416], a=3.1416, v=0.0176, r=Zone001)
  movej([-1.2558, -1.5426, -1.7703, -2.9703, -1.2558, -3.1416], a=3.1416, v=0.0178, r=Zone001)
  movej([-1.2575, -1.5421, -1.7708, -2.9703, -1.2575, -3.1416], a=3.1416, v=0.018, r=Zone001)
  movej([-1.2592, -1.5416, -1.7712, -2.9703, -1.2592, -3.1416], a=3.1416, v=0.0182, r=Zone001)
  movej([-1.2609, -1.5412, -1.7717, -2.9704, -1.2609, -3.1416], a=3.1416, v=0.0184, r=Zone001)
  movej([-1.2626, -1.5407, -1.7721, -2.9704, -1.2626, -3.1416], a=3.1416, v=0.0186, r=Zone001)
  movej([-1.2644, -1.5404, -1.7724, -2.9704, -1.2644, -3.1416], a=3.1416, v=0.0188, r=Zone001)
  movej([-1.2661, -1.54, -1.7728, -2.9704, -1.2661, -3.1416], a=3.1416, v=0.019, r=Zone001)
  movej([-1.2679, -1.5397, -1.7731, -2.9704, -1.2679, -3.1416], a=3.1416, v=0.0191, r=Zone001)
  movej([-1.2697, -1.5394, -1.7734, -2.9705, -1.2697, -3.1416], a=3.1416, v=0.0193, r=Zone001)
  movej([-1.2715, -1.5391, -1.7736, -2.9705, -1.2715, -3.1416], a=3.1416, v=0.0195, r=Zone001)
  movej([-1.2733, -1.5389, -1.7738, -2.9705, -1.2733, -3.1416], a=3.1416, v=0.0196, r=Zone001)
  movej([-1.2752, -1.5387, -1.774, -2.9705, -1.2752, -3.1416], a=3.1416, v=0.0198, r=Zone001)
  movej([-1.277, -1.5385, -1.7742, -2.9705, -1.277, -3.1416], a=3.1416, v=0.0199, r=Zone001)
  movej([-1.2789, -1.5383, -1.7743, -2.9705, -1.2789, -3.1416], a=3.1416, v=0.0201, r=Zone001)
  movej([-1.2808, -1.5382, -1.7744, -2.9706, -1.2808, -3.1416], a=3.1416, v=0.0202, r=Zone001)
  movej([-1.2827, -1.5382, -1.7744, -2.9706, -1.2827, -3.1416], a=3.1416, v=0.0203, r=Zone001)
  movej([-1.2846, -1.5381, -1.7745, -2.9706, -1.2846, -3.1416], a=3.1416, v=0.0205, r=Zone001)
  movej([-1.2865, -1.5381, -1.7745, -2.9706, -1.2865, -3.1416], a=3.1416, v=0.0206, r=Zone001)
  movej([-1.2884, -1.5381, -1.7744, -2.9706, -1.2884, -3.1416], a=3.1416, v=0.0207, r=Zone001)
  movej([-1.2903, -1.5382, -1.7744, -2.9706, -1.2903, -3.1416], a=3.1416, v=0.0208, r=Zone001)
  movej([-1.2923, -1.5383, -1.7743, -2.9706, -1.2923, -3.1416], a=3.1416, v=0.0209, r=Zone001)
  movej([-1.2942, -1.5384, -1.7742, -2.9706, -1.2942, -3.1416], a=3.1416, v=0.0209, r=Zone001)
  movej([-1.2961, -1.5386, -1.774, -2.9706, -1.2961, -3.1416], a=3.1416, v=0.021, r=Zone001)
  movej([-1.2981, -1.5387, -1.7738, -2.9706, -1.2981, -3.1416], a=3.1416, v=0.0211, r=Zone001)
  movej([-1.3001, -1.539, -1.7736, -2.9706, -1.3001, -3.1416], a=3.1416, v=0.0211, r=Zone001)
  movej([-1.302, -1.5392, -1.7733, -2.9706, -1.302, -3.1416], a=3.1416, v=0.0212, r=Zone001)
  movej([-1.304, -1.5395, -1.7731, -2.9706, -1.304, -3.1416], a=3.1416, v=0.0212, r=Zone001)
  movej([-1.306, -1.5398, -1.7728, -2.9706, -1.306, -3.1416], a=3.1416, v=0.0213, r=Zone001)
  movej([-1.308, -1.5401, -1.7724, -2.9706, -1.308, -3.1416], a=3.1416, v=0.0213, r=Zone001)
  movej([-1.3099, -1.5405, -1.772, -2.9706, -1.3099, -3.1416], a=3.1416, v=0.0213, r=Zone001)
  movej([-1.3119, -1.5409, -1.7716, -2.9706, -1.3119, -3.1416], a=3.1416, v=0.0214, r=Zone001)
  movej([-1.3139, -1.5414, -1.7712, -2.9706, -1.3139, -3.1416], a=3.1416, v=0.0214, r=Zone001)
  movej([-1.3159, -1.5418, -1.7707, -2.9706, -1.3159, -3.1416], a=3.1416, v=0.0214, r=Zone001)
  movej([-1.3179, -1.5423, -1.7703, -2.9706, -1.3179, -3.1416], a=3.1416, v=0.0214, r=Zone001)
  movej([-1.3198, -1.5429, -1.7697, -2.9706, -1.3198, -3.1416], a=3.1416, v=0.0213, r=Zone001)
  movej([-1.3218, -1.5434, -1.7692, -2.9706, -1.3218, -3.1416], a=3.1416, v=0.0213, r=Zone001)
  movej([-1.3238, -1.544, -1.7686, -2.9706, -1.3238, -3.1416], a=3.1416, v=0.0213, r=Zone001)
  movej([-1.3258, -1.5446, -1.768, -2.9706, -1.3258, -3.1416], a=3.1416, v=0.0213, r=Zone001)
  movej([-1.3277, -1.5453, -1.7673, -2.9706, -1.3277, -3.1416], a=3.1416, v=0.0212, r=Zone001)
  movej([-1.3297, -1.546, -1.7667, -2.9706, -1.3297, -3.1416], a=3.1416, v=0.0212, r=Zone001)
  movej([-1.3316, -1.5467, -1.766, -2.9705, -1.3316, -3.1416], a=3.1416, v=0.0211, r=Zone001)
  movej([-1.3336, -1.5474, -1.7652, -2.9705, -1.3336, -3.1416], a=3.1416, v=0.021, r=Zone001)
  movej([-1.3355, -1.5482, -1.7645, -2.9705, -1.3355, -3.1416], a=3.1416, v=0.021, r=Zone001)
  movej([-1.3375, -1.549, -1.7637, -2.9705, -1.3375, -3.1416], a=3.1416, v=0.0209, r=Zone001)
  movej([-1.3394, -1.5498, -1.7629, -2.9705, -1.3394, -3.1416], a=3.1416, v=0.0208, r=Zone001)
  movej([-1.3413, -1.5507, -1.762, -2.9705, -1.3413, -3.1416], a=3.1416, v=0.0207, r=Zone001)
  movej([-1.3432, -1.5515, -1.7612, -2.9705, -1.3432, -3.1416], a=3.1416, v=0.0206, r=Zone001)
  movej([-1.3451, -1.5524, -1.7603, -2.9705, -1.3451, -3.1416], a=3.1416, v=0.0205, r=Zone001)
  movej([-1.347, -1.5534, -1.7593, -2.9705, -1.347, -3.1416], a=3.1416, v=0.0204, r=Zone001)
  movej([-1.3489, -1.5543, -1.7584, -2.9705, -1.3489, -3.1416], a=3.1416, v=0.0203, r=Zone001)
  movej([-1.3508, -1.5553, -1.7574, -2.9705, -1.3508, -3.1416], a=3.1416, v=0.0201, r=Zone001)
  movej([-1.3526, -1.5563, -1.7564, -2.9705, -1.3526, -3.1416], a=3.1416, v=0.02, r=Zone001)
  movej([-1.3545, -1.5574, -1.7554, -2.9704, -1.3545, -3.1416], a=3.1416, v=0.0199, r=Zone001)
  movej([-1.3563, -1.5584, -1.7543, -2.9704, -1.3563, -3.1416], a=3.1416, v=0.0197, r=Zone001)
  movej([-1.3581, -1.5595, -1.7532, -2.9704, -1.3581, -3.1416], a=3.1416, v=0.0196, r=Zone001)
  movej([-1.3599, -1.5606, -1.7521, -2.9704, -1.3599, -3.1416], a=3.1416, v=0.0194, r=Zone001)
  movej([-1.3617, -1.5618, -1.751, -2.9704, -1.3617, -3.1416], a=3.1416, v=0.0193, r=Zone001)
  movej([-1.3635, -1.5629, -1.7498, -2.9704, -1.3635, -3.1416], a=3.1416, v=0.0191, r=Zone001)
  movej([-1.3652, -1.5641, -1.7486, -2.9704, -1.3652, -3.1416], a=3.1416, v=0.0189, r=Zone001)
  movej([-1.3669, -1.5653, -1.7474, -2.9704, -1.3669, -3.1416], a=3.1416, v=0.0187, r=Zone001)
  movej([-1.3687, -1.5666, -1.7462, -2.9704, -1.3687, -3.1416], a=3.1416, v=0.0185, r=Zone001)
  movej([-1.3704, -1.5678, -1.7449, -2.9704, -1.3704, -3.1416], a=3.1416, v=0.0183, r=Zone001)
  movej([-1.372, -1.5691, -1.7436, -2.9704, -1.372, -3.1416], a=3.1416, v=0.0181, r=Zone001)
  movej([-1.3737, -1.5704, -1.7423, -2.9705, -1.3737, -3.1416], a=3.1416, v=0.0179, r=Zone001)
  movej([-1.3753, -1.5717, -1.741, -2.9705, -1.3753, -3.1416], a=3.1416, v=0.0177, r=Zone001)
  movej([-1.377, -1.573, -1.7397, -2.9705, -1.377, -3.1416], a=3.1416, v=0.0175, r=Zone001)
  movej([-1.3786, -1.5744, -1.7383, -2.9705, -1.3786, -3.1416], a=3.1416, v=0.0173, r=Zone001)
  movej([-1.3801, -1.5758, -1.7369, -2.9705, -1.3801, -3.1416], a=3.1416, v=0.0171, r=Zone001)
  movej([-1.3817, -1.5772, -1.7355, -2.9705, -1.3817, -3.1416], a=3.1416, v=0.0169, r=Zone001)
  movej([-1.3832, -1.5786, -1.7341, -2.9705, -1.3832, -3.1416], a=3.1416, v=0.0166, r=Zone001)
  movej([-1.3848, -1.58, -1.7326, -2.9706, -1.3848, -3.1416], a=3.1416, v=0.0164, r=Zone001)
  movej([-1.3862, -1.5815, -1.7311, -2.9706, -1.3862, -3.1416], a=3.1416, v=0.0161, r=Zone001)
  movej([-1.3877, -1.5829, -1.7296, -2.9706, -1.3877, -3.1416], a=3.1416, v=0.0162, r=Zone001)
  movej([-1.3892, -1.5844, -1.7281, -2.9707, -1.3892, -3.1416], a=3.1416, v=0.0164, r=Zone001)
  movej([-1.3906, -1.5859, -1.7266, -2.9707, -1.3906, -3.1416], a=3.1416, v=0.0166, r=Zone001)
  movej([-1.392, -1.5874, -1.725, -2.9707, -1.392, -3.1416], a=3.1416, v=0.0168, r=Zone001)
  movej([-1.3934, -1.589, -1.7235, -2.9708, -1.3934, -3.1416], a=3.1416, v=0.017, r=Zone001)
  movej([-1.3947, -1.5905, -1.7219, -2.9708, -1.3947, -3.1416], a=3.1416, v=0.0172, r=Zone001)
  movej([-1.3961, -1.5921, -1.7203, -2.9708, -1.3961, -3.1416], a=3.1416, v=0.0174, r=Zone001)
  movej([-1.3974, -1.5936, -1.7187, -2.9709, -1.3974, -3.1416], a=3.1416, v=0.0175, r=Zone001)
  movej([-1.3986, -1.5952, -1.717, -2.9709, -1.3986, -3.1416], a=3.1416, v=0.0177, r=Zone001)
  movej([-1.3999, -1.5968, -1.7154, -2.971, -1.3999, -3.1416], a=3.1416, v=0.0179, r=Zone001)
  movej([-1.4011, -1.5984, -1.7137, -2.9711, -1.4011, -3.1416], a=3.1416, v=0.0181, r=Zone001)
  movej([-1.4023, -1.6001, -1.712, -2.9711, -1.4023, -3.1416], a=3.1416, v=0.0182, r=Zone001)
  movej([-1.4035, -1.6017, -1.7103, -2.9712, -1.4035, -3.1416], a=3.1416, v=0.0184, r=Zone001)
  movej([-1.4046, -1.6034, -1.7086, -2.9712, -1.4046, -3.1416], a=3.1416, v=0.0186, r=Zone001)
  movej([-1.4058, -1.605, -1.7069, -2.9713, -1.4058, -3.1416], a=3.1416, v=0.0187, r=Zone001)
  movej([-1.4068, -1.6067, -1.7051, -2.9714, -1.4068, -3.1416], a=3.1416, v=0.0189, r=Zone001)
  movej([-1.4079, -1.6084, -1.7034, -2.9715, -1.4079, -3.1416], a=3.1416, v=0.019, r=Zone001)
  movej([-1.409, -1.6101, -1.7016, -2.9716, -1.409, -3.1416], a=3.1416, v=0.0191, r=Zone001)
  movej([-1.41, -1.6118, -1.6998, -2.9716, -1.41, -3.1416], a=3.1416, v=0.0193, r=Zone001)
  movej([-1.411, -1.6135, -1.698, -2.9717, -1.411, -3.1416], a=3.1416, v=0.0194, r=Zone001)
  movej([-1.4119, -1.6152, -1.6962, -2.9718, -1.4119, -3.1416], a=3.1416, v=0.0195, r=Zone001)
  movej([-1.4128, -1.6169, -1.6944, -2.9719, -1.4128, -3.1416], a=3.1416, v=0.0197, r=Zone001)
  movej([-1.4137, -1.6186, -1.6926, -2.972, -1.4137, -3.1416], a=3.1416, v=0.0198, r=Zone001)
  movej([-1.4146, -1.6204, -1.6907, -2.9721, -1.4146, -3.1416], a=3.1416, v=0.0199, r=Zone001)
  movej([-1.4155, -1.6221, -1.6889, -2.9722, -1.4155, -3.1416], a=3.1416, v=0.02, r=Zone001)
  movej([-1.4163, -1.6238, -1.687, -2.9723, -1.4163, -3.1416], a=3.1416, v=0.0201, r=Zone001)
  movej([-1.4171, -1.6256, -1.6852, -2.9724, -1.4171, -3.1416], a=3.1416, v=0.0202, r=Zone001)
  movej([-1.4178, -1.6273, -1.6833, -2.9726, -1.4178, -3.1416], a=3.1416, v=0.0203, r=Zone001)
  movej([-1.4186, -1.6291, -1.6814, -2.9727, -1.4186, -3.1416], a=3.1416, v=0.0204, r=Zone001)
  movej([-1.4193, -1.6309, -1.6795, -2.9728, -1.4193, -3.1416], a=3.1416, v=0.0204, r=Zone001)
  movej([-1.4199, -1.6326, -1.6776, -2.9729, -1.4199, -3.1416], a=3.1416, v=0.0205, r=Zone001)
  movej([-1.4206, -1.6344, -1.6757, -2.9731, -1.4206, -3.1416], a=3.1416, v=0.0206, r=Zone001)
  movej([-1.4212, -1.6362, -1.6738, -2.9732, -1.4212, -3.1416], a=3.1416, v=0.0206, r=Zone001)
  movej([-1.4218, -1.638, -1.6719, -2.9733, -1.4218, -3.1416], a=3.1416, v=0.0207, r=Zone001)
  movej([-1.4224, -1.6397, -1.67, -2.9735, -1.4224, -3.1416], a=3.1416, v=0.0208, r=Zone001)
  movej([-1.4229, -1.6415, -1.6681, -2.9736, -1.4229, -3.1416], a=3.1416, v=0.0208, r=Zone001)
  movej([-1.4234, -1.6433, -1.6661, -2.9738, -1.4234, -3.1416], a=3.1416, v=0.0209, r=Zone001)
  movej([-1.4239, -1.6451, -1.6642, -2.9739, -1.4239, -3.1416], a=3.1416, v=0.0209, r=Zone001)
  movej([-1.4243, -1.6468, -1.6623, -2.9741, -1.4243, -3.1416], a=3.1416, v=0.0209, r=Zone001)
  movej([-1.4247, -1.6486, -1.6603, -2.9742, -1.4247, -3.1416], a=3.1416, v=0.021, r=Zone001)
  movej([-1.4251, -1.6504, -1.6584, -2.9744, -1.4251, -3.1416], a=3.1416, v=0.021, r=Zone001)
  movej([-1.4255, -1.6522, -1.6565, -2.9746, -1.4255, -3.1416], a=3.1416, v=0.021, r=Zone001)
  movej([-1.4258, -1.6539, -1.6545, -2.9747, -1.4258, -3.1416], a=3.1416, v=0.021, r=Zone001)
  movej([-1.4261, -1.6557, -1.6526, -2.9749, -1.4261, -3.1416], a=3.1416, v=0.021, r=Zone001)
  movej([-1.4264, -1.6575, -1.6506, -2.9751, -1.4264, -3.1416], a=3.1416, v=0.021, r=Zone001)
  movej([-1.4267, -1.6592, -1.6487, -2.9753, -1.4267, -3.1416], a=3.1416, v=0.021, r=Zone001)
  movej([-1.4269, -1.661, -1.6467, -2.9755, -1.4269, -3.1416], a=3.1416, v=0.021, r=Zone001)
  movej([-1.4271, -1.6627, -1.6448, -2.9756, -1.4271, -3.1416], a=3.1416, v=0.021, r=Zone001)
  movej([-1.4272, -1.6645, -1.6429, -2.9758, -1.4272, -3.1416], a=3.1416, v=0.021, r=Zone001)
  movej([-1.4274, -1.6662, -1.6409, -2.976, -1.4274, -3.1416], a=3.1416, v=0.021, r=Zone001)
  movej([-1.4275, -1.668, -1.639, -2.9762, -1.4275, -3.1416], a=3.1416, v=0.021, r=Zone001)
  movej([-1.4276, -1.6697, -1.6371, -2.9764, -1.4276, -3.1416], a=3.1416, v=0.0209, r=Zone001)
  movej([-1.4276, -1.6714, -1.6351, -2.9766, -1.4276, -3.1416], a=3.1416, v=0.0209, r=Zone001)
  movej([-1.4277, -1.6732, -1.6332, -2.9768, -1.4277, -3.1416], a=3.1416, v=0.0208, r=Zone001)
  movej([-1.4277, -1.6749, -1.6313, -2.977, -1.4277, -3.1416], a=3.1416, v=0.0208, r=Zone001)
  movej([-1.4276, -1.6766, -1.6294, -2.9772, -1.4276, -3.1416], a=3.1416, v=0.0207, r=Zone001)
  movej([-1.4276, -1.6783, -1.6275, -2.9774, -1.4276, -3.1416], a=3.1416, v=0.0207, r=Zone001)
  movej([-1.4275, -1.68, -1.6256, -2.9776, -1.4275, -3.1416], a=3.1416, v=0.0206, r=Zone001)
  movej([-1.4274, -1.6817, -1.6237, -2.9778, -1.4274, -3.1416], a=3.1416, v=0.0206, r=Zone001)
  movej([-1.4273, -1.6833, -1.6218, -2.9781, -1.4273, -3.1416], a=3.1416, v=0.0205, r=Zone001)
  movej([-1.4271, -1.685, -1.6199, -2.9783, -1.4271, -3.1416], a=3.1416, v=0.0204, r=Zone001)
  movej([-1.4269, -1.6867, -1.618, -2.9785, -1.4269, -3.1416], a=3.1416, v=0.0203, r=Zone001)
  movej([-1.4267, -1.6883, -1.6162, -2.9787, -1.4267, -3.1416], a=3.1416, v=0.0202, r=Zone001)
  movej([-1.4265, -1.6899, -1.6143, -2.9789, -1.4265, -3.1416], a=3.1416, v=0.0202, r=Zone001)
  movej([-1.4262, -1.6916, -1.6125, -2.9792, -1.4262, -3.1416], a=3.1416, v=0.0201, r=Zone001)
  movej([-1.4259, -1.6932, -1.6106, -2.9794, -1.4259, -3.1416], a=3.1416, v=0.02, r=Zone001)
  movej([-1.4256, -1.6948, -1.6088, -2.9796, -1.4256, -3.1416], a=3.1416, v=0.0199, r=Zone001)
  movej([-1.4253, -1.6964, -1.607, -2.9798, -1.4253, -3.1416], a=3.1416, v=0.0197, r=Zone001)
  movej([-1.4249, -1.698, -1.6052, -2.9801, -1.4249, -3.1416], a=3.1416, v=0.0196, r=Zone001)
  movej([-1.4245, -1.6995, -1.6034, -2.9803, -1.4245, -3.1416], a=3.1416, v=0.0195, r=Zone001)
  movej([-1.4241, -1.7011, -1.6016, -2.9805, -1.4241, -3.1416], a=3.1416, v=0.0194, r=Zone001)
  movej([-1.4237, -1.7026, -1.5998, -2.9808, -1.4237, -3.1416], a=3.1416, v=0.0192, r=Zone001)
  movej([-1.4232, -1.7042, -1.598, -2.981, -1.4232, -3.1416], a=3.1416, v=0.0191, r=Zone001)
  movej([-1.4228, -1.7057, -1.5963, -2.9812, -1.4228, -3.1416], a=3.1416, v=0.019, r=Zone001)
  movej([-1.4223, -1.7072, -1.5945, -2.9815, -1.4223, -3.1416], a=3.1416, v=0.0188, r=Zone001)
  movej([-1.4217, -1.7087, -1.5928, -2.9817, -1.4217, -3.1416], a=3.1416, v=0.0187, r=Zone001)
  movej([-1.4212, -1.7101, -1.5911, -2.9819, -1.4212, -3.1416], a=3.1416, v=0.0185, r=Zone001)
  movej([-1.4206, -1.7116, -1.5894, -2.9822, -1.4206, -3.1416], a=3.1416, v=0.0184, r=Zone001)
  movej([-1.42, -1.713, -1.5877, -2.9824, -1.42, -3.1416], a=3.1416, v=0.0182, r=Zone001)
  movej([-1.4194, -1.7145, -1.5861, -2.9826, -1.4194, -3.1416], a=3.1416, v=0.018, r=Zone001)
  movej([-1.4188, -1.7159, -1.5844, -2.9829, -1.4188, -3.1416], a=3.1416, v=0.0179, r=Zone001)
  movej([-1.4181, -1.7173, -1.5828, -2.9831, -1.4181, -3.1416], a=3.1416, v=0.0177, r=Zone001)
  movej([-1.4174, -1.7187, -1.5812, -2.9833, -1.4174, -3.1416], a=3.1416, v=0.0175, r=Zone001)
  movej([-1.4167, -1.72, -1.5796, -2.9835, -1.4167, -3.1416], a=3.1416, v=0.0173, r=Zone001)
  movej([-1.416, -1.7214, -1.578, -2.9838, -1.416, -3.1416], a=3.1416, v=0.0171, r=Zone001)
  movej([-1.4152, -1.7227, -1.5765, -2.984, -1.4152, -3.1416], a=3.1416, v=0.017, r=Zone001)
  movej([-1.4145, -1.724, -1.5749, -2.9842, -1.4145, -3.1416], a=3.1416, v=0.0168, r=Zone001)
  movej([-1.4137, -1.7253, -1.5734, -2.9845, -1.4137, -3.1416], a=3.1416, v=0.0166, r=Zone001)
  movej([-1.4129, -1.7266, -1.5719, -2.9847, -1.4129, -3.1416], a=3.1416, v=0.0164, r=Zone001)
  movej([-1.412, -1.7279, -1.5704, -2.9849, -1.412, -3.1416], a=3.1416, v=0.0161, r=Zone001)
  movej([-1.4112, -1.7291, -1.5689, -2.9851, -1.4112, -3.1416], a=3.1416, v=0.0159, r=Zone001)
  movej([-1.4103, -1.7303, -1.5675, -2.9854, -1.4103, -3.1416], a=3.1416, v=0.0157, r=Zone001)
  movej([-1.4094, -1.7315, -1.5661, -2.9856, -1.4094, -3.1416], a=3.1416, v=0.0155, r=Zone001)
  movej([-1.4085, -1.7327, -1.5647, -2.9858, -1.4085, -3.1416], a=3.1416, v=0.0153, r=Zone001)
  movej([-1.4076, -1.7339, -1.5633, -2.986, -1.4076, -3.1416], a=3.1416, v=0.015, r=Zone001)
  movej([-1.4067, -1.735, -1.5619, -2.9862, -1.4067, -3.1416], a=3.1416, v=0.0148, r=Zone001)
  movej([-1.4057, -1.7362, -1.5606, -2.9864, -1.4057, -3.1416], a=3.1416, v=0.0146, r=Zone001)
  movej([-1.4047, -1.7373, -1.5592, -2.9867, -1.4047, -3.1416], a=3.1416, v=0.0143, r=Zone001)
  movej([-1.4037, -1.7384, -1.5579, -2.9869, -1.4037, -3.1416], a=3.1416, v=0.0141, r=Zone001)
  movej([-1.4027, -1.7394, -1.5567, -2.9871, -1.4027, -3.1416], a=3.1416, v=0.0139, r=Zone001)
  movej([-1.4017, -1.7405, -1.5554, -2.9873, -1.4017, -3.1416], a=3.1416, v=0.0136, r=Zone001)
  movej([-1.4006, -1.7415, -1.5542, -2.9875, -1.4006, -3.1416], a=3.1416, v=0.0134, r=Zone001)
  movej([-1.3996, -1.7425, -1.553, -2.9877, -1.3996, -3.1416], a=3.1416, v=0.0131, r=Zone001)
  movej([-1.3985, -1.7435, -1.5518, -2.9879, -1.3985, -3.1416], a=3.1416, v=0.0128, r=Zone001)
  movej([-1.3974, -1.7445, -1.5506, -2.9881, -1.3974, -3.1416], a=3.1416, v=0.0126, r=Zone001)
  movej([-1.3963, -1.7454, -1.5495, -2.9882, -1.3963, -3.1416], a=3.1416, v=0.0123, r=Zone001)
  movej([-1.3952, -1.7463, -1.5484, -2.9884, -1.3952, -3.1416], a=3.1416, v=0.0123, r=Zone001)
  movej([-1.394, -1.7472, -1.5473, -2.9886, -1.394, -3.1416], a=3.1416, v=0.0124, r=Zone001)
  movej([-1.3929, -1.7481, -1.5463, -2.9888, -1.3929, -3.1416], a=3.1416, v=0.0126, r=Zone001)
  movej([-1.3917, -1.749, -1.5452, -2.989, -1.3917, -3.1416], a=3.1416, v=0.0127, r=Zone001)
  movej([-1.3905, -1.7498, -1.5442, -2.9891, -1.3905, -3.1416], a=3.1416, v=0.0129, r=Zone001)
  movej([-1.3893, -1.7506, -1.5432, -2.9893, -1.3893, -3.1416], a=3.1416, v=0.0131, r=Zone001)
  movej([-1.3881, -1.7514, -1.5423, -2.9895, -1.3881, -3.1416], a=3.1416, v=0.0132, r=Zone001)
  movej([-1.3869, -1.7522, -1.5414, -2.9896, -1.3869, -3.1416], a=3.1416, v=0.0134, r=Zone001)
  movej([-1.3856, -1.7529, -1.5405, -2.9898, -1.3856, -3.1416], a=3.1416, v=0.0135, r=Zone001)
  movej([-1.3844, -1.7537, -1.5396, -2.9899, -1.3844, -3.1416], a=3.1416, v=0.0137, r=Zone001)
  movej([-1.3831, -1.7543, -1.5387, -2.9901, -1.3831, -3.1416], a=3.1416, v=0.0138, r=Zone001)
  movej([-1.3818, -1.755, -1.5379, -2.9902, -1.3818, -3.1416], a=3.1416, v=0.0139, r=Zone001)
  movej([-1.3805, -1.7557, -1.5371, -2.9904, -1.3805, -3.1416], a=3.1416, v=0.0141, r=Zone001)
  movej([-1.3792, -1.7563, -1.5364, -2.9905, -1.3792, -3.1416], a=3.1416, v=0.0142, r=Zone001)
  movej([-1.3779, -1.7569, -1.5356, -2.9907, -1.3779, -3.1416], a=3.1416, v=0.0143, r=Zone001)
  movej([-1.3766, -1.7575, -1.5349, -2.9908, -1.3766, -3.1416], a=3.1416, v=0.0145, r=Zone001)
  movej([-1.3752, -1.758, -1.5342, -2.9909, -1.3752, -3.1416], a=3.1416, v=0.0146, r=Zone001)
  movej([-1.3739, -1.7586, -1.5336, -2.991, -1.3739, -3.1416], a=3.1416, v=0.0147, r=Zone001)
  movej([-1.3725, -1.7591, -1.533, -2.9911, -1.3725, -3.1416], a=3.1416, v=0.0148, r=Zone001)
  movej([-1.3711, -1.7596, -1.5324, -2.9912, -1.3711, -3.1416], a=3.1416, v=0.0149, r=Zone001)
  movej([-1.3698, -1.76, -1.5318, -2.9913, -1.3698, -3.1416], a=3.1416, v=0.015, r=Zone001)
  movej([-1.3684, -1.7605, -1.5313, -2.9914, -1.3684, -3.1416], a=3.1416, v=0.0152, r=Zone001)
  movej([-1.367, -1.7609, -1.5308, -2.9915, -1.367, -3.1416], a=3.1416, v=0.0153, r=Zone001)
  movej([-1.3656, -1.7613, -1.5303, -2.9916, -1.3656, -3.1416], a=3.1416, v=0.0154, r=Zone001)
  movej([-1.3641, -1.7616, -1.5298, -2.9917, -1.3641, -3.1416], a=3.1416, v=0.0155, r=Zone001)
  movej([-1.3627, -1.762, -1.5294, -2.9918, -1.3627, -3.1416], a=3.1416, v=0.0156, r=Zone001)
  movej([-1.3613, -1.7623, -1.529, -2.9919, -1.3613, -3.1416], a=3.1416, v=0.0157, r=Zone001)
  movej([-1.3598, -1.7626, -1.5287, -2.9919, -1.3598, -3.1416], a=3.1416, v=0.0157, r=Zone001)
  movej([-1.3584, -1.7628, -1.5283, -2.992, -1.3584, -3.1416], a=3.1416, v=0.0158, r=Zone001)
  movej([-1.3569, -1.7631, -1.528, -2.9921, -1.3569, -3.1416], a=3.1416, v=0.0159, r=Zone001)
  movej([-1.3554, -1.7633, -1.5278, -2.9921, -1.3554, -3.1416], a=3.1416, v=0.016, r=Zone001)
  movej([-1.354, -1.7635, -1.5275, -2.9922, -1.354, -3.1416], a=3.1416, v=0.0161, r=Zone001)
  movej([-1.3525, -1.7637, -1.5273, -2.9922, -1.3525, -3.1416], a=3.1416, v=0.0162, r=Zone001)
  movej([-1.351, -1.7638, -1.5271, -2.9923, -1.351, -3.1416], a=3.1416, v=0.0162, r=Zone001)
  movej([-1.3495, -1.7639, -1.527, -2.9923, -1.3495, -3.1416], a=3.1416, v=0.0163, r=Zone001)
  movej([-1.348, -1.764, -1.5269, -2.9923, -1.348, -3.1416], a=3.1416, v=0.0164, r=Zone001)
  movej([-1.3465, -1.7641, -1.5268, -2.9923, -1.3465, -3.1416], a=3.1416, v=0.0164, r=Zone001)
  movej([-1.345, -1.7641, -1.5267, -2.9924, -1.345, -3.1416], a=3.1416, v=0.0165, r=Zone001)
  movej([-1.3435, -1.7641, -1.5267, -2.9924, -1.3435, -3.1416], a=3.1416, v=0.0166, r=Zone001)
  movej([-1.3419, -1.7641, -1.5267, -2.9924, -1.3419, -3.1416], a=3.1416, v=0.0166, r=Zone001)
  movej([-1.3404, -1.7641, -1.5267, -2.9924, -1.3404, -3.1416], a=3.1416, v=0.0167, r=Zone001)
  movej([-1.3389, -1.764, -1.5268, -2.9924, -1.3389, -3.1416], a=3.1416, v=0.0167, r=Zone001)
  movej([-1.3373, -1.7639, -1.5269, -2.9924, -1.3373, -3.1416], a=3.1416, v=0.0168, r=Zone001)
  movej([-1.3358, -1.7638, -1.527, -2.9924, -1.3358, -3.1416], a=3.1416, v=0.0168, r=Zone001)
  movej([-1.3342, -1.7637, -1.5271, -2.9923, -1.3342, -3.1416], a=3.1416, v=0.0168, r=Zone001)
  movej([-1.3327, -1.7635, -1.5273, -2.9923, -1.3327, -3.1416], a=3.1416, v=0.0169, r=Zone001)
  movej([-1.3311, -1.7634, -1.5275, -2.9923, -1.3311, -3.1416], a=3.1416, v=0.0169, r=Zone001)
  movej([-1.3296, -1.7631, -1.5278, -2.9923, -1.3296, -3.1416], a=3.1416, v=0.0169, r=Zone001)
  movej([-1.328, -1.7629, -1.5281, -2.9922, -1.328, -3.1416], a=3.1416, v=0.017, r=Zone001)
  movej([-1.3265, -1.7627, -1.5284, -2.9922, -1.3265, -3.1416], a=3.1416, v=0.017, r=Zone001)
  movej([-1.3249, -1.7624, -1.5287, -2.9921, -1.3249, -3.1416], a=3.1416, v=0.017, r=Zone001)
  movej([-1.3233, -1.7621, -1.5291, -2.9921, -1.3233, -3.1416], a=3.1416, v=0.017, r=Zone001)
  movej([-1.3218, -1.7617, -1.5294, -2.992, -1.3218, -3.1416], a=3.1416, v=0.0171, r=Zone001)
  movej([-1.3202, -1.7614, -1.5299, -2.9919, -1.3202, -3.1416], a=3.1416, v=0.0171, r=Zone001)
  movej([-1.3187, -1.761, -1.5303, -2.9919, -1.3187, -3.1416], a=3.1416, v=0.0171, r=Zone001)
  movej([-1.3171, -1.7606, -1.5308, -2.9918, -1.3171, -3.1416], a=3.1416, v=0.0171, r=Zone001)
  movej([-1.3155, -1.7602, -1.5313, -2.9917, -1.3155, -3.1416], a=3.1416, v=0.0171, r=Zone001)
  movej([-1.314, -1.7597, -1.5318, -2.9916, -1.314, -3.1416], a=3.1416, v=0.0171, r=Zone001)
  movej([-1.3124, -1.7592, -1.5324, -2.9916, -1.3124, -3.1416], a=3.1416, v=0.0171, r=Zone001)
  movej([-1.3108, -1.7587, -1.533, -2.9915, -1.3108, -3.1416], a=3.1416, v=0.0171, r=Zone001)
  movej([-1.3093, -1.7582, -1.5336, -2.9914, -1.3093, -3.1416], a=3.1416, v=0.0171, r=Zone001)
  movej([-1.3077, -1.7577, -1.5343, -2.9913, -1.3077, -3.1416], a=3.1416, v=0.0171, r=Zone001)
  movej([-1.3061, -1.7571, -1.535, -2.9912, -1.3061, -3.1416], a=3.1416, v=0.017, r=Zone001)
  movej([-1.3046, -1.7565, -1.5357, -2.991, -1.3046, -3.1416], a=3.1416, v=0.017, r=Zone001)
  movej([-1.303, -1.7559, -1.5364, -2.9909, -1.303, -3.1416], a=3.1416, v=0.017, r=Zone001)
  movej([-1.3015, -1.7552, -1.5372, -2.9908, -1.3015, -3.1416], a=3.1416, v=0.017, r=Zone001)
  movej([-1.2999, -1.7546, -1.538, -2.9907, -1.2999, -3.1416], a=3.1416, v=0.017, r=Zone001)
  movej([-1.2983, -1.7539, -1.5388, -2.9906, -1.2983, -3.1416], a=3.1416, v=0.0169, r=Zone001)
  movej([-1.2968, -1.7532, -1.5396, -2.9904, -1.2968, -3.1416], a=3.1416, v=0.0169, r=Zone001)
  movej([-1.2953, -1.7524, -1.5405, -2.9903, -1.2953, -3.1416], a=3.1416, v=0.0169, r=Zone001)
  movej([-1.2937, -1.7517, -1.5414, -2.9901, -1.2937, -3.1416], a=3.1416, v=0.0168, r=Zone001)
  movej([-1.2922, -1.7509, -1.5423, -2.99, -1.2922, -3.1416], a=3.1416, v=0.0168, r=Zone001)
  movej([-1.2906, -1.7501, -1.5433, -2.9899, -1.2906, -3.1416], a=3.1416, v=0.0167, r=Zone001)
  movej([-1.2891, -1.7492, -1.5442, -2.9897, -1.2891, -3.1416], a=3.1416, v=0.0167, r=Zone001)
  movej([-1.2876, -1.7484, -1.5452, -2.9895, -1.2876, -3.1416], a=3.1416, v=0.0166, r=Zone001)
  movej([-1.2861, -1.7475, -1.5463, -2.9894, -1.2861, -3.1416], a=3.1416, v=0.0166, r=Zone001)
  movej([-1.2846, -1.7466, -1.5473, -2.9892, -1.2846, -3.1416], a=3.1416, v=0.0165, r=Zone001)
  movej([-1.2831, -1.7457, -1.5484, -2.9891, -1.2831, -3.1416], a=3.1416, v=0.0165, r=Zone001)
  movej([-1.2816, -1.7448, -1.5495, -2.9889, -1.2816, -3.1416], a=3.1416, v=0.0164, r=Zone001)
  movej([-1.2801, -1.7438, -1.5506, -2.9887, -1.2801, -3.1416], a=3.1416, v=0.0163, r=Zone001)
  movej([-1.2786, -1.7429, -1.5518, -2.9885, -1.2786, -3.1416], a=3.1416, v=0.0163, r=Zone001)
  movej([-1.2771, -1.7419, -1.553, -2.9884, -1.2771, -3.1416], a=3.1416, v=0.0162, r=Zone001)
  movej([-1.2756, -1.7408, -1.5542, -2.9882, -1.2756, -3.1416], a=3.1416, v=0.0161, r=Zone001)
  movej([-1.2741, -1.7398, -1.5554, -2.988, -1.2741, -3.1416], a=3.1416, v=0.016, r=Zone001)
  movej([-1.2727, -1.7387, -1.5566, -2.9878, -1.2727, -3.1416], a=3.1416, v=0.0159, r=Zone001)
  movej([-1.2712, -1.7377, -1.5579, -2.9876, -1.2712, -3.1416], a=3.1416, v=0.0159, r=Zone001)
  movej([-1.2698, -1.7366, -1.5592, -2.9874, -1.2698, -3.1416], a=3.1416, v=0.0158, r=Zone001)
  movej([-1.2684, -1.7354, -1.5605, -2.9873, -1.2684, -3.1416], a=3.1416, v=0.0157, r=Zone001)
  movej([-1.2669, -1.7343, -1.5618, -2.9871, -1.2669, -3.1416], a=3.1416, v=0.0156, r=Zone001)
  movej([-1.2655, -1.7332, -1.5632, -2.9869, -1.2655, -3.1416], a=3.1416, v=0.0155, r=Zone001)
  movej([-1.2641, -1.732, -1.5645, -2.9867, -1.2641, -3.1416], a=3.1416, v=0.0154, r=Zone001)
  movej([-1.2627, -1.7308, -1.5659, -2.9865, -1.2627, -3.1416], a=3.1416, v=0.0153, r=Zone001)
  movej([-1.2613, -1.7296, -1.5674, -2.9863, -1.2613, -3.1416], a=3.1416, v=0.0155, r=Zone001)
  movej([-1.2599, -1.7283, -1.5688, -2.9861, -1.2599, -3.1416], a=3.1416, v=0.0157, r=Zone001)
  movej([-1.2586, -1.7271, -1.5702, -2.9859, -1.2586, -3.1416], a=3.1416, v=0.0159, r=Zone001)
  movej([-1.2572, -1.7258, -1.5717, -2.9857, -1.2572, -3.1416], a=3.1416, v=0.0161, r=Zone001)
  movej([-1.2559, -1.7245, -1.5732, -2.9854, -1.2559, -3.1416], a=3.1416, v=0.0163, r=Zone001)
  movej([-1.2545, -1.7232, -1.5747, -2.9852, -1.2545, -3.1416], a=3.1416, v=0.0165, r=Zone001)
  movej([-1.2532, -1.7219, -1.5762, -2.985, -1.2532, -3.1416], a=3.1416, v=0.0167, r=Zone001)
  movej([-1.2519, -1.7206, -1.5778, -2.9848, -1.2519, -3.1416], a=3.1416, v=0.0169, r=Zone001)
  movej([-1.2506, -1.7192, -1.5794, -2.9846, -1.2506, -3.1416], a=3.1416, v=0.0171, r=Zone001)
  movej([-1.2493, -1.7178, -1.5809, -2.9844, -1.2493, -3.1416], a=3.1416, v=0.0173, r=Zone001)
  movej([-1.2481, -1.7165, -1.5825, -2.9842, -1.2481, -3.1416], a=3.1416, v=0.0175, r=Zone001)
  movej([-1.2468, -1.7151, -1.5841, -2.984, -1.2468, -3.1416], a=3.1416, v=0.0176, r=Zone001)
  movej([-1.2456, -1.7136, -1.5858, -2.9838, -1.2456, -3.1416], a=3.1416, v=0.0178, r=Zone001)
  movej([-1.2443, -1.7122, -1.5874, -2.9835, -1.2443, -3.1416], a=3.1416, v=0.018, r=Zone001)
  movej([-1.2431, -1.7108, -1.5891, -2.9833, -1.2431, -3.1416], a=3.1416, v=0.0181, r=Zone001)
  movej([-1.2419, -1.7093, -1.5908, -2.9831, -1.2419, -3.1416], a=3.1416, v=0.0183, r=Zone001)
  movej([-1.2407, -1.7078, -1.5924, -2.9829, -1.2407, -3.1416], a=3.1416, v=0.0185, r=Zone001)
  movej([-1.2396, -1.7063, -1.5941, -2.9827, -1.2396, -3.1416], a=3.1416, v=0.0186, r=Zone001)
  movej([-1.2384, -1.7048, -1.5959, -2.9825, -1.2384, -3.1416], a=3.1416, v=0.0188, r=Zone001)
  movej([-1.2373, -1.7033, -1.5976, -2.9823, -1.2373, -3.1416], a=3.1416, v=0.0189, r=Zone001)
  movej([-1.2361, -1.7018, -1.5993, -2.9821, -1.2361, -3.1416], a=3.1416, v=0.019, r=Zone001)
  movej([-1.235, -1.7003, -1.6011, -2.9819, -1.235, -3.1416], a=3.1416, v=0.0192, r=Zone001)
  movej([-1.2339, -1.6987, -1.6028, -2.9816, -1.2339, -3.1416], a=3.1416, v=0.0193, r=Zone001)
  movej([-1.2329, -1.6971, -1.6046, -2.9814, -1.2329, -3.1416], a=3.1416, v=0.0194, r=Zone001)
  movej([-1.2318, -1.6956, -1.6064, -2.9812, -1.2318, -3.1416], a=3.1416, v=0.0195, r=Zone001)
  movej([-1.2308, -1.694, -1.6082, -2.981, -1.2308, -3.1416], a=3.1416, v=0.0196, r=Zone001)
  movej([-1.2297, -1.6924, -1.61, -2.9808, -1.2297, -3.1416], a=3.1416, v=0.0198, r=Zone001)
  movej([-1.2287, -1.6908, -1.6118, -2.9806, -1.2287, -3.1416], a=3.1416, v=0.0199, r=Zone001)
  movej([-1.2277, -1.6891, -1.6136, -2.9804, -1.2277, -3.1416], a=3.1416, v=0.02, r=Zone001)
  movej([-1.2268, -1.6875, -1.6155, -2.9802, -1.2268, -3.1416], a=3.1416, v=0.02, r=Zone001)
  movej([-1.2258, -1.6859, -1.6173, -2.98, -1.2258, -3.1416], a=3.1416, v=0.0201, r=Zone001)
  movej([-1.2249, -1.6842, -1.6192, -2.9798, -1.2249, -3.1416], a=3.1416, v=0.0202, r=Zone001)
  movej([-1.224, -1.6826, -1.621, -2.9796, -1.224, -3.1416], a=3.1416, v=0.0203, r=Zone001)
  movej([-1.2231, -1.6809, -1.6229, -2.9794, -1.2231, -3.1416], a=3.1416, v=0.0204, r=Zone001)
  movej([-1.2222, -1.6792, -1.6247, -2.9792, -1.2222, -3.1416], a=3.1416, v=0.0204, r=Zone001)
  movej([-1.2214, -1.6775, -1.6266, -2.9791, -1.2214, -3.1416], a=3.1416, v=0.0205, r=Zone001)
  movej([-1.2205, -1.6758, -1.6285, -2.9789, -1.2205, -3.1416], a=3.1416, v=0.0206, r=Zone001)
  movej([-1.2197, -1.6741, -1.6304, -2.9787, -1.2197, -3.1416], a=3.1416, v=0.0206, r=Zone001)
  movej([-1.2189, -1.6724, -1.6323, -2.9785, -1.2189, -3.1416], a=3.1416, v=0.0207, r=Zone001)
  movej([-1.2182, -1.6707, -1.6341, -2.9783, -1.2182, -3.1416], a=3.1416, v=0.0207, r=Zone001)
  movej([-1.2174, -1.669, -1.636, -2.9781, -1.2174, -3.1416], a=3.1416, v=0.0207, r=Zone001)
  movej([-1.2167, -1.6673, -1.6379, -2.978, -1.2167, -3.1416], a=3.1416, v=0.0208, r=Zone001)
  movej([-1.216, -1.6656, -1.6398, -2.9778, -1.216, -3.1416], a=3.1416, v=0.0208, r=Zone001)
  movej([-1.2153, -1.6638, -1.6417, -2.9776, -1.2153, -3.1416], a=3.1416, v=0.0208, r=Zone001)
  movej([-1.2146, -1.6621, -1.6436, -2.9775, -1.2146, -3.1416], a=3.1416, v=0.0209, r=Zone001)
  movej([-1.214, -1.6603, -1.6455, -2.9773, -1.214, -3.1416], a=3.1416, v=0.0209, r=Zone001)
  movej([-1.2134, -1.6586, -1.6474, -2.9771, -1.2134, -3.1416], a=3.1416, v=0.0209, r=Zone001)
  movej([-1.2128, -1.6568, -1.6494, -2.977, -1.2128, -3.1416], a=3.1416, v=0.0209, r=Zone001)
  movej([-1.2122, -1.6551, -1.6513, -2.9768, -1.2122, -3.1416], a=3.1416, v=0.0209, r=Zone001)
  movej([-1.2117, -1.6533, -1.6532, -2.9767, -1.2117, -3.1416], a=3.1416, v=0.0209, r=Zone001)
  movej([-1.2112, -1.6516, -1.6551, -2.9765, -1.2112, -3.1416], a=3.1416, v=0.0209, r=Zone001)
  movej([-1.2107, -1.6498, -1.657, -2.9764, -1.2107, -3.1416], a=3.1416, v=0.0208, r=Zone001)
  movej([-1.2102, -1.6481, -1.6589, -2.9762, -1.2102, -3.1416], a=3.1416, v=0.0208, r=Zone001)
  movej([-1.2098, -1.6463, -1.6608, -2.9761, -1.2098, -3.1416], a=3.1416, v=0.0208, r=Zone001)
  movej([-1.2093, -1.6446, -1.6627, -2.976, -1.2093, -3.1416], a=3.1416, v=0.0208, r=Zone001)
  movej([-1.209, -1.6428, -1.6645, -2.9758, -1.209, -3.1416], a=3.1416, v=0.0207, r=Zone001)
  movej([-1.2086, -1.641, -1.6664, -2.9757, -1.2086, -3.1416], a=3.1416, v=0.0207, r=Zone001)
  movej([-1.2082, -1.6393, -1.6683, -2.9756, -1.2082, -3.1416], a=3.1416, v=0.0206, r=Zone001)
  movej([-1.2079, -1.6375, -1.6702, -2.9755, -1.2079, -3.1416], a=3.1416, v=0.0206, r=Zone001)
  movej([-1.2076, -1.6358, -1.6721, -2.9754, -1.2076, -3.1416], a=3.1416, v=0.0205, r=Zone001)
  movej([-1.2074, -1.634, -1.6739, -2.9752, -1.2074, -3.1416], a=3.1416, v=0.0204, r=Zone001)
  movej([-1.2071, -1.6323, -1.6758, -2.9751, -1.2071, -3.1416], a=3.1416, v=0.0204, r=Zone001)
  movej([-1.2069, -1.6305, -1.6776, -2.975, -1.2069, -3.1416], a=3.1416, v=0.0203, r=Zone001)
  movej([-1.2067, -1.6288, -1.6795, -2.9749, -1.2067, -3.1416], a=3.1416, v=0.0202, r=Zone001)
  movej([-1.2066, -1.6271, -1.6813, -2.9748, -1.2066, -3.1416], a=3.1416, v=0.0201, r=Zone001)
  movej([-1.2065, -1.6253, -1.6831, -2.9747, -1.2065, -3.1416], a=3.1416, v=0.0201, r=Zone001)
  movej([-1.2064, -1.6236, -1.685, -2.9746, -1.2064, -3.1416], a=3.1416, v=0.02, r=Zone001)
  movej([-1.2063, -1.6219, -1.6868, -2.9745, -1.2063, -3.1416], a=3.1416, v=0.0199, r=Zone001)
  movej([-1.2062, -1.6202, -1.6886, -2.9745, -1.2062, -3.1416], a=3.1416, v=0.0198, r=Zone001)
  movej([-1.2062, -1.6184, -1.6904, -2.9744, -1.2062, -3.1416], a=3.1416, v=0.0196, r=Zone001)
  movej([-1.2062, -1.6167, -1.6921, -2.9743, -1.2062, -3.1416], a=3.1416, v=0.0195, r=Zone001)
  movej([-1.2063, -1.615, -1.6939, -2.9742, -1.2063, -3.1416], a=3.1416, v=0.0194, r=Zone001)
  movej([-1.2063, -1.6134, -1.6957, -2.9742, -1.2063, -3.1416], a=3.1416, v=0.0193, r=Zone001)
  movej([-1.2064, -1.6117, -1.6974, -2.9741, -1.2064, -3.1416], a=3.1416, v=0.0192, r=Zone001)
  movej([-1.2066, -1.61, -1.6992, -2.974, -1.2066, -3.1416], a=3.1416, v=0.019, r=Zone001)
  movej([-1.2067, -1.6083, -1.7009, -2.974, -1.2067, -3.1416], a=3.1416, v=0.0189, r=Zone001)
  movej([-1.2069, -1.6067, -1.7026, -2.9739, -1.2069, -3.1416], a=3.1416, v=0.0188, r=Zone001)
  movej([-1.2071, -1.6051, -1.7043, -2.9739, -1.2071, -3.1416], a=3.1416, v=0.0186, r=Zone001)
  movej([-1.2074, -1.6034, -1.706, -2.9738, -1.2074, -3.1416], a=3.1416, v=0.0185, r=Zone001)
  movej([-1.2076, -1.6018, -1.7076, -2.9738, -1.2076, -3.1416], a=3.1416, v=0.0183, r=Zone001)
  movej([-1.2079, -1.6002, -1.7093, -2.9737, -1.2079, -3.1416], a=3.1416, v=0.0181, r=Zone001)
  movej([-1.2083, -1.5986, -1.7109, -2.9737, -1.2083, -3.1416], a=3.1416, v=0.018, r=Zone001)
  movej([-1.2086, -1.597, -1.7125, -2.9736, -1.2086, -3.1416], a=3.1416, v=0.0178, r=Zone001)
  movej([-1.209, -1.5954, -1.7141, -2.9736, -1.209, -3.1416], a=3.1416, v=0.0176, r=Zone001)
  movej([-1.2094, -1.5939, -1.7157, -2.9736, -1.2094, -3.1416], a=3.1416, v=0.0174, r=Zone001)
  movej([-1.2099, -1.5923, -1.7173, -2.9735, -1.2099, -3.1416], a=3.1416, v=0.0173, r=Zone001)
  movej([-1.2103, -1.5908, -1.7189, -2.9735, -1.2103, -3.1416], a=3.1416, v=0.0171, r=Zone001)
  movej([-1.2108, -1.5893, -1.7204, -2.9735, -1.2108, -3.1416], a=3.1416, v=0.0169, r=Zone001)
  movej([-1.2114, -1.5878, -1.7219, -2.9735, -1.2114, -3.1416], a=3.1416, v=0.0167, r=Zone001)
  movej([-1.2119, -1.5863, -1.7234, -2.9735, -1.2119, -3.1416], a=3.1416, v=0.0165, r=Zone001)
  movej([-1.2125, -1.5848, -1.7249, -2.9734, -1.2125, -3.1416], a=3.1416, v=0.0163, r=Zone001)
  movej([-1.2132, -1.5834, -1.7264, -2.9734, -1.2132, -3.1416], a=3.1416, v=0.0161, r=Zone001)
  movej([-1.2138, -1.582, -1.7278, -2.9734, -1.2138, -3.1416], a=3.1416, v=0.0159, r=Zone001)
  movej([-1.2145, -1.5805, -1.7292, -2.9734, -1.2145, -3.1416], a=3.1416, v=0.0156, r=Zone001)
  movej([-1.2152, -1.5791, -1.7306, -2.9734, -1.2152, -3.1416], a=3.1416, v=0.0154, r=Zone001)
  movej([-1.216, -1.5778, -1.732, -2.9734, -1.216, -3.1416], a=3.1416, v=0.0152, r=Zone001)
  movej([-1.2167, -1.5764, -1.7334, -2.9734, -1.2167, -3.1416], a=3.1416, v=0.015, r=Zone001)
  movej([-1.2175, -1.5751, -1.7347, -2.9734, -1.2175, -3.1416], a=3.1416, v=0.0148, r=Zone001)
  movej([-1.2184, -1.5737, -1.736, -2.9734, -1.2184, -3.1416], a=3.1416, v=0.0145, r=Zone001)
  movej([-1.2192, -1.5724, -1.7373, -2.9734, -1.2192, -3.1416], a=3.1416, v=0.0143, r=Zone001)
  movej([-1.2201, -1.5711, -1.7386, -2.9734, -1.2201, -3.1416], a=3.1416, v=0.0141, r=Zone001)
  movej([-1.221, -1.5699, -1.7399, -2.9734, -1.221, -3.1416], a=3.1416, v=0.0139, r=Zone001)
  movej([-1.222, -1.5686, -1.7411, -2.9735, -1.222, -3.1416], a=3.1416, v=0.0136, r=Zone001)
  movej([-1.2229, -1.5674, -1.7423, -2.9735, -1.2229, -3.1416], a=3.1416, v=0.0134, r=Zone001)
  movej([-1.2239, -1.5662, -1.7435, -2.9735, -1.2239, -3.1416], a=3.1416, v=0.0132, r=Zone001)
  movej([-1.225, -1.565, -1.7446, -2.9735, -1.225, -3.1416], a=3.1416, v=0.0129, r=Zone001)
  movej([-1.226, -1.5639, -1.7458, -2.9735, -1.226, -3.1416], a=3.1416, v=0.0127, r=Zone001)
  movej([-1.2271, -1.5628, -1.7469, -2.9735, -1.2271, -3.1416], a=3.1416, v=0.0124, r=Zone001)
  movej([-1.2282, -1.5617, -1.748, -2.9736, -1.2282, -3.1416], a=3.1416, v=0.0122, r=Zone001)
  movej([-1.2294, -1.5606, -1.749, -2.9736, -1.2294, -3.1416], a=3.1416, v=0.0125, r=Zone001)
  movej([-1.2305, -1.5595, -1.7501, -2.9736, -1.2305, -3.1416], a=3.1416, v=0.0128, r=Zone001)
  movej([-1.2317, -1.5585, -1.7511, -2.9736, -1.2317, -3.1416], a=3.1416, v=0.0131, r=Zone001)
  movej([-1.2329, -1.5575, -1.7521, -2.9737, -1.2329, -3.1416], a=3.1416, v=0.0134, r=Zone001)
  movej([-1.2342, -1.5565, -1.753, -2.9737, -1.2342, -3.1416], a=3.1416, v=0.0137, r=Zone001)
  movej([-1.2355, -1.5555, -1.7539, -2.9737, -1.2355, -3.1416], a=3.1416, v=0.014, r=Zone001)
  movej([-1.2368, -1.5546, -1.7548, -2.9737, -1.2368, -3.1416], a=3.1416, v=0.0143, r=Zone001)
  movej([-1.2381, -1.5537, -1.7557, -2.9738, -1.2381, -3.1416], a=3.1416, v=0.0145, r=Zone001)
  movej([-1.2394, -1.5528, -1.7566, -2.9738, -1.2394, -3.1416], a=3.1416, v=0.0148, r=Zone001)
  movej([-1.2408, -1.552, -1.7574, -2.9738, -1.2408, -3.1416], a=3.1416, v=0.0151, r=Zone001)
  movej([-1.2422, -1.5512, -1.7582, -2.9738, -1.2422, -3.1416], a=3.1416, v=0.0153, r=Zone001)
  movej([-1.2436, -1.5504, -1.759, -2.9739, -1.2436, -3.1416], a=3.1416, v=0.0156, r=Zone001)
  movej([-1.2451, -1.5496, -1.7597, -2.9739, -1.2451, -3.1416], a=3.1416, v=0.0159, r=Zone001)
  movej([-1.2465, -1.5489, -1.7604, -2.9739, -1.2465, -3.1416], a=3.1416, v=0.0161, r=Zone001)
  movej([-1.248, -1.5481, -1.7611, -2.9739, -1.248, -3.1416], a=3.1416, v=0.0164, r=Zone001)
  movej([-1.2495, -1.5475, -1.7618, -2.974, -1.2495, -3.1416], a=3.1416, v=0.0166, r=Zone001)
  movej([-1.251, -1.5468, -1.7624, -2.974, -1.251, -3.1416], a=3.1416, v=0.0168, r=Zone001)
  movej([-1.2526, -1.5462, -1.763, -2.974, -1.2526, -3.1416], a=3.1416, v=0.0171, r=Zone001)
  movej([-1.2542, -1.5456, -1.7635, -2.974, -1.2542, -3.1416], a=3.1416, v=0.0173, r=Zone001)
  movej([-1.2558, -1.545, -1.7641, -2.9741, -1.2558, -3.1416], a=3.1416, v=0.0175, r=Zone001)
  movej([-1.2574, -1.5445, -1.7646, -2.9741, -1.2574, -3.1416], a=3.1416, v=0.0177, r=Zone001)
  movej([-1.259, -1.544, -1.7651, -2.9741, -1.259, -3.1416], a=3.1416, v=0.018, r=Zone001)
  movej([-1.2606, -1.5435, -1.7655, -2.9741, -1.2606, -3.1416], a=3.1416, v=0.0182, r=Zone001)
  movej([-1.2623, -1.5431, -1.7659, -2.9742, -1.2623, -3.1416], a=3.1416, v=0.0184, r=Zone001)
  movej([-1.264, -1.5427, -1.7663, -2.9742, -1.264, -3.1416], a=3.1416, v=0.0186, r=Zone001)
  movej([-1.2657, -1.5423, -1.7667, -2.9742, -1.2657, -3.1416], a=3.1416, v=0.0187, r=Zone001)
  movej([-1.2674, -1.5419, -1.767, -2.9742, -1.2674, -3.1416], a=3.1416, v=0.0189, r=Zone001)
  movej([-1.2692, -1.5416, -1.7673, -2.9743, -1.2692, -3.1416], a=3.1416, v=0.0191, r=Zone001)
  movej([-1.2709, -1.5413, -1.7676, -2.9743, -1.2709, -3.1416], a=3.1416, v=0.0193, r=Zone001)
  movej([-1.2727, -1.541, -1.7679, -2.9743, -1.2727, -3.1416], a=3.1416, v=0.0194, r=Zone001)
  movej([-1.2745, -1.5408, -1.7681, -2.9743, -1.2745, -3.1416], a=3.1416, v=0.0196, r=Zone001)
  movej([-1.2762, -1.5406, -1.7682, -2.9743, -1.2762, -3.1416], a=3.1416, v=0.0197, r=Zone001)
  movej([-1.278, -1.5404, -1.7684, -2.9743, -1.278, -3.1416], a=3.1416, v=0.0199, r=Zone001)
  movej([-1.2799, -1.5403, -1.7685, -2.9744, -1.2799, -3.1416], a=3.1416, v=0.02, r=Zone001)
  movej([-1.2817, -1.5402, -1.7686, -2.9744, -1.2817, -3.1416], a=3.1416, v=0.0202, r=Zone001)
  movej([-1.2835, -1.5401, -1.7687, -2.9744, -1.2835, -3.1416], a=3.1416, v=0.0203, r=Zone001)
  movej([-1.2854, -1.5401, -1.7687, -2.9744, -1.2854, -3.1416], a=3.1416, v=0.0204, r=Zone001)
  movej([-1.2873, -1.5401, -1.7687, -2.9744, -1.2873, -3.1416], a=3.1416, v=0.0205, r=Zone001)
  movej([-1.2891, -1.5401, -1.7687, -2.9744, -1.2891, -3.1416], a=3.1416, v=0.0206, r=Zone001)
  movej([-1.291, -1.5402, -1.7686, -2.9744, -1.291, -3.1416], a=3.1416, v=0.0207, r=Zone001)
  movej([-1.2929, -1.5403, -1.7685, -2.9744, -1.2929, -3.1416], a=3.1416, v=0.0208, r=Zone001)
  movej([-1.2948, -1.5404, -1.7684, -2.9744, -1.2948, -3.1416], a=3.1416, v=0.0209, r=Zone001)
  movej([-1.2967, -1.5405, -1.7682, -2.9744, -1.2967, -3.1416], a=3.1416, v=0.021, r=Zone001)
  movej([-1.2986, -1.5407, -1.768, -2.9744, -1.2986, -3.1416], a=3.1416, v=0.021, r=Zone001)
  movej([-1.3005, -1.5409, -1.7678, -2.9744, -1.3005, -3.1416], a=3.1416, v=0.0211, r=Zone001)
  movej([-1.3024, -1.5412, -1.7676, -2.9744, -1.3024, -3.1416], a=3.1416, v=0.0211, r=Zone001)
  movej([-1.3043, -1.5414, -1.7673, -2.9744, -1.3043, -3.1416], a=3.1416, v=0.0212, r=Zone001)
  movej([-1.3063, -1.5417, -1.767, -2.9744, -1.3063, -3.1416], a=3.1416, v=0.0212, r=Zone001)
  movej([-1.3082, -1.5421, -1.7667, -2.9744, -1.3082, -3.1416], a=3.1416, v=0.0213, r=Zone001)
  movej([-1.3101, -1.5424, -1.7663, -2.9744, -1.3101, -3.1416], a=3.1416, v=0.0213, r=Zone001)
  movej([-1.3121, -1.5428, -1.7659, -2.9744, -1.3121, -3.1416], a=3.1416, v=0.0213, r=Zone001)
  movej([-1.314, -1.5433, -1.7655, -2.9744, -1.314, -3.1416], a=3.1416, v=0.0213, r=Zone001)
  movej([-1.3159, -1.5437, -1.765, -2.9744, -1.3159, -3.1416], a=3.1416, v=0.0213, r=Zone001)
  movej([-1.3179, -1.5442, -1.7646, -2.9744, -1.3179, -3.1416], a=3.1416, v=0.0213, r=Zone001)
  movej([-1.3198, -1.5447, -1.7641, -2.9744, -1.3198, -3.1416], a=3.1416, v=0.0213, r=Zone001)
  movej([-1.3217, -1.5453, -1.7635, -2.9744, -1.3217, -3.1416], a=3.1416, v=0.0213, r=Zone001)
  movej([-1.3236, -1.5458, -1.7629, -2.9744, -1.3236, -3.1416], a=3.1416, v=0.0212, r=Zone001)
  movej([-1.3256, -1.5464, -1.7623, -2.9744, -1.3256, -3.1416], a=3.1416, v=0.0212, r=Zone001)
  movej([-1.3275, -1.5471, -1.7617, -2.9744, -1.3275, -3.1416], a=3.1416, v=0.0212, r=Zone001)
  movej([-1.3294, -1.5477, -1.7611, -2.9744, -1.3294, -3.1416], a=3.1416, v=0.0211, r=Zone001)
  movej([-1.3313, -1.5484, -1.7604, -2.9744, -1.3313, -3.1416], a=3.1416, v=0.0211, r=Zone001)
  movej([-1.3332, -1.5492, -1.7597, -2.9744, -1.3332, -3.1416], a=3.1416, v=0.021, r=Zone001)
  movej([-1.3351, -1.5499, -1.7589, -2.9744, -1.3351, -3.1416], a=3.1416, v=0.0209, r=Zone001)
  movej([-1.337, -1.5507, -1.7581, -2.9744, -1.337, -3.1416], a=3.1416, v=0.0208, r=Zone001)
  movej([-1.3389, -1.5515, -1.7574, -2.9744, -1.3389, -3.1416], a=3.1416, v=0.0208, r=Zone001)
  movej([-1.3407, -1.5523, -1.7565, -2.9743, -1.3407, -3.1416], a=3.1416, v=0.0207, r=Zone001)
  movej([-1.3426, -1.5532, -1.7557, -2.9743, -1.3426, -3.1416], a=3.1416, v=0.0206, r=Zone001)
  movej([-1.3445, -1.5541, -1.7548, -2.9743, -1.3445, -3.1416], a=3.1416, v=0.0205, r=Zone001)
  movej([-1.3463, -1.555, -1.7539, -2.9743, -1.3463, -3.1416], a=3.1416, v=0.0203, r=Zone001)
  movej([-1.3481, -1.5559, -1.753, -2.9743, -1.3481, -3.1416], a=3.1416, v=0.0202, r=Zone001)
  movej([-1.35, -1.5569, -1.752, -2.9743, -1.35, -3.1416], a=3.1416, v=0.0201, r=Zone001)
  movej([-1.3518, -1.5579, -1.751, -2.9743, -1.3518, -3.1416], a=3.1416, v=0.02, r=Zone001)
  movej([-1.3536, -1.5589, -1.75, -2.9743, -1.3536, -3.1416], a=3.1416, v=0.0198, r=Zone001)
  movej([-1.3553, -1.5599, -1.749, -2.9743, -1.3553, -3.1416], a=3.1416, v=0.0197, r=Zone001)
  movej([-1.3571, -1.561, -1.7479, -2.9743, -1.3571, -3.1416], a=3.1416, v=0.0195, r=Zone001)
  movej([-1.3589, -1.5621, -1.7468, -2.9743, -1.3589, -3.1416], a=3.1416, v=0.0194, r=Zone001)
  movej([-1.3606, -1.5632, -1.7457, -2.9743, -1.3606, -3.1416], a=3.1416, v=0.0192, r=Zone001)
  movej([-1.3623, -1.5643, -1.7446, -2.9743, -1.3623, -3.1416], a=3.1416, v=0.019, r=Zone001)
  movej([-1.364, -1.5655, -1.7434, -2.9743, -1.364, -3.1416], a=3.1416, v=0.0189, r=Zone001)
  movej([-1.3657, -1.5666, -1.7423, -2.9743, -1.3657, -3.1416], a=3.1416, v=0.0187, r=Zone001)
  movej([-1.3674, -1.5678, -1.741, -2.9743, -1.3674, -3.1416], a=3.1416, v=0.0185, r=Zone001)
  movej([-1.3691, -1.5691, -1.7398, -2.9743, -1.3691, -3.1416], a=3.1416, v=0.0183, r=Zone001)
  movej([-1.3707, -1.5703, -1.7386, -2.9743, -1.3707, -3.1416], a=3.1416, v=0.0181, r=Zone001)
  movej([-1.3723, -1.5716, -1.7373, -2.9743, -1.3723, -3.1416], a=3.1416, v=0.0179, r=Zone001)
  movej([-1.3739, -1.5728, -1.736, -2.9743, -1.3739, -3.1416], a=3.1416, v=0.0177, r=Zone001)
  movej([-1.3755, -1.5741, -1.7347, -2.9744, -1.3755, -3.1416], a=3.1416, v=0.0175, r=Zone001)
  movej([-1.3771, -1.5755, -1.7333, -2.9744, -1.3771, -3.1416], a=3.1416, v=0.0173, r=Zone001)
  movej([-1.3786, -1.5768, -1.732, -2.9744, -1.3786, -3.1416], a=3.1416, v=0.0171, r=Zone001)
  movej([-1.3802, -1.5782, -1.7306, -2.9744, -1.3802, -3.1416], a=3.1416, v=0.0168, r=Zone001)
  movej([-1.3817, -1.5796, -1.7292, -2.9744, -1.3817, -3.1416], a=3.1416, v=0.0166, r=Zone001)
  movej([-1.3831, -1.581, -1.7278, -2.9745, -1.3831, -3.1416], a=3.1416, v=0.0164, r=Zone001)
  movej([-1.3846, -1.5824, -1.7263, -2.9745, -1.3846, -3.1416], a=3.1416, v=0.0161, r=Zone001)
  movej([-1.386, -1.5838, -1.7249, -2.9745, -1.386, -3.1416], a=3.1416, v=0.0161, r=Zone001)
  movej([-1.3875, -1.5852, -1.7234, -2.9745, -1.3875, -3.1416], a=3.1416, v=0.0164, r=Zone001)
  movej([-1.3888, -1.5867, -1.7219, -2.9746, -1.3888, -3.1416], a=3.1416, v=0.0166, r=Zone001)
  movej([-1.3902, -1.5882, -1.7204, -2.9746, -1.3902, -3.1416], a=3.1416, v=0.0168, r=Zone001)
  movej([-1.3916, -1.5897, -1.7188, -2.9747, -1.3916, -3.1416], a=3.1416, v=0.017, r=Zone001)
  movej([-1.3929, -1.5912, -1.7173, -2.9747, -1.3929, -3.1416], a=3.1416, v=0.0172, r=Zone001)
  movej([-1.3942, -1.5927, -1.7157, -2.9747, -1.3942, -3.1416], a=3.1416, v=0.0173, r=Zone001)
  movej([-1.3955, -1.5943, -1.7141, -2.9748, -1.3955, -3.1416], a=3.1416, v=0.0175, r=Zone001)
  movej([-1.3967, -1.5958, -1.7125, -2.9748, -1.3967, -3.1416], a=3.1416, v=0.0177, r=Zone001)
  movej([-1.3979, -1.5974, -1.7109, -2.9749, -1.3979, -3.1416], a=3.1416, v=0.0179, r=Zone001)
  movej([-1.3991, -1.5989, -1.7093, -2.9749, -1.3991, -3.1416], a=3.1416, v=0.0181, r=Zone001)
  movej([-1.4003, -1.6005, -1.7076, -2.975, -1.4003, -3.1416], a=3.1416, v=0.0182, r=Zone001)
  movej([-1.4015, -1.6021, -1.706, -2.9751, -1.4015, -3.1416], a=3.1416, v=0.0184, r=Zone001)
  movej([-1.4026, -1.6037, -1.7043, -2.9751, -1.4026, -3.1416], a=3.1416, v=0.0186, r=Zone001)
  movej([-1.4037, -1.6054, -1.7026, -2.9752, -1.4037, -3.1416], a=3.1416, v=0.0187, r=Zone001)
  movej([-1.4048, -1.607, -1.7009, -2.9753, -1.4048, -3.1416], a=3.1416, v=0.0189, r=Zone001)
  movej([-1.4058, -1.6086, -1.6992, -2.9754, -1.4058, -3.1416], a=3.1416, v=0.019, r=Zone001)
  movej([-1.4068, -1.6103, -1.6975, -2.9754, -1.4068, -3.1416], a=3.1416, v=0.0191, r=Zone001)
  movej([-1.4078, -1.6119, -1.6957, -2.9755, -1.4078, -3.1416], a=3.1416, v=0.0193, r=Zone001)
  movej([-1.4088, -1.6136, -1.694, -2.9756, -1.4088, -3.1416], a=3.1416, v=0.0194, r=Zone001)
  movej([-1.4097, -1.6153, -1.6922, -2.9757, -1.4097, -3.1416], a=3.1416, v=0.0195, r=Zone001)
  movej([-1.4106, -1.617, -1.6904, -2.9758, -1.4106, -3.1416], a=3.1416, v=0.0196, r=Zone001)
  movej([-1.4115, -1.6187, -1.6886, -2.9759, -1.4115, -3.1416], a=3.1416, v=0.0198, r=Zone001)
  movej([-1.4124, -1.6204, -1.6868, -2.976, -1.4124, -3.1416], a=3.1416, v=0.0199, r=Zone001)
  movej([-1.4132, -1.6221, -1.685, -2.9761, -1.4132, -3.1416], a=3.1416, v=0.02, r=Zone001)
  movej([-1.414, -1.6238, -1.6832, -2.9762, -1.414, -3.1416], a=3.1416, v=0.0201, r=Zone001)
  movej([-1.4148, -1.6255, -1.6814, -2.9763, -1.4148, -3.1416], a=3.1416, v=0.0202, r=Zone001)
  movej([-1.4155, -1.6272, -1.6796, -2.9764, -1.4155, -3.1416], a=3.1416, v=0.0203, r=Zone001)
  movej([-1.4162, -1.6289, -1.6777, -2.9765, -1.4162, -3.1416], a=3.1416, v=0.0204, r=Zone001)
  movej([-1.4169, -1.6306, -1.6759, -2.9767, -1.4169, -3.1416], a=3.1416, v=0.0204, r=Zone001)
  movej([-1.4176, -1.6324, -1.674, -2.9768, -1.4176, -3.1416], a=3.1416, v=0.0205, r=Zone001)
  movej([-1.4182, -1.6341, -1.6722, -2.9769, -1.4182, -3.1416], a=3.1416, v=0.0206, r=Zone001)
  movej([-1.4188, -1.6358, -1.6703, -2.977, -1.4188, -3.1416], a=3.1416, v=0.0206, r=Zone001)
  movej([-1.4194, -1.6376, -1.6684, -2.9772, -1.4194, -3.1416], a=3.1416, v=0.0207, r=Zone001)
  movej([-1.42, -1.6393, -1.6666, -2.9773, -1.42, -3.1416], a=3.1416, v=0.0208, r=Zone001)
  movej([-1.4205, -1.641, -1.6647, -2.9775, -1.4205, -3.1416], a=3.1416, v=0.0208, r=Zone001)
  movej([-1.421, -1.6428, -1.6628, -2.9776, -1.421, -3.1416], a=3.1416, v=0.0209, r=Zone001)
  movej([-1.4215, -1.6445, -1.6609, -2.9778, -1.4215, -3.1416], a=3.1416, v=0.0209, r=Zone001)
  movej([-1.4219, -1.6463, -1.659, -2.9779, -1.4219, -3.1416], a=3.1416, v=0.0209, r=Zone001)
  movej([-1.4223, -1.648, -1.6571, -2.9781, -1.4223, -3.1416], a=3.1416, v=0.021, r=Zone001)
  movej([-1.4227, -1.6497, -1.6552, -2.9782, -1.4227, -3.1416], a=3.1416, v=0.021, r=Zone001)
  movej([-1.4231, -1.6515, -1.6533, -2.9784, -1.4231, -3.1416], a=3.1416, v=0.021, r=Zone001)
  movej([-1.4234, -1.6532, -1.6514, -2.9786, -1.4234, -3.1416], a=3.1416, v=0.021, r=Zone001)
  movej([-1.4237, -1.6549, -1.6495, -2.9787, -1.4237, -3.1416], a=3.1416, v=0.021, r=Zone001)
  movej([-1.424, -1.6566, -1.6476, -2.9789, -1.424, -3.1416], a=3.1416, v=0.021, r=Zone001)
  movej([-1.4242, -1.6584, -1.6457, -2.9791, -1.4242, -3.1416], a=3.1416, v=0.021, r=Zone001)
  movej([-1.4244, -1.6601, -1.6439, -2.9792, -1.4244, -3.1416], a=3.1416, v=0.021, r=Zone001)
  movej([-1.4246, -1.6618, -1.642, -2.9794, -1.4246, -3.1416], a=3.1416, v=0.021, r=Zone001)
  movej([-1.4248, -1.6635, -1.6401, -2.9796, -1.4248, -3.1416], a=3.1416, v=0.021, r=Zone001)
  movej([-1.4249, -1.6652, -1.6382, -2.9798, -1.4249, -3.1416], a=3.1416, v=0.021, r=Zone001)
  movej([-1.4251, -1.6669, -1.6363, -2.98, -1.4251, -3.1416], a=3.1416, v=0.021, r=Zone001)
  movej([-1.4251, -1.6686, -1.6344, -2.9802, -1.4251, -3.1416], a=3.1416, v=0.0209, r=Zone001)
  movej([-1.4252, -1.6703, -1.6325, -2.9804, -1.4252, -3.1416], a=3.1416, v=0.0209, r=Zone001)
  movej([-1.4252, -1.672, -1.6306, -2.9806, -1.4252, -3.1416], a=3.1416, v=0.0208, r=Zone001)
  movej([-1.4252, -1.6737, -1.6287, -2.9807, -1.4252, -3.1416], a=3.1416, v=0.0208, r=Zone001)
  movej([-1.4252, -1.6754, -1.6269, -2.9809, -1.4252, -3.1416], a=3.1416, v=0.0207, r=Zone001)
  movej([-1.4252, -1.677, -1.625, -2.9811, -1.4252, -3.1416], a=3.1416, v=0.0207, r=Zone001)
  movej([-1.4251, -1.6787, -1.6232, -2.9814, -1.4251, -3.1416], a=3.1416, v=0.0206, r=Zone001)
  movej([-1.425, -1.6803, -1.6213, -2.9816, -1.425, -3.1416], a=3.1416, v=0.0206, r=Zone001)
  movej([-1.4249, -1.682, -1.6194, -2.9818, -1.4249, -3.1416], a=3.1416, v=0.0205, r=Zone001)
  movej([-1.4247, -1.6836, -1.6176, -2.982, -1.4247, -3.1416], a=3.1416, v=0.0204, r=Zone001)
  movej([-1.4245, -1.6852, -1.6158, -2.9822, -1.4245, -3.1416], a=3.1416, v=0.0203, r=Zone001)
  movej([-1.4243, -1.6868, -1.614, -2.9824, -1.4243, -3.1416], a=3.1416, v=0.0202, r=Zone001)
  movej([-1.4241, -1.6884, -1.6121, -2.9826, -1.4241, -3.1416], a=3.1416, v=0.0202, r=Zone001)
  movej([-1.4239, -1.69, -1.6103, -2.9828, -1.4239, -3.1416], a=3.1416, v=0.0201, r=Zone001)
  movej([-1.4236, -1.6916, -1.6085, -2.983, -1.4236, -3.1416], a=3.1416, v=0.02, r=Zone001)
  movej([-1.4233, -1.6932, -1.6067, -2.9833, -1.4233, -3.1416], a=3.1416, v=0.0199, r=Zone001)
  movej([-1.423, -1.6947, -1.605, -2.9835, -1.423, -3.1416], a=3.1416, v=0.0197, r=Zone001)
  movej([-1.4226, -1.6963, -1.6032, -2.9837, -1.4226, -3.1416], a=3.1416, v=0.0196, r=Zone001)
  movej([-1.4222, -1.6978, -1.6014, -2.9839, -1.4222, -3.1416], a=3.1416, v=0.0195, r=Zone001)
  movej([-1.4218, -1.6993, -1.5997, -2.9842, -1.4218, -3.1416], a=3.1416, v=0.0194, r=Zone001)
  movej([-1.4214, -1.7009, -1.598, -2.9844, -1.4214, -3.1416], a=3.1416, v=0.0193, r=Zone001)
  movej([-1.421, -1.7024, -1.5962, -2.9846, -1.421, -3.1416], a=3.1416, v=0.0191, r=Zone001)
  movej([-1.4205, -1.7038, -1.5945, -2.9848, -1.4205, -3.1416], a=3.1416, v=0.019, r=Zone001)
  movej([-1.42, -1.7053, -1.5928, -2.985, -1.42, -3.1416], a=3.1416, v=0.0188, r=Zone001)
  movej([-1.4195, -1.7068, -1.5911, -2.9853, -1.4195, -3.1416], a=3.1416, v=0.0187, r=Zone001)
  movej([-1.419, -1.7082, -1.5895, -2.9855, -1.419, -3.1416], a=3.1416, v=0.0185, r=Zone001)
  movej([-1.4184, -1.7096, -1.5878, -2.9857, -1.4184, -3.1416], a=3.1416, v=0.0184, r=Zone001)
  movej([-1.4178, -1.7111, -1.5862, -2.986, -1.4178, -3.1416], a=3.1416, v=0.0182, r=Zone001)
  movej([-1.4172, -1.7125, -1.5845, -2.9862, -1.4172, -3.1416], a=3.1416, v=0.018, r=Zone001)
  movej([-1.4166, -1.7138, -1.5829, -2.9864, -1.4166, -3.1416], a=3.1416, v=0.0179, r=Zone001)
  movej([-1.416, -1.7152, -1.5813, -2.9866, -1.416, -3.1416], a=3.1416, v=0.0177, r=Zone001)
  movej([-1.4153, -1.7166, -1.5798, -2.9869, -1.4153, -3.1416], a=3.1416, v=0.0175, r=Zone001)
  movej([-1.4146, -1.7179, -1.5782, -2.9871, -1.4146, -3.1416], a=3.1416, v=0.0173, r=Zone001)
  movej([-1.4139, -1.7192, -1.5767, -2.9873, -1.4139, -3.1416], a=3.1416, v=0.0172, r=Zone001)
  movej([-1.4132, -1.7205, -1.5751, -2.9875, -1.4132, -3.1416], a=3.1416, v=0.017, r=Zone001)
  movej([-1.4124, -1.7218, -1.5736, -2.9877, -1.4124, -3.1416], a=3.1416, v=0.0168, r=Zone001)
  movej([-1.4117, -1.7231, -1.5721, -2.988, -1.4117, -3.1416], a=3.1416, v=0.0166, r=Zone001)
  movej([-1.4109, -1.7243, -1.5707, -2.9882, -1.4109, -3.1416], a=3.1416, v=0.0164, r=Zone001)
  movej([-1.4101, -1.7256, -1.5692, -2.9884, -1.4101, -3.1416], a=3.1416, v=0.0161, r=Zone001)
  movej([-1.4092, -1.7268, -1.5678, -2.9886, -1.4092, -3.1416], a=3.1416, v=0.0159, r=Zone001)
  movej([-1.4084, -1.728, -1.5664, -2.9888, -1.4084, -3.1416], a=3.1416, v=0.0157, r=Zone001)
  movej([-1.4075, -1.7292, -1.565, -2.989, -1.4075, -3.1416], a=3.1416, v=0.0155, r=Zone001)
  movej([-1.4066, -1.7303, -1.5636, -2.9893, -1.4066, -3.1416], a=3.1416, v=0.0153, r=Zone001)
  movej([-1.4057, -1.7315, -1.5622, -2.9895, -1.4057, -3.1416], a=3.1416, v=0.015, r=Zone001)
  movej([-1.4048, -1.7326, -1.5609, -2.9897, -1.4048, -3.1416], a=3.1416, v=0.0148, r=Zone001)
  movej([-1.4039, -1.7337, -1.5596, -2.9899, -1.4039, -3.1416], a=3.1416, v=0.0146, r=Zone001)
  movej([-1.4029, -1.7348, -1.5583, -2.9901, -1.4029, -3.1416], a=3.1416, v=0.0143, r=Zone001)
  movej([-1.402, -1.7359, -1.557, -2.9903, -1.402, -3.1416], a=3.1416, v=0.0141, r=Zone001)
  movej([-1.401, -1.7369, -1.5558, -2.9905, -1.401, -3.1416], a=3.1416, v=0.0139, r=Zone001)
  movej([-1.4, -1.738, -1.5546, -2.9907, -1.4, -3.1416], a=3.1416, v=0.0136, r=Zone001)
  movej([-1.3989, -1.739, -1.5534, -2.9909, -1.3989, -3.1416], a=3.1416, v=0.0134, r=Zone001)
  movej([-1.3979, -1.7399, -1.5522, -2.9911, -1.3979, -3.1416], a=3.1416, v=0.0131, r=Zone001)
  movej([-1.3968, -1.7409, -1.551, -2.9912, -1.3968, -3.1416], a=3.1416, v=0.0128, r=Zone001)
  movej([-1.3958, -1.7419, -1.5499, -2.9914, -1.3958, -3.1416], a=3.1416, v=0.0126, r=Zone001)
  movej([-1.3947, -1.7428, -1.5488, -2.9916, -1.3947, -3.1416], a=3.1416, v=0.0123, r=Zone001)
  movej([-1.3936, -1.7437, -1.5477, -2.9918, -1.3936, -3.1416], a=3.1416, v=0.0123, r=Zone001)
  movej([-1.3925, -1.7446, -1.5466, -2.992, -1.3925, -3.1416], a=3.1416, v=0.0124, r=Zone001)
  movej([-1.3913, -1.7454, -1.5456, -2.9921, -1.3913, -3.1416], a=3.1416, v=0.0126, r=Zone001)
  movej([-1.3902, -1.7463, -1.5446, -2.9923, -1.3902, -3.1416], a=3.1416, v=0.0128, r=Zone001)
  movej([-1.389, -1.7471, -1.5436, -2.9925, -1.389, -3.1416], a=3.1416, v=0.0129, r=Zone001)
  movej([-1.3878, -1.7479, -1.5427, -2.9926, -1.3878, -3.1416], a=3.1416, v=0.0131, r=Zone001)
  movej([-1.3867, -1.7487, -1.5417, -2.9928, -1.3867, -3.1416], a=3.1416, v=0.0132, r=Zone001)
  movej([-1.3855, -1.7494, -1.5408, -2.993, -1.3855, -3.1416], a=3.1416, v=0.0134, r=Zone001)
  movej([-1.3842, -1.7501, -1.5399, -2.9931, -1.3842, -3.1416], a=3.1416, v=0.0135, r=Zone001)
  movej([-1.383, -1.7508, -1.5391, -2.9933, -1.383, -3.1416], a=3.1416, v=0.0137, r=Zone001)
  movej([-1.3818, -1.7515, -1.5383, -2.9934, -1.3818, -3.1416], a=3.1416, v=0.0138, r=Zone001)
  movej([-1.3805, -1.7522, -1.5374, -2.9935, -1.3805, -3.1416], a=3.1416, v=0.014, r=Zone001)
  movej([-1.3792, -1.7528, -1.5367, -2.9937, -1.3792, -3.1416], a=3.1416, v=0.0141, r=Zone001)
  movej([-1.378, -1.7534, -1.5359, -2.9938, -1.378, -3.1416], a=3.1416, v=0.0142, r=Zone001)
  movej([-1.3767, -1.754, -1.5352, -2.9939, -1.3767, -3.1416], a=3.1416, v=0.0144, r=Zone001)
  movej([-1.3754, -1.7546, -1.5345, -2.9941, -1.3754, -3.1416], a=3.1416, v=0.0145, r=Zone001)
  movej([-1.3741, -1.7552, -1.5339, -2.9942, -1.3741, -3.1416], a=3.1416, v=0.0146, r=Zone001)
  movej([-1.3727, -1.7557, -1.5332, -2.9943, -1.3727, -3.1416], a=3.1416, v=0.0147, r=Zone001)
  movej([-1.3714, -1.7562, -1.5326, -2.9944, -1.3714, -3.1416], a=3.1416, v=0.0148, r=Zone001)
  movej([-1.3701, -1.7566, -1.532, -2.9945, -1.3701, -3.1416], a=3.1416, v=0.015, r=Zone001)
  movej([-1.3687, -1.7571, -1.5315, -2.9946, -1.3687, -3.1416], a=3.1416, v=0.0151, r=Zone001)
  movej([-1.3673, -1.7575, -1.5309, -2.9947, -1.3673, -3.1416], a=3.1416, v=0.0152, r=Zone001)
  movej([-1.366, -1.7579, -1.5304, -2.9948, -1.366, -3.1416], a=3.1416, v=0.0153, r=Zone001)
  movej([-1.3646, -1.7583, -1.53, -2.9949, -1.3646, -3.1416], a=3.1416, v=0.0154, r=Zone001)
  movej([-1.3632, -1.7587, -1.5295, -2.995, -1.3632, -3.1416], a=3.1416, v=0.0155, r=Zone001)
  movej([-1.3618, -1.759, -1.5291, -2.995, -1.3618, -3.1416], a=3.1416, v=0.0156, r=Zone001)
  movej([-1.3604, -1.7593, -1.5288, -2.9951, -1.3604, -3.1416], a=3.1416, v=0.0157, r=Zone001)
  movej([-1.359, -1.7596, -1.5284, -2.9952, -1.359, -3.1416], a=3.1416, v=0.0158, r=Zone001)
  movej([-1.3576, -1.7599, -1.5281, -2.9953, -1.3576, -3.1416], a=3.1416, v=0.0159, r=Zone001)
  movej([-1.3561, -1.7601, -1.5278, -2.9953, -1.3561, -3.1416], a=3.1416, v=0.016, r=Zone001)
  movej([-1.3547, -1.7603, -1.5275, -2.9954, -1.3547, -3.1416], a=3.1416, v=0.016, r=Zone001)
  movej([-1.3532, -1.7605, -1.5273, -2.9954, -1.3532, -3.1416], a=3.1416, v=0.0161, r=Zone001)
  movej([-1.3518, -1.7606, -1.5271, -2.9955, -1.3518, -3.1416], a=3.1416, v=0.0162, r=Zone001)
  movej([-1.3503, -1.7608, -1.5269, -2.9955, -1.3503, -3.1416], a=3.1416, v=0.0163, r=Zone001)
  movej([-1.3489, -1.7609, -1.5268, -2.9955, -1.3489, -3.1416], a=3.1416, v=0.0163, r=Zone001)
  movej([-1.3474, -1.761, -1.5266, -2.9956, -1.3474, -3.1416], a=3.1416, v=0.0164, r=Zone001)
  movej([-1.3459, -1.7611, -1.5266, -2.9956, -1.3459, -3.1416], a=3.1416, v=0.0165, r=Zone001)
  movej([-1.3444, -1.7611, -1.5265, -2.9956, -1.3444, -3.1416], a=3.1416, v=0.0165, r=Zone001)
  movej([-1.3429, -1.7611, -1.5265, -2.9956, -1.3429, -3.1416], a=3.1416, v=0.0166, r=Zone001)
  movej([-1.3414, -1.7611, -1.5265, -2.9956, -1.3414, -3.1416], a=3.1416, v=0.0166, r=Zone001)
  movej([-1.3399, -1.7611, -1.5265, -2.9956, -1.3399, -3.1416], a=3.1416, v=0.0167, r=Zone001)
  movej([-1.3384, -1.761, -1.5266, -2.9956, -1.3384, -3.1416], a=3.1416, v=0.0167, r=Zone001)
  movej([-1.3369, -1.7609, -1.5266, -2.9956, -1.3369, -3.1416], a=3.1416, v=0.0168, r=Zone001)
  movej([-1.3354, -1.7608, -1.5268, -2.9956, -1.3354, -3.1416], a=3.1416, v=0.0168, r=Zone001)
  movej([-1.3339, -1.7607, -1.5269, -2.9956, -1.3339, -3.1416], a=3.1416, v=0.0169, r=Zone001)
  movej([-1.3324, -1.7605, -1.5271, -2.9956, -1.3324, -3.1416], a=3.1416, v=0.0169, r=Zone001)
  movej([-1.3309, -1.7604, -1.5273, -2.9955, -1.3309, -3.1416], a=3.1416, v=0.0169, r=Zone001)
  movej([-1.3294, -1.7601, -1.5275, -2.9955, -1.3294, -3.1416], a=3.1416, v=0.017, r=Zone001)
  movej([-1.3278, -1.7599, -1.5278, -2.9955, -1.3278, -3.1416], a=3.1416, v=0.017, r=Zone001)
  movej([-1.3263, -1.7597, -1.5281, -2.9954, -1.3263, -3.1416], a=3.1416, v=0.017, r=Zone001)
  movej([-1.3248, -1.7594, -1.5284, -2.9954, -1.3248, -3.1416], a=3.1416, v=0.0171, r=Zone001)
  movej([-1.3232, -1.7591, -1.5288, -2.9953, -1.3232, -3.1416], a=3.1416, v=0.0171, r=Zone001)
  movej([-1.3217, -1.7588, -1.5292, -2.9953, -1.3217, -3.1416], a=3.1416, v=0.0171, r=Zone001)
  movej([-1.3202, -1.7584, -1.5296, -2.9952, -1.3202, -3.1416], a=3.1416, v=0.0171, r=Zone001)
  movej([-1.3186, -1.758, -1.53, -2.9951, -1.3186, -3.1416], a=3.1416, v=0.0171, r=Zone001)
  movej([-1.3171, -1.7576, -1.5305, -2.9951, -1.3171, -3.1416], a=3.1416, v=0.0171, r=Zone001)
  movej([-1.3156, -1.7572, -1.531, -2.995, -1.3156, -3.1416], a=3.1416, v=0.0171, r=Zone001)
  movej([-1.314, -1.7568, -1.5315, -2.9949, -1.314, -3.1416], a=3.1416, v=0.0171, r=Zone001)
  movej([-1.3125, -1.7563, -1.5321, -2.9948, -1.3125, -3.1416], a=3.1416, v=0.0171, r=Zone001)
  movej([-1.311, -1.7558, -1.5326, -2.9947, -1.311, -3.1416], a=3.1416, v=0.0171, r=Zone001)
  movej([-1.3094, -1.7553, -1.5332, -2.9946, -1.3094, -3.1416], a=3.1416, v=0.0171, r=Zone001)
  movej([-1.3079, -1.7548, -1.5339, -2.9945, -1.3079, -3.1416], a=3.1416, v=0.0171, r=Zone001)
  movej([-1.3064, -1.7542, -1.5345, -2.9944, -1.3064, -3.1416], a=3.1416, v=0.0171, r=Zone001)
  movej([-1.3048, -1.7536, -1.5352, -2.9943, -1.3048, -3.1416], a=3.1416, v=0.0171, r=Zone001)
  movej([-1.3033, -1.753, -1.536, -2.9942, -1.3033, -3.1416], a=3.1416, v=0.017, r=Zone001)
  movej([-1.3018, -1.7524, -1.5367, -2.9941, -1.3018, -3.1416], a=3.1416, v=0.017, r=Zone001)
  movej([-1.3003, -1.7517, -1.5375, -2.994, -1.3003, -3.1416], a=3.1416, v=0.017, r=Zone001)
  movej([-1.2987, -1.751, -1.5383, -2.9939, -1.2987, -3.1416], a=3.1416, v=0.017, r=Zone001)
  movej([-1.2972, -1.7504, -1.5391, -2.9937, -1.2972, -3.1416], a=3.1416, v=0.0169, r=Zone001)
  movej([-1.2957, -1.7496, -1.54, -2.9936, -1.2957, -3.1416], a=3.1416, v=0.0169, r=Zone001)
  movej([-1.2942, -1.7489, -1.5408, -2.9935, -1.2942, -3.1416], a=3.1416, v=0.0169, r=Zone001)
  movej([-1.2927, -1.7481, -1.5417, -2.9933, -1.2927, -3.1416], a=3.1416, v=0.0168, r=Zone001)
  movej([-1.2912, -1.7473, -1.5427, -2.9932, -1.2912, -3.1416], a=3.1416, v=0.0168, r=Zone001)
  movej([-1.2897, -1.7465, -1.5436, -2.993, -1.2897, -3.1416], a=3.1416, v=0.0167, r=Zone001)
  movej([-1.2882, -1.7457, -1.5446, -2.9929, -1.2882, -3.1416], a=3.1416, v=0.0167, r=Zone001)
  movej([-1.2867, -1.7448, -1.5456, -2.9927, -1.2867, -3.1416], a=3.1416, v=0.0166, r=Zone001)
  movej([-1.2852, -1.744, -1.5466, -2.9926, -1.2852, -3.1416], a=3.1416, v=0.0165, r=Zone001)
  movej([-1.2838, -1.7431, -1.5477, -2.9924, -1.2838, -3.1416], a=3.1416, v=0.0165, r=Zone001)
  movej([-1.2823, -1.7422, -1.5488, -2.9923, -1.2823, -3.1416], a=3.1416, v=0.0164, r=Zone001)
  movej([-1.2808, -1.7412, -1.5499, -2.9921, -1.2808, -3.1416], a=3.1416, v=0.0164, r=Zone001)
  movej([-1.2794, -1.7403, -1.551, -2.9919, -1.2794, -3.1416], a=3.1416, v=0.0163, r=Zone001)
  movej([-1.2779, -1.7393, -1.5521, -2.9918, -1.2779, -3.1416], a=3.1416, v=0.0162, r=Zone001)
  movej([-1.2765, -1.7383, -1.5533, -2.9916, -1.2765, -3.1416], a=3.1416, v=0.0161, r=Zone001)
  movej([-1.275, -1.7373, -1.5545, -2.9914, -1.275, -3.1416], a=3.1416, v=0.016, r=Zone001)
  movej([-1.2736, -1.7362, -1.5557, -2.9912, -1.2736, -3.1416], a=3.1416, v=0.016, r=Zone001)
  movej([-1.2722, -1.7352, -1.557, -2.9911, -1.2722, -3.1416], a=3.1416, v=0.0159, r=Zone001)
  movej([-1.2708, -1.7341, -1.5582, -2.9909, -1.2708, -3.1416], a=3.1416, v=0.0158, r=Zone001)
  movej([-1.2694, -1.733, -1.5595, -2.9907, -1.2694, -3.1416], a=3.1416, v=0.0157, r=Zone001)
  movej([-1.268, -1.7319, -1.5608, -2.9905, -1.268, -3.1416], a=3.1416, v=0.0156, r=Zone001)
  movej([-1.2666, -1.7307, -1.5621, -2.9903, -1.2666, -3.1416], a=3.1416, v=0.0155, r=Zone001)
  movej([-1.2652, -1.7296, -1.5635, -2.9901, -1.2652, -3.1416], a=3.1416, v=0.0154, r=Zone001)
  movej([-1.2638, -1.7284, -1.5648, -2.9899, -1.2638, -3.1416], a=3.1416, v=0.0153, r=Zone001)
  movej([-1.2625, -1.7272, -1.5662, -2.9897, -1.2625, -3.1416], a=3.1416, v=0.0155, r=Zone001)
