def Program():
  Clay_extruderTcp = p[0, 0.1765, 0.058, -1.5708, -0, 0]
  Clay_extruderWeight = 1.78
  Clay_extruderCog = [0, 0.1765, 0.058]
  Speed000 = 0.008
  Zone000 = 0
  Zone001 = 0.01
  set_tcp(Clay_extruderTcp)
  set_payload(Clay_extruderWeight, Clay_extruderCog)
  movej([-1.289, -1.5754, -1.7417, -2.9661, -1.289, -3.1416], a=3.1416, v=0.0251, r=Zone000)
  movej([-1.2906, -1.5752, -1.7418, -2.9661, -1.2906, -3.1416], a=3.1416, v=0.0194, r=Zone001)
  movej([-1.2922, -1.5752, -1.7419, -2.9661, -1.2922, -3.1416], a=3.1416, v=0.0195, r=Zone001)
  movej([-1.2939, -1.5751, -1.742, -2.9661, -1.2939, -3.1416], a=3.1416, v=0.0196, r=Zone001)
  movej([-1.2955, -1.5751, -1.742, -2.9661, -1.2955, -3.1416], a=3.1416, v=0.0197, r=Zone001)
  movej([-1.2972, -1.575, -1.742, -2.9661, -1.2972, -3.1416], a=3.1416, v=0.0198, r=Zone001)
  movej([-1.2988, -1.5751, -1.742, -2.9661, -1.2988, -3.1416], a=3.1416, v=0.0199, r=Zone001)
  movej([-1.3005, -1.5751, -1.7419, -2.9662, -1.3005, -3.1416], a=3.1416, v=0.02, r=Zone001)
  movej([-1.3022, -1.5752, -1.7418, -2.9662, -1.3022, -3.1416], a=3.1416, v=0.0201, r=Zone001)
  movej([-1.3038, -1.5753, -1.7417, -2.9662, -1.3038, -3.1416], a=3.1416, v=0.0202, r=Zone001)
  movej([-1.3055, -1.5754, -1.7416, -2.9662, -1.3055, -3.1416], a=3.1416, v=0.0202, r=Zone001)
  movej([-1.3072, -1.5756, -1.7414, -2.9662, -1.3072, -3.1416], a=3.1416, v=0.0203, r=Zone001)
  movej([-1.3089, -1.5758, -1.7412, -2.9662, -1.3089, -3.1416], a=3.1416, v=0.0203, r=Zone001)
  movej([-1.3106, -1.576, -1.741, -2.9662, -1.3106, -3.1416], a=3.1416, v=0.0204, r=Zone001)
  movej([-1.3123, -1.5762, -1.7407, -2.9662, -1.3123, -3.1416], a=3.1416, v=0.0204, r=Zone001)
  movej([-1.314, -1.5765, -1.7404, -2.9662, -1.314, -3.1416], a=3.1416, v=0.0205, r=Zone001)
  movej([-1.3157, -1.5768, -1.7401, -2.9663, -1.3157, -3.1416], a=3.1416, v=0.0205, r=Zone001)
  movej([-1.3174, -1.5771, -1.7398, -2.9663, -1.3174, -3.1416], a=3.1416, v=0.0205, r=Zone001)
  movej([-1.3192, -1.5775, -1.7394, -2.9663, -1.3192, -3.1416], a=3.1416, v=0.0205, r=Zone001)
  movej([-1.3209, -1.5779, -1.739, -2.9663, -1.3209, -3.1416], a=3.1416, v=0.0205, r=Zone001)
  movej([-1.3226, -1.5783, -1.7386, -2.9663, -1.3226, -3.1416], a=3.1416, v=0.0205, r=Zone001)
  movej([-1.3243, -1.5787, -1.7381, -2.9663, -1.3243, -3.1416], a=3.1416, v=0.0205, r=Zone001)
  movej([-1.326, -1.5792, -1.7377, -2.9663, -1.326, -3.1416], a=3.1416, v=0.0205, r=Zone001)
  movej([-1.3277, -1.5797, -1.7372, -2.9663, -1.3277, -3.1416], a=3.1416, v=0.0205, r=Zone001)
  movej([-1.3294, -1.5802, -1.7366, -2.9664, -1.3294, -3.1416], a=3.1416, v=0.0205, r=Zone001)
  movej([-1.3311, -1.5807, -1.7361, -2.9664, -1.3311, -3.1416], a=3.1416, v=0.0204, r=Zone001)
  movej([-1.3328, -1.5813, -1.7355, -2.9664, -1.3328, -3.1416], a=3.1416, v=0.0204, r=Zone001)
  movej([-1.3345, -1.5819, -1.7349, -2.9664, -1.3345, -3.1416], a=3.1416, v=0.0203, r=Zone001)
  movej([-1.3362, -1.5825, -1.7342, -2.9664, -1.3362, -3.1416], a=3.1416, v=0.0203, r=Zone001)
  movej([-1.3379, -1.5832, -1.7336, -2.9664, -1.3379, -3.1416], a=3.1416, v=0.0202, r=Zone001)
  movej([-1.3396, -1.5839, -1.7329, -2.9665, -1.3396, -3.1416], a=3.1416, v=0.0202, r=Zone001)
  movej([-1.3412, -1.5846, -1.7322, -2.9665, -1.3412, -3.1416], a=3.1416, v=0.0201, r=Zone001)
  movej([-1.3429, -1.5853, -1.7314, -2.9665, -1.3429, -3.1416], a=3.1416, v=0.02, r=Zone001)
  movej([-1.3446, -1.586, -1.7306, -2.9665, -1.3446, -3.1416], a=3.1416, v=0.0199, r=Zone001)
  movej([-1.3462, -1.5868, -1.7298, -2.9665, -1.3462, -3.1416], a=3.1416, v=0.0198, r=Zone001)
  movej([-1.3478, -1.5876, -1.729, -2.9666, -1.3478, -3.1416], a=3.1416, v=0.0197, r=Zone001)
  movej([-1.3495, -1.5884, -1.7282, -2.9666, -1.3495, -3.1416], a=3.1416, v=0.0196, r=Zone001)
  movej([-1.3511, -1.5893, -1.7273, -2.9666, -1.3511, -3.1416], a=3.1416, v=0.0195, r=Zone001)
  movej([-1.3527, -1.5901, -1.7264, -2.9667, -1.3527, -3.1416], a=3.1416, v=0.0194, r=Zone001)
  movej([-1.3543, -1.591, -1.7255, -2.9667, -1.3543, -3.1416], a=3.1416, v=0.0193, r=Zone001)
  movej([-1.3559, -1.5919, -1.7245, -2.9667, -1.3559, -3.1416], a=3.1416, v=0.0191, r=Zone001)
  movej([-1.3575, -1.5929, -1.7236, -2.9667, -1.3575, -3.1416], a=3.1416, v=0.019, r=Zone001)
  movej([-1.3591, -1.5938, -1.7226, -2.9668, -1.3591, -3.1416], a=3.1416, v=0.0189, r=Zone001)
  movej([-1.3606, -1.5948, -1.7216, -2.9668, -1.3606, -3.1416], a=3.1416, v=0.0187, r=Zone001)
  movej([-1.3622, -1.5958, -1.7205, -2.9668, -1.3622, -3.1416], a=3.1416, v=0.0186, r=Zone001)
  movej([-1.3637, -1.5968, -1.7195, -2.9669, -1.3637, -3.1416], a=3.1416, v=0.0184, r=Zone001)
  movej([-1.3652, -1.5979, -1.7184, -2.9669, -1.3652, -3.1416], a=3.1416, v=0.0182, r=Zone001)
  movej([-1.3667, -1.5989, -1.7173, -2.967, -1.3667, -3.1416], a=3.1416, v=0.0181, r=Zone001)
  movej([-1.3682, -1.6, -1.7161, -2.967, -1.3682, -3.1416], a=3.1416, v=0.0179, r=Zone001)
  movej([-1.3697, -1.6011, -1.715, -2.9671, -1.3697, -3.1416], a=3.1416, v=0.0177, r=Zone001)
  movej([-1.3711, -1.6023, -1.7138, -2.9671, -1.3711, -3.1416], a=3.1416, v=0.0175, r=Zone001)
  movej([-1.3726, -1.6034, -1.7126, -2.9672, -1.3726, -3.1416], a=3.1416, v=0.0173, r=Zone001)
  movej([-1.374, -1.6046, -1.7114, -2.9672, -1.374, -3.1416], a=3.1416, v=0.0171, r=Zone001)
  movej([-1.3754, -1.6057, -1.7102, -2.9673, -1.3754, -3.1416], a=3.1416, v=0.0169, r=Zone001)
  movej([-1.3768, -1.6069, -1.7089, -2.9673, -1.3768, -3.1416], a=3.1416, v=0.0167, r=Zone001)
  movej([-1.3782, -1.6082, -1.7077, -2.9674, -1.3782, -3.1416], a=3.1416, v=0.0165, r=Zone001)
  movej([-1.3795, -1.6094, -1.7064, -2.9674, -1.3795, -3.1416], a=3.1416, v=0.0163, r=Zone001)
  movej([-1.3809, -1.6106, -1.705, -2.9675, -1.3809, -3.1416], a=3.1416, v=0.0161, r=Zone001)
  movej([-1.3822, -1.6119, -1.7037, -2.9676, -1.3822, -3.1416], a=3.1416, v=0.016, r=Zone001)
  movej([-1.3835, -1.6132, -1.7024, -2.9676, -1.3835, -3.1416], a=3.1416, v=0.0162, r=Zone001)
  movej([-1.3848, -1.6145, -1.701, -2.9677, -1.3848, -3.1416], a=3.1416, v=0.0165, r=Zone001)
  movej([-1.386, -1.6158, -1.6996, -2.9678, -1.386, -3.1416], a=3.1416, v=0.0167, r=Zone001)
  movej([-1.3873, -1.6171, -1.6982, -2.9679, -1.3873, -3.1416], a=3.1416, v=0.0169, r=Zone001)
  movej([-1.3885, -1.6185, -1.6968, -2.9679, -1.3885, -3.1416], a=3.1416, v=0.0171, r=Zone001)
  movej([-1.3897, -1.6198, -1.6953, -2.968, -1.3897, -3.1416], a=3.1416, v=0.0173, r=Zone001)
  movej([-1.3909, -1.6212, -1.6939, -2.9681, -1.3909, -3.1416], a=3.1416, v=0.0175, r=Zone001)
  movej([-1.3921, -1.6226, -1.6924, -2.9682, -1.3921, -3.1416], a=3.1416, v=0.0177, r=Zone001)
  movej([-1.3932, -1.624, -1.6909, -2.9683, -1.3932, -3.1416], a=3.1416, v=0.0179, r=Zone001)
  movej([-1.3943, -1.6254, -1.6894, -2.9684, -1.3943, -3.1416], a=3.1416, v=0.0181, r=Zone001)
  movej([-1.3954, -1.6268, -1.6879, -2.9685, -1.3954, -3.1416], a=3.1416, v=0.0182, r=Zone001)
  movej([-1.3965, -1.6282, -1.6864, -2.9686, -1.3965, -3.1416], a=3.1416, v=0.0184, r=Zone001)
  movej([-1.3975, -1.6297, -1.6848, -2.9687, -1.3975, -3.1416], a=3.1416, v=0.0186, r=Zone001)
  movej([-1.3986, -1.6311, -1.6833, -2.9688, -1.3986, -3.1416], a=3.1416, v=0.0188, r=Zone001)
  movej([-1.3996, -1.6326, -1.6817, -2.9689, -1.3996, -3.1416], a=3.1416, v=0.0189, r=Zone001)
  movej([-1.4006, -1.6341, -1.6801, -2.969, -1.4006, -3.1416], a=3.1416, v=0.0191, r=Zone001)
  movej([-1.4015, -1.6355, -1.6785, -2.9691, -1.4015, -3.1416], a=3.1416, v=0.0192, r=Zone001)
  movej([-1.4025, -1.637, -1.6769, -2.9692, -1.4025, -3.1416], a=3.1416, v=0.0194, r=Zone001)
  movej([-1.4034, -1.6385, -1.6753, -2.9693, -1.4034, -3.1416], a=3.1416, v=0.0195, r=Zone001)
  movej([-1.4043, -1.6401, -1.6737, -2.9695, -1.4043, -3.1416], a=3.1416, v=0.0197, r=Zone001)
  movej([-1.4051, -1.6416, -1.672, -2.9696, -1.4051, -3.1416], a=3.1416, v=0.0198, r=Zone001)
  movej([-1.406, -1.6431, -1.6704, -2.9697, -1.406, -3.1416], a=3.1416, v=0.0199, r=Zone001)
  movej([-1.4068, -1.6446, -1.6687, -2.9699, -1.4068, -3.1416], a=3.1416, v=0.0201, r=Zone001)
  movej([-1.4076, -1.6462, -1.667, -2.97, -1.4076, -3.1416], a=3.1416, v=0.0202, r=Zone001)
  movej([-1.4084, -1.6477, -1.6653, -2.9701, -1.4084, -3.1416], a=3.1416, v=0.0203, r=Zone001)
  movej([-1.4091, -1.6493, -1.6636, -2.9703, -1.4091, -3.1416], a=3.1416, v=0.0204, r=Zone001)
  movej([-1.4099, -1.6508, -1.6619, -2.9704, -1.4099, -3.1416], a=3.1416, v=0.0205, r=Zone001)
  movej([-1.4106, -1.6524, -1.6602, -2.9706, -1.4106, -3.1416], a=3.1416, v=0.0206, r=Zone001)
  movej([-1.4112, -1.654, -1.6585, -2.9707, -1.4112, -3.1416], a=3.1416, v=0.0207, r=Zone001)
  movej([-1.4119, -1.6555, -1.6568, -2.9709, -1.4119, -3.1416], a=3.1416, v=0.0208, r=Zone001)
  movej([-1.4125, -1.6571, -1.655, -2.971, -1.4125, -3.1416], a=3.1416, v=0.0209, r=Zone001)
  movej([-1.4131, -1.6587, -1.6533, -2.9712, -1.4131, -3.1416], a=3.1416, v=0.0209, r=Zone001)
  movej([-1.4137, -1.6603, -1.6516, -2.9714, -1.4137, -3.1416], a=3.1416, v=0.021, r=Zone001)
  movej([-1.4142, -1.6618, -1.6498, -2.9715, -1.4142, -3.1416], a=3.1416, v=0.0211, r=Zone001)
  movej([-1.4148, -1.6634, -1.6481, -2.9717, -1.4148, -3.1416], a=3.1416, v=0.0211, r=Zone001)
  movej([-1.4153, -1.665, -1.6463, -2.9719, -1.4153, -3.1416], a=3.1416, v=0.0212, r=Zone001)
  movej([-1.4157, -1.6666, -1.6445, -2.972, -1.4157, -3.1416], a=3.1416, v=0.0213, r=Zone001)
  movej([-1.4162, -1.6682, -1.6428, -2.9722, -1.4162, -3.1416], a=3.1416, v=0.0213, r=Zone001)
  movej([-1.4166, -1.6698, -1.641, -2.9724, -1.4166, -3.1416], a=3.1416, v=0.0213, r=Zone001)
  movej([-1.417, -1.6714, -1.6392, -2.9726, -1.417, -3.1416], a=3.1416, v=0.0214, r=Zone001)
  movej([-1.4174, -1.673, -1.6374, -2.9728, -1.4174, -3.1416], a=3.1416, v=0.0214, r=Zone001)
  movej([-1.4178, -1.6746, -1.6357, -2.973, -1.4178, -3.1416], a=3.1416, v=0.0214, r=Zone001)
  movej([-1.4181, -1.6762, -1.6339, -2.9732, -1.4181, -3.1416], a=3.1416, v=0.0215, r=Zone001)
  movej([-1.4184, -1.6777, -1.6321, -2.9733, -1.4184, -3.1416], a=3.1416, v=0.0215, r=Zone001)
  movej([-1.4187, -1.6793, -1.6303, -2.9735, -1.4187, -3.1416], a=3.1416, v=0.0215, r=Zone001)
  movej([-1.4189, -1.6809, -1.6285, -2.9737, -1.4189, -3.1416], a=3.1416, v=0.0215, r=Zone001)
  movej([-1.4192, -1.6825, -1.6267, -2.9739, -1.4192, -3.1416], a=3.1416, v=0.0215, r=Zone001)
  movej([-1.4194, -1.6841, -1.625, -2.9742, -1.4194, -3.1416], a=3.1416, v=0.0215, r=Zone001)
  movej([-1.4196, -1.6856, -1.6232, -2.9744, -1.4196, -3.1416], a=3.1416, v=0.0215, r=Zone001)
  movej([-1.4197, -1.6872, -1.6214, -2.9746, -1.4197, -3.1416], a=3.1416, v=0.0215, r=Zone001)
  movej([-1.4198, -1.6888, -1.6196, -2.9748, -1.4198, -3.1416], a=3.1416, v=0.0214, r=Zone001)
  movej([-1.42, -1.6904, -1.6178, -2.975, -1.42, -3.1416], a=3.1416, v=0.0214, r=Zone001)
  movej([-1.42, -1.6919, -1.6161, -2.9752, -1.42, -3.1416], a=3.1416, v=0.0214, r=Zone001)
  movej([-1.4201, -1.6935, -1.6143, -2.9754, -1.4201, -3.1416], a=3.1416, v=0.0214, r=Zone001)
  movej([-1.4201, -1.695, -1.6125, -2.9756, -1.4201, -3.1416], a=3.1416, v=0.0213, r=Zone001)
  movej([-1.4202, -1.6966, -1.6108, -2.9759, -1.4202, -3.1416], a=3.1416, v=0.0213, r=Zone001)
  movej([-1.4201, -1.6981, -1.609, -2.9761, -1.4201, -3.1416], a=3.1416, v=0.0212, r=Zone001)
  movej([-1.4201, -1.6996, -1.6073, -2.9763, -1.4201, -3.1416], a=3.1416, v=0.0212, r=Zone001)
  movej([-1.4201, -1.7011, -1.6055, -2.9765, -1.4201, -3.1416], a=3.1416, v=0.0211, r=Zone001)
  movej([-1.42, -1.7027, -1.6038, -2.9768, -1.42, -3.1416], a=3.1416, v=0.021, r=Zone001)
  movej([-1.4199, -1.7042, -1.602, -2.977, -1.4199, -3.1416], a=3.1416, v=0.021, r=Zone001)
  movej([-1.4197, -1.7057, -1.6003, -2.9772, -1.4197, -3.1416], a=3.1416, v=0.0209, r=Zone001)
  movej([-1.4196, -1.7072, -1.5986, -2.9775, -1.4196, -3.1416], a=3.1416, v=0.0208, r=Zone001)
  movej([-1.4194, -1.7086, -1.5969, -2.9777, -1.4194, -3.1416], a=3.1416, v=0.0207, r=Zone001)
  movej([-1.4192, -1.7101, -1.5951, -2.9779, -1.4192, -3.1416], a=3.1416, v=0.0206, r=Zone001)
  movej([-1.419, -1.7116, -1.5934, -2.9782, -1.419, -3.1416], a=3.1416, v=0.0205, r=Zone001)
  movej([-1.4188, -1.713, -1.5917, -2.9784, -1.4188, -3.1416], a=3.1416, v=0.0204, r=Zone001)
  movej([-1.4185, -1.7145, -1.5901, -2.9786, -1.4185, -3.1416], a=3.1416, v=0.0203, r=Zone001)
  movej([-1.4182, -1.7159, -1.5884, -2.9789, -1.4182, -3.1416], a=3.1416, v=0.0202, r=Zone001)
  movej([-1.4179, -1.7174, -1.5867, -2.9791, -1.4179, -3.1416], a=3.1416, v=0.0201, r=Zone001)
  movej([-1.4176, -1.7188, -1.5851, -2.9793, -1.4176, -3.1416], a=3.1416, v=0.02, r=Zone001)
  movej([-1.4172, -1.7202, -1.5834, -2.9796, -1.4172, -3.1416], a=3.1416, v=0.0198, r=Zone001)
  movej([-1.4169, -1.7216, -1.5818, -2.9798, -1.4169, -3.1416], a=3.1416, v=0.0197, r=Zone001)
  movej([-1.4165, -1.723, -1.5802, -2.9801, -1.4165, -3.1416], a=3.1416, v=0.0196, r=Zone001)
  movej([-1.416, -1.7243, -1.5786, -2.9803, -1.416, -3.1416], a=3.1416, v=0.0194, r=Zone001)
  movej([-1.4156, -1.7257, -1.577, -2.9805, -1.4156, -3.1416], a=3.1416, v=0.0193, r=Zone001)
  movej([-1.4152, -1.727, -1.5754, -2.9808, -1.4152, -3.1416], a=3.1416, v=0.0191, r=Zone001)
  movej([-1.4147, -1.7284, -1.5738, -2.981, -1.4147, -3.1416], a=3.1416, v=0.019, r=Zone001)
  movej([-1.4142, -1.7297, -1.5723, -2.9812, -1.4142, -3.1416], a=3.1416, v=0.0188, r=Zone001)
  movej([-1.4137, -1.731, -1.5707, -2.9815, -1.4137, -3.1416], a=3.1416, v=0.0186, r=Zone001)
  movej([-1.4131, -1.7323, -1.5692, -2.9817, -1.4131, -3.1416], a=3.1416, v=0.0185, r=Zone001)
  movej([-1.4126, -1.7336, -1.5677, -2.982, -1.4126, -3.1416], a=3.1416, v=0.0183, r=Zone001)
  movej([-1.412, -1.7348, -1.5662, -2.9822, -1.412, -3.1416], a=3.1416, v=0.0181, r=Zone001)
  movej([-1.4114, -1.7361, -1.5647, -2.9824, -1.4114, -3.1416], a=3.1416, v=0.0179, r=Zone001)
  movej([-1.4108, -1.7373, -1.5632, -2.9827, -1.4108, -3.1416], a=3.1416, v=0.0177, r=Zone001)
  movej([-1.4101, -1.7385, -1.5618, -2.9829, -1.4101, -3.1416], a=3.1416, v=0.0176, r=Zone001)
  movej([-1.4095, -1.7397, -1.5603, -2.9831, -1.4095, -3.1416], a=3.1416, v=0.0174, r=Zone001)
  movej([-1.4088, -1.7409, -1.5589, -2.9834, -1.4088, -3.1416], a=3.1416, v=0.0172, r=Zone001)
  movej([-1.4081, -1.7421, -1.5575, -2.9836, -1.4081, -3.1416], a=3.1416, v=0.017, r=Zone001)
  movej([-1.4074, -1.7433, -1.5561, -2.9838, -1.4074, -3.1416], a=3.1416, v=0.0167, r=Zone001)
  movej([-1.4067, -1.7444, -1.5547, -2.984, -1.4067, -3.1416], a=3.1416, v=0.0165, r=Zone001)
  movej([-1.406, -1.7455, -1.5534, -2.9843, -1.406, -3.1416], a=3.1416, v=0.0163, r=Zone001)
  movej([-1.4052, -1.7466, -1.5521, -2.9845, -1.4052, -3.1416], a=3.1416, v=0.0161, r=Zone001)
  movej([-1.4044, -1.7477, -1.5507, -2.9847, -1.4044, -3.1416], a=3.1416, v=0.0159, r=Zone001)
  movej([-1.4036, -1.7488, -1.5494, -2.9849, -1.4036, -3.1416], a=3.1416, v=0.0156, r=Zone001)
  movej([-1.4028, -1.7499, -1.5482, -2.9851, -1.4028, -3.1416], a=3.1416, v=0.0154, r=Zone001)
  movej([-1.402, -1.7509, -1.5469, -2.9853, -1.402, -3.1416], a=3.1416, v=0.0152, r=Zone001)
  movej([-1.4011, -1.7519, -1.5457, -2.9856, -1.4011, -3.1416], a=3.1416, v=0.0149, r=Zone001)
  movej([-1.4003, -1.753, -1.5445, -2.9858, -1.4003, -3.1416], a=3.1416, v=0.0147, r=Zone001)
  movej([-1.3994, -1.7539, -1.5433, -2.986, -1.3994, -3.1416], a=3.1416, v=0.0144, r=Zone001)
  movej([-1.3985, -1.7549, -1.5421, -2.9862, -1.3985, -3.1416], a=3.1416, v=0.0142, r=Zone001)
  movej([-1.3976, -1.7559, -1.5409, -2.9864, -1.3976, -3.1416], a=3.1416, v=0.0139, r=Zone001)
  movej([-1.3967, -1.7568, -1.5398, -2.9866, -1.3967, -3.1416], a=3.1416, v=0.0137, r=Zone001)
  movej([-1.3957, -1.7577, -1.5387, -2.9868, -1.3957, -3.1416], a=3.1416, v=0.0134, r=Zone001)
  movej([-1.3948, -1.7586, -1.5376, -2.987, -1.3948, -3.1416], a=3.1416, v=0.0132, r=Zone001)
  movej([-1.3938, -1.7595, -1.5365, -2.9872, -1.3938, -3.1416], a=3.1416, v=0.0129, r=Zone001)
  movej([-1.3928, -1.7603, -1.5355, -2.9873, -1.3928, -3.1416], a=3.1416, v=0.0126, r=Zone001)
  movej([-1.3918, -1.7612, -1.5345, -2.9875, -1.3918, -3.1416], a=3.1416, v=0.0123, r=Zone001)
  movej([-1.3908, -1.762, -1.5335, -2.9877, -1.3908, -3.1416], a=3.1416, v=0.0122, r=Zone001)
  movej([-1.3898, -1.7628, -1.5325, -2.9879, -1.3898, -3.1416], a=3.1416, v=0.0124, r=Zone001)
  movej([-1.3888, -1.7636, -1.5316, -2.9881, -1.3888, -3.1416], a=3.1416, v=0.0125, r=Zone001)
  movej([-1.3877, -1.7643, -1.5306, -2.9882, -1.3877, -3.1416], a=3.1416, v=0.0127, r=Zone001)
  movej([-1.3866, -1.7651, -1.5297, -2.9884, -1.3866, -3.1416], a=3.1416, v=0.0129, r=Zone001)
  movej([-1.3856, -1.7658, -1.5288, -2.9886, -1.3856, -3.1416], a=3.1416, v=0.013, r=Zone001)
  movej([-1.3845, -1.7665, -1.528, -2.9887, -1.3845, -3.1416], a=3.1416, v=0.0132, r=Zone001)
  movej([-1.3834, -1.7672, -1.5272, -2.9889, -1.3834, -3.1416], a=3.1416, v=0.0133, r=Zone001)
  movej([-1.3823, -1.7678, -1.5263, -2.989, -1.3823, -3.1416], a=3.1416, v=0.0135, r=Zone001)
  movej([-1.3811, -1.7685, -1.5256, -2.9892, -1.3811, -3.1416], a=3.1416, v=0.0136, r=Zone001)
  movej([-1.38, -1.7691, -1.5248, -2.9893, -1.38, -3.1416], a=3.1416, v=0.0137, r=Zone001)
  movej([-1.3789, -1.7697, -1.5241, -2.9894, -1.3789, -3.1416], a=3.1416, v=0.0139, r=Zone001)
  movej([-1.3777, -1.7702, -1.5234, -2.9896, -1.3777, -3.1416], a=3.1416, v=0.014, r=Zone001)
  movej([-1.3765, -1.7708, -1.5227, -2.9897, -1.3765, -3.1416], a=3.1416, v=0.0141, r=Zone001)
  movej([-1.3754, -1.7713, -1.522, -2.9898, -1.3754, -3.1416], a=3.1416, v=0.0143, r=Zone001)
  movej([-1.3742, -1.7718, -1.5214, -2.9899, -1.3742, -3.1416], a=3.1416, v=0.0144, r=Zone001)
  movej([-1.373, -1.7723, -1.5208, -2.9901, -1.373, -3.1416], a=3.1416, v=0.0145, r=Zone001)
  movej([-1.3718, -1.7728, -1.5202, -2.9902, -1.3718, -3.1416], a=3.1416, v=0.0146, r=Zone001)
  movej([-1.3705, -1.7732, -1.5197, -2.9903, -1.3705, -3.1416], a=3.1416, v=0.0147, r=Zone001)
  movej([-1.3693, -1.7736, -1.5192, -2.9904, -1.3693, -3.1416], a=3.1416, v=0.0149, r=Zone001)
  movej([-1.3681, -1.774, -1.5187, -2.9905, -1.3681, -3.1416], a=3.1416, v=0.015, r=Zone001)
  movej([-1.3668, -1.7744, -1.5182, -2.9906, -1.3668, -3.1416], a=3.1416, v=0.0151, r=Zone001)
  movej([-1.3656, -1.7748, -1.5178, -2.9907, -1.3656, -3.1416], a=3.1416, v=0.0152, r=Zone001)
  movej([-1.3643, -1.7751, -1.5173, -2.9907, -1.3643, -3.1416], a=3.1416, v=0.0153, r=Zone001)
  movej([-1.363, -1.7754, -1.517, -2.9908, -1.363, -3.1416], a=3.1416, v=0.0154, r=Zone001)
  movej([-1.3618, -1.7757, -1.5166, -2.9909, -1.3618, -3.1416], a=3.1416, v=0.0155, r=Zone001)
  movej([-1.3605, -1.776, -1.5163, -2.991, -1.3605, -3.1416], a=3.1416, v=0.0156, r=Zone001)
  movej([-1.3592, -1.7762, -1.516, -2.991, -1.3592, -3.1416], a=3.1416, v=0.0157, r=Zone001)
  movej([-1.3579, -1.7764, -1.5157, -2.9911, -1.3579, -3.1416], a=3.1416, v=0.0157, r=Zone001)
  movej([-1.3566, -1.7766, -1.5154, -2.9911, -1.3566, -3.1416], a=3.1416, v=0.0158, r=Zone001)
  movej([-1.3553, -1.7768, -1.5152, -2.9912, -1.3553, -3.1416], a=3.1416, v=0.0159, r=Zone001)
  movej([-1.3539, -1.7769, -1.515, -2.9912, -1.3539, -3.1416], a=3.1416, v=0.016, r=Zone001)
  movej([-1.3526, -1.7771, -1.5149, -2.9913, -1.3526, -3.1416], a=3.1416, v=0.016, r=Zone001)
  movej([-1.3513, -1.7772, -1.5147, -2.9913, -1.3513, -3.1416], a=3.1416, v=0.0161, r=Zone001)
  movej([-1.3499, -1.7773, -1.5146, -2.9913, -1.3499, -3.1416], a=3.1416, v=0.0162, r=Zone001)
  movej([-1.3486, -1.7773, -1.5145, -2.9914, -1.3486, -3.1416], a=3.1416, v=0.0163, r=Zone001)
  movej([-1.3473, -1.7773, -1.5145, -2.9914, -1.3473, -3.1416], a=3.1416, v=0.0163, r=Zone001)
  movej([-1.3459, -1.7774, -1.5144, -2.9914, -1.3459, -3.1416], a=3.1416, v=0.0164, r=Zone001)
  movej([-1.3446, -1.7774, -1.5144, -2.9914, -1.3446, -3.1416], a=3.1416, v=0.0164, r=Zone001)
  movej([-1.3432, -1.7773, -1.5145, -2.9914, -1.3432, -3.1416], a=3.1416, v=0.0165, r=Zone001)
  movej([-1.3418, -1.7773, -1.5145, -2.9914, -1.3418, -3.1416], a=3.1416, v=0.0165, r=Zone001)
  movej([-1.3405, -1.7772, -1.5146, -2.9914, -1.3405, -3.1416], a=3.1416, v=0.0166, r=Zone001)
  movej([-1.3391, -1.7771, -1.5147, -2.9914, -1.3391, -3.1416], a=3.1416, v=0.0166, r=Zone001)
  movej([-1.3377, -1.777, -1.5148, -2.9914, -1.3377, -3.1416], a=3.1416, v=0.0167, r=Zone001)
  movej([-1.3363, -1.7768, -1.515, -2.9913, -1.3363, -3.1416], a=3.1416, v=0.0167, r=Zone001)
  movej([-1.335, -1.7767, -1.5152, -2.9913, -1.335, -3.1416], a=3.1416, v=0.0167, r=Zone001)
  movej([-1.3336, -1.7765, -1.5154, -2.9913, -1.3336, -3.1416], a=3.1416, v=0.0168, r=Zone001)
  movej([-1.3322, -1.7763, -1.5157, -2.9912, -1.3322, -3.1416], a=3.1416, v=0.0168, r=Zone001)
  movej([-1.3308, -1.776, -1.516, -2.9912, -1.3308, -3.1416], a=3.1416, v=0.0168, r=Zone001)
  movej([-1.3294, -1.7758, -1.5163, -2.9912, -1.3294, -3.1416], a=3.1416, v=0.0168, r=Zone001)
  movej([-1.328, -1.7755, -1.5166, -2.9911, -1.328, -3.1416], a=3.1416, v=0.0168, r=Zone001)
  movej([-1.3266, -1.7752, -1.5169, -2.991, -1.3266, -3.1416], a=3.1416, v=0.0169, r=Zone001)
  movej([-1.3252, -1.7749, -1.5173, -2.991, -1.3252, -3.1416], a=3.1416, v=0.0169, r=Zone001)
  movej([-1.3238, -1.7745, -1.5177, -2.9909, -1.3238, -3.1416], a=3.1416, v=0.0169, r=Zone001)
  movej([-1.3225, -1.7742, -1.5182, -2.9908, -1.3225, -3.1416], a=3.1416, v=0.0169, r=Zone001)
  movej([-1.3211, -1.7738, -1.5187, -2.9908, -1.3211, -3.1416], a=3.1416, v=0.0169, r=Zone001)
  movej([-1.3197, -1.7734, -1.5191, -2.9907, -1.3197, -3.1416], a=3.1416, v=0.0169, r=Zone001)
  movej([-1.3183, -1.7729, -1.5197, -2.9906, -1.3183, -3.1416], a=3.1416, v=0.0169, r=Zone001)
  movej([-1.3169, -1.7725, -1.5202, -2.9905, -1.3169, -3.1416], a=3.1416, v=0.0169, r=Zone001)
  movej([-1.3155, -1.772, -1.5208, -2.9904, -1.3155, -3.1416], a=3.1416, v=0.0169, r=Zone001)
  movej([-1.3141, -1.7715, -1.5214, -2.9903, -1.3141, -3.1416], a=3.1416, v=0.0168, r=Zone001)
  movej([-1.3127, -1.771, -1.522, -2.9902, -1.3127, -3.1416], a=3.1416, v=0.0168, r=Zone001)
  movej([-1.3113, -1.7704, -1.5227, -2.9901, -1.3113, -3.1416], a=3.1416, v=0.0168, r=Zone001)
  movej([-1.3099, -1.7699, -1.5233, -2.99, -1.3099, -3.1416], a=3.1416, v=0.0168, r=Zone001)
  movej([-1.3086, -1.7693, -1.524, -2.9899, -1.3086, -3.1416], a=3.1416, v=0.0168, r=Zone001)
  movej([-1.3072, -1.7687, -1.5248, -2.9897, -1.3072, -3.1416], a=3.1416, v=0.0167, r=Zone001)
  movej([-1.3058, -1.7681, -1.5255, -2.9896, -1.3058, -3.1416], a=3.1416, v=0.0167, r=Zone001)
  movej([-1.3044, -1.7674, -1.5263, -2.9895, -1.3044, -3.1416], a=3.1416, v=0.0167, r=Zone001)
  movej([-1.3031, -1.7667, -1.5271, -2.9894, -1.3031, -3.1416], a=3.1416, v=0.0166, r=Zone001)
  movej([-1.3017, -1.766, -1.5279, -2.9892, -1.3017, -3.1416], a=3.1416, v=0.0166, r=Zone001)
  movej([-1.3003, -1.7653, -1.5288, -2.9891, -1.3003, -3.1416], a=3.1416, v=0.0165, r=Zone001)
  movej([-1.299, -1.7646, -1.5296, -2.9889, -1.299, -3.1416], a=3.1416, v=0.0165, r=Zone001)
  movej([-1.2976, -1.7639, -1.5305, -2.9888, -1.2976, -3.1416], a=3.1416, v=0.0164, r=Zone001)
  movej([-1.2963, -1.7631, -1.5315, -2.9886, -1.2963, -3.1416], a=3.1416, v=0.0164, r=Zone001)
  movej([-1.2949, -1.7623, -1.5324, -2.9885, -1.2949, -3.1416], a=3.1416, v=0.0163, r=Zone001)
  movej([-1.2936, -1.7615, -1.5334, -2.9883, -1.2936, -3.1416], a=3.1416, v=0.0163, r=Zone001)
  movej([-1.2923, -1.7607, -1.5344, -2.9882, -1.2923, -3.1416], a=3.1416, v=0.0162, r=Zone001)
  movej([-1.2909, -1.7598, -1.5354, -2.988, -1.2909, -3.1416], a=3.1416, v=0.0161, r=Zone001)
  movej([-1.2896, -1.7589, -1.5364, -2.9878, -1.2896, -3.1416], a=3.1416, v=0.0161, r=Zone001)
  movej([-1.2883, -1.7581, -1.5375, -2.9877, -1.2883, -3.1416], a=3.1416, v=0.016, r=Zone001)
  movej([-1.287, -1.7571, -1.5386, -2.9875, -1.287, -3.1416], a=3.1416, v=0.0159, r=Zone001)
  movej([-1.2857, -1.7562, -1.5397, -2.9873, -1.2857, -3.1416], a=3.1416, v=0.0158, r=Zone001)
  movej([-1.2844, -1.7553, -1.5408, -2.9871, -1.2844, -3.1416], a=3.1416, v=0.0157, r=Zone001)
  movej([-1.2831, -1.7543, -1.5419, -2.9869, -1.2831, -3.1416], a=3.1416, v=0.0157, r=Zone001)
  movej([-1.2818, -1.7533, -1.5431, -2.9868, -1.2818, -3.1416], a=3.1416, v=0.0156, r=Zone001)
  movej([-1.2805, -1.7523, -1.5443, -2.9866, -1.2805, -3.1416], a=3.1416, v=0.0155, r=Zone001)
  movej([-1.2793, -1.7513, -1.5455, -2.9864, -1.2793, -3.1416], a=3.1416, v=0.0154, r=Zone001)
  movej([-1.278, -1.7503, -1.5467, -2.9862, -1.278, -3.1416], a=3.1416, v=0.0153, r=Zone001)
  movej([-1.2768, -1.7492, -1.5479, -2.986, -1.2768, -3.1416], a=3.1416, v=0.0152, r=Zone001)
  movej([-1.2755, -1.7482, -1.5492, -2.9858, -1.2755, -3.1416], a=3.1416, v=0.0154, r=Zone001)
  movej([-1.2743, -1.7471, -1.5505, -2.9856, -1.2743, -3.1416], a=3.1416, v=0.0156, r=Zone001)
  movej([-1.2731, -1.746, -1.5518, -2.9854, -1.2731, -3.1416], a=3.1416, v=0.0158, r=Zone001)
  movej([-1.2718, -1.7449, -1.5531, -2.9852, -1.2718, -3.1416], a=3.1416, v=0.016, r=Zone001)
  movej([-1.2706, -1.7437, -1.5545, -2.985, -1.2706, -3.1416], a=3.1416, v=0.0162, r=Zone001)
  movej([-1.2695, -1.7426, -1.5558, -2.9848, -1.2695, -3.1416], a=3.1416, v=0.0165, r=Zone001)
  movej([-1.2683, -1.7414, -1.5572, -2.9846, -1.2683, -3.1416], a=3.1416, v=0.0167, r=Zone001)
  movej([-1.2671, -1.7403, -1.5586, -2.9844, -1.2671, -3.1416], a=3.1416, v=0.0169, r=Zone001)
  movej([-1.2659, -1.7391, -1.56, -2.9841, -1.2659, -3.1416], a=3.1416, v=0.0171, r=Zone001)
  movej([-1.2648, -1.7378, -1.5614, -2.9839, -1.2648, -3.1416], a=3.1416, v=0.0173, r=Zone001)
  movej([-1.2637, -1.7366, -1.5628, -2.9837, -1.2637, -3.1416], a=3.1416, v=0.0175, r=Zone001)
  movej([-1.2625, -1.7354, -1.5643, -2.9835, -1.2625, -3.1416], a=3.1416, v=0.0177, r=Zone001)
  movej([-1.2614, -1.7341, -1.5658, -2.9833, -1.2614, -3.1416], a=3.1416, v=0.0178, r=Zone001)
  movej([-1.2603, -1.7329, -1.5672, -2.9831, -1.2603, -3.1416], a=3.1416, v=0.018, r=Zone001)
  movej([-1.2592, -1.7316, -1.5687, -2.9829, -1.2592, -3.1416], a=3.1416, v=0.0182, r=Zone001)
  movej([-1.2581, -1.7303, -1.5703, -2.9826, -1.2581, -3.1416], a=3.1416, v=0.0184, r=Zone001)
  movej([-1.2571, -1.729, -1.5718, -2.9824, -1.2571, -3.1416], a=3.1416, v=0.0185, r=Zone001)
  movej([-1.256, -1.7276, -1.5733, -2.9822, -1.256, -3.1416], a=3.1416, v=0.0187, r=Zone001)
  movej([-1.255, -1.7263, -1.5749, -2.982, -1.255, -3.1416], a=3.1416, v=0.0189, r=Zone001)
  movej([-1.254, -1.725, -1.5764, -2.9818, -1.254, -3.1416], a=3.1416, v=0.019, r=Zone001)
  movej([-1.253, -1.7236, -1.578, -2.9816, -1.253, -3.1416], a=3.1416, v=0.0192, r=Zone001)
  movej([-1.252, -1.7222, -1.5796, -2.9813, -1.252, -3.1416], a=3.1416, v=0.0193, r=Zone001)
  movej([-1.251, -1.7209, -1.5812, -2.9811, -1.251, -3.1416], a=3.1416, v=0.0194, r=Zone001)
  movej([-1.25, -1.7195, -1.5828, -2.9809, -1.25, -3.1416], a=3.1416, v=0.0196, r=Zone001)
  movej([-1.2491, -1.7181, -1.5844, -2.9807, -1.2491, -3.1416], a=3.1416, v=0.0197, r=Zone001)
  movej([-1.2481, -1.7166, -1.5861, -2.9805, -1.2481, -3.1416], a=3.1416, v=0.0198, r=Zone001)
  movej([-1.2472, -1.7152, -1.5877, -2.9803, -1.2472, -3.1416], a=3.1416, v=0.02, r=Zone001)
  movej([-1.2463, -1.7138, -1.5894, -2.98, -1.2463, -3.1416], a=3.1416, v=0.0201, r=Zone001)
  movej([-1.2454, -1.7123, -1.591, -2.9798, -1.2454, -3.1416], a=3.1416, v=0.0202, r=Zone001)
  movej([-1.2446, -1.7109, -1.5927, -2.9796, -1.2446, -3.1416], a=3.1416, v=0.0203, r=Zone001)
  movej([-1.2437, -1.7094, -1.5944, -2.9794, -1.2437, -3.1416], a=3.1416, v=0.0204, r=Zone001)
  movej([-1.2429, -1.708, -1.5961, -2.9792, -1.2429, -3.1416], a=3.1416, v=0.0205, r=Zone001)
  movej([-1.2421, -1.7065, -1.5977, -2.979, -1.2421, -3.1416], a=3.1416, v=0.0206, r=Zone001)
  movej([-1.2412, -1.705, -1.5994, -2.9788, -1.2412, -3.1416], a=3.1416, v=0.0207, r=Zone001)
  movej([-1.2405, -1.7035, -1.6011, -2.9786, -1.2405, -3.1416], a=3.1416, v=0.0207, r=Zone001)
  movej([-1.2397, -1.702, -1.6029, -2.9783, -1.2397, -3.1416], a=3.1416, v=0.0208, r=Zone001)
  movej([-1.2389, -1.7005, -1.6046, -2.9781, -1.2389, -3.1416], a=3.1416, v=0.0209, r=Zone001)
  movej([-1.2382, -1.699, -1.6063, -2.9779, -1.2382, -3.1416], a=3.1416, v=0.0209, r=Zone001)
  movej([-1.2375, -1.6974, -1.608, -2.9777, -1.2375, -3.1416], a=3.1416, v=0.021, r=Zone001)
  movej([-1.2368, -1.6959, -1.6098, -2.9775, -1.2368, -3.1416], a=3.1416, v=0.0211, r=Zone001)
  movej([-1.2361, -1.6944, -1.6115, -2.9773, -1.2361, -3.1416], a=3.1416, v=0.0211, r=Zone001)
  movej([-1.2355, -1.6928, -1.6132, -2.9771, -1.2355, -3.1416], a=3.1416, v=0.0212, r=Zone001)
  movej([-1.2348, -1.6913, -1.615, -2.9769, -1.2348, -3.1416], a=3.1416, v=0.0212, r=Zone001)
  movej([-1.2342, -1.6897, -1.6167, -2.9767, -1.2342, -3.1416], a=3.1416, v=0.0212, r=Zone001)
  movej([-1.2336, -1.6882, -1.6185, -2.9766, -1.2336, -3.1416], a=3.1416, v=0.0213, r=Zone001)
  movej([-1.2331, -1.6866, -1.6202, -2.9764, -1.2331, -3.1416], a=3.1416, v=0.0213, r=Zone001)
  movej([-1.2325, -1.6851, -1.622, -2.9762, -1.2325, -3.1416], a=3.1416, v=0.0213, r=Zone001)
  movej([-1.232, -1.6835, -1.6237, -2.976, -1.232, -3.1416], a=3.1416, v=0.0213, r=Zone001)
  movej([-1.2315, -1.6819, -1.6255, -2.9758, -1.2315, -3.1416], a=3.1416, v=0.0213, r=Zone001)
  movej([-1.231, -1.6803, -1.6272, -2.9756, -1.231, -3.1416], a=3.1416, v=0.0213, r=Zone001)
  movej([-1.2305, -1.6788, -1.629, -2.9755, -1.2305, -3.1416], a=3.1416, v=0.0213, r=Zone001)
  movej([-1.23, -1.6772, -1.6307, -2.9753, -1.23, -3.1416], a=3.1416, v=0.0213, r=Zone001)
  movej([-1.2296, -1.6756, -1.6325, -2.9751, -1.2296, -3.1416], a=3.1416, v=0.0213, r=Zone001)
  movej([-1.2292, -1.674, -1.6342, -2.9749, -1.2292, -3.1416], a=3.1416, v=0.0213, r=Zone001)
  movej([-1.2288, -1.6725, -1.636, -2.9748, -1.2288, -3.1416], a=3.1416, v=0.0212, r=Zone001)
  movej([-1.2285, -1.6709, -1.6377, -2.9746, -1.2285, -3.1416], a=3.1416, v=0.0212, r=Zone001)
  movej([-1.2281, -1.6693, -1.6394, -2.9744, -1.2281, -3.1416], a=3.1416, v=0.0212, r=Zone001)
  movej([-1.2278, -1.6677, -1.6412, -2.9743, -1.2278, -3.1416], a=3.1416, v=0.0211, r=Zone001)
  movej([-1.2275, -1.6662, -1.6429, -2.9741, -1.2275, -3.1416], a=3.1416, v=0.0211, r=Zone001)
  movej([-1.2272, -1.6646, -1.6446, -2.974, -1.2272, -3.1416], a=3.1416, v=0.021, r=Zone001)
  movej([-1.227, -1.663, -1.6464, -2.9738, -1.227, -3.1416], a=3.1416, v=0.021, r=Zone001)
  movej([-1.2268, -1.6614, -1.6481, -2.9737, -1.2268, -3.1416], a=3.1416, v=0.0209, r=Zone001)
  movej([-1.2265, -1.6599, -1.6498, -2.9735, -1.2265, -3.1416], a=3.1416, v=0.0209, r=Zone001)
  movej([-1.2264, -1.6583, -1.6515, -2.9734, -1.2264, -3.1416], a=3.1416, v=0.0208, r=Zone001)
  movej([-1.2262, -1.6567, -1.6532, -2.9732, -1.2262, -3.1416], a=3.1416, v=0.0207, r=Zone001)
  movej([-1.2261, -1.6552, -1.6549, -2.9731, -1.2261, -3.1416], a=3.1416, v=0.0206, r=Zone001)
  movej([-1.226, -1.6536, -1.6566, -2.973, -1.226, -3.1416], a=3.1416, v=0.0205, r=Zone001)
  movej([-1.2259, -1.6521, -1.6583, -2.9728, -1.2259, -3.1416], a=3.1416, v=0.0205, r=Zone001)
  movej([-1.2258, -1.6505, -1.6599, -2.9727, -1.2258, -3.1416], a=3.1416, v=0.0204, r=Zone001)
  movej([-1.2258, -1.649, -1.6616, -2.9726, -1.2258, -3.1416], a=3.1416, v=0.0203, r=Zone001)
  movej([-1.2258, -1.6475, -1.6632, -2.9725, -1.2258, -3.1416], a=3.1416, v=0.0202, r=Zone001)
  movej([-1.2258, -1.6459, -1.6649, -2.9724, -1.2258, -3.1416], a=3.1416, v=0.02, r=Zone001)
  movej([-1.2258, -1.6444, -1.6665, -2.9722, -1.2258, -3.1416], a=3.1416, v=0.0199, r=Zone001)
  movej([-1.2259, -1.6429, -1.6681, -2.9721, -1.2259, -3.1416], a=3.1416, v=0.0198, r=Zone001)
  movej([-1.226, -1.6414, -1.6698, -2.972, -1.226, -3.1416], a=3.1416, v=0.0197, r=Zone001)
  movej([-1.2261, -1.6399, -1.6714, -2.9719, -1.2261, -3.1416], a=3.1416, v=0.0195, r=Zone001)
  movej([-1.2263, -1.6384, -1.673, -2.9718, -1.2263, -3.1416], a=3.1416, v=0.0194, r=Zone001)
  movej([-1.2264, -1.6369, -1.6745, -2.9717, -1.2264, -3.1416], a=3.1416, v=0.0193, r=Zone001)
  movej([-1.2266, -1.6355, -1.6761, -2.9716, -1.2266, -3.1416], a=3.1416, v=0.0191, r=Zone001)
  movej([-1.2268, -1.634, -1.6777, -2.9715, -1.2268, -3.1416], a=3.1416, v=0.019, r=Zone001)
  movej([-1.2271, -1.6325, -1.6792, -2.9714, -1.2271, -3.1416], a=3.1416, v=0.0188, r=Zone001)
  movej([-1.2273, -1.6311, -1.6807, -2.9714, -1.2273, -3.1416], a=3.1416, v=0.0187, r=Zone001)
  movej([-1.2276, -1.6297, -1.6823, -2.9713, -1.2276, -3.1416], a=3.1416, v=0.0185, r=Zone001)
  movej([-1.2279, -1.6282, -1.6838, -2.9712, -1.2279, -3.1416], a=3.1416, v=0.0183, r=Zone001)
  movej([-1.2283, -1.6268, -1.6852, -2.9711, -1.2283, -3.1416], a=3.1416, v=0.0181, r=Zone001)
  movej([-1.2287, -1.6254, -1.6867, -2.971, -1.2287, -3.1416], a=3.1416, v=0.018, r=Zone001)
  movej([-1.229, -1.6241, -1.6882, -2.971, -1.229, -3.1416], a=3.1416, v=0.0178, r=Zone001)
  movej([-1.2295, -1.6227, -1.6896, -2.9709, -1.2295, -3.1416], a=3.1416, v=0.0176, r=Zone001)
  movej([-1.2299, -1.6213, -1.691, -2.9708, -1.2299, -3.1416], a=3.1416, v=0.0174, r=Zone001)
  movej([-1.2304, -1.62, -1.6925, -2.9708, -1.2304, -3.1416], a=3.1416, v=0.0172, r=Zone001)
  movej([-1.2309, -1.6186, -1.6938, -2.9707, -1.2309, -3.1416], a=3.1416, v=0.017, r=Zone001)
  movej([-1.2314, -1.6173, -1.6952, -2.9706, -1.2314, -3.1416], a=3.1416, v=0.0168, r=Zone001)
  movej([-1.2319, -1.616, -1.6966, -2.9706, -1.2319, -3.1416], a=3.1416, v=0.0166, r=Zone001)
  movej([-1.2325, -1.6147, -1.6979, -2.9705, -1.2325, -3.1416], a=3.1416, v=0.0164, r=Zone001)
  movej([-1.2331, -1.6135, -1.6993, -2.9705, -1.2331, -3.1416], a=3.1416, v=0.0162, r=Zone001)
  movej([-1.2337, -1.6122, -1.7006, -2.9704, -1.2337, -3.1416], a=3.1416, v=0.0159, r=Zone001)
  movej([-1.2344, -1.611, -1.7018, -2.9704, -1.2344, -3.1416], a=3.1416, v=0.0157, r=Zone001)
  movej([-1.2351, -1.6097, -1.7031, -2.9703, -1.2351, -3.1416], a=3.1416, v=0.0155, r=Zone001)
  movej([-1.2358, -1.6085, -1.7044, -2.9703, -1.2358, -3.1416], a=3.1416, v=0.0152, r=Zone001)
  movej([-1.2365, -1.6073, -1.7056, -2.9703, -1.2365, -3.1416], a=3.1416, v=0.015, r=Zone001)
  movej([-1.2372, -1.6062, -1.7068, -2.9702, -1.2372, -3.1416], a=3.1416, v=0.0148, r=Zone001)
  movej([-1.238, -1.605, -1.708, -2.9702, -1.238, -3.1416], a=3.1416, v=0.0145, r=Zone001)
  movej([-1.2388, -1.6039, -1.7092, -2.9702, -1.2388, -3.1416], a=3.1416, v=0.0143, r=Zone001)
  movej([-1.2396, -1.6027, -1.7103, -2.9701, -1.2396, -3.1416], a=3.1416, v=0.014, r=Zone001)
  movej([-1.2405, -1.6016, -1.7114, -2.9701, -1.2405, -3.1416], a=3.1416, v=0.0138, r=Zone001)
  movej([-1.2414, -1.6006, -1.7125, -2.9701, -1.2414, -3.1416], a=3.1416, v=0.0135, r=Zone001)
  movej([-1.2422, -1.5995, -1.7136, -2.97, -1.2422, -3.1416], a=3.1416, v=0.0132, r=Zone001)
  movej([-1.2432, -1.5985, -1.7147, -2.97, -1.2432, -3.1416], a=3.1416, v=0.013, r=Zone001)
  movej([-1.2441, -1.5975, -1.7157, -2.97, -1.2441, -3.1416], a=3.1416, v=0.0127, r=Zone001)
  movej([-1.2451, -1.5965, -1.7167, -2.97, -1.2451, -3.1416], a=3.1416, v=0.0124, r=Zone001)
  movej([-1.2461, -1.5955, -1.7177, -2.97, -1.2461, -3.1416], a=3.1416, v=0.0121, r=Zone001)
  movej([-1.2471, -1.5945, -1.7187, -2.97, -1.2471, -3.1416], a=3.1416, v=0.0124, r=Zone001)
  movej([-1.2481, -1.5936, -1.7197, -2.9699, -1.2481, -3.1416], a=3.1416, v=0.0126, r=Zone001)
  movej([-1.2492, -1.5927, -1.7206, -2.9699, -1.2492, -3.1416], a=3.1416, v=0.0129, r=Zone001)
  movej([-1.2502, -1.5918, -1.7215, -2.9699, -1.2502, -3.1416], a=3.1416, v=0.0132, r=Zone001)
  movej([-1.2514, -1.5909, -1.7224, -2.9699, -1.2514, -3.1416], a=3.1416, v=0.0135, r=Zone001)
  movej([-1.2525, -1.5901, -1.7232, -2.9699, -1.2525, -3.1416], a=3.1416, v=0.0137, r=Zone001)
  movej([-1.2536, -1.5892, -1.724, -2.9699, -1.2536, -3.1416], a=3.1416, v=0.014, r=Zone001)
  movej([-1.2548, -1.5884, -1.7249, -2.9699, -1.2548, -3.1416], a=3.1416, v=0.0142, r=Zone001)
  movej([-1.256, -1.5877, -1.7256, -2.9699, -1.256, -3.1416], a=3.1416, v=0.0145, r=Zone001)
  movej([-1.2572, -1.5869, -1.7264, -2.9699, -1.2572, -3.1416], a=3.1416, v=0.0147, r=Zone001)
  movej([-1.2584, -1.5862, -1.7271, -2.9699, -1.2584, -3.1416], a=3.1416, v=0.015, r=Zone001)
  movej([-1.2597, -1.5855, -1.7278, -2.9699, -1.2597, -3.1416], a=3.1416, v=0.0152, r=Zone001)
  movej([-1.2609, -1.5848, -1.7285, -2.9699, -1.2609, -3.1416], a=3.1416, v=0.0155, r=Zone001)
  movej([-1.2622, -1.5842, -1.7291, -2.9699, -1.2622, -3.1416], a=3.1416, v=0.0157, r=Zone001)
  movej([-1.2635, -1.5835, -1.7298, -2.9699, -1.2635, -3.1416], a=3.1416, v=0.0159, r=Zone001)
  movej([-1.2648, -1.5829, -1.7304, -2.9699, -1.2648, -3.1416], a=3.1416, v=0.0162, r=Zone001)
  movej([-1.2662, -1.5824, -1.7309, -2.9699, -1.2662, -3.1416], a=3.1416, v=0.0164, r=Zone001)
  movej([-1.2675, -1.5818, -1.7315, -2.9699, -1.2675, -3.1416], a=3.1416, v=0.0166, r=Zone001)
  movej([-1.2689, -1.5813, -1.732, -2.9699, -1.2689, -3.1416], a=3.1416, v=0.0168, r=Zone001)
  movej([-1.2703, -1.5808, -1.7325, -2.9699, -1.2703, -3.1416], a=3.1416, v=0.017, r=Zone001)
  movej([-1.2717, -1.5803, -1.733, -2.9699, -1.2717, -3.1416], a=3.1416, v=0.0172, r=Zone001)
  movej([-1.2731, -1.5799, -1.7334, -2.9699, -1.2731, -3.1416], a=3.1416, v=0.0174, r=Zone001)
  movej([-1.2746, -1.5795, -1.7338, -2.9699, -1.2746, -3.1416], a=3.1416, v=0.0176, r=Zone001)
  movej([-1.276, -1.5791, -1.7342, -2.9699, -1.276, -3.1416], a=3.1416, v=0.0178, r=Zone001)
  movej([-1.2775, -1.5787, -1.7346, -2.9699, -1.2775, -3.1416], a=3.1416, v=0.018, r=Zone001)
  movej([-1.279, -1.5784, -1.7349, -2.9699, -1.279, -3.1416], a=3.1416, v=0.0181, r=Zone001)
  movej([-1.2805, -1.578, -1.7352, -2.9699, -1.2805, -3.1416], a=3.1416, v=0.0183, r=Zone001)
  movej([-1.282, -1.5778, -1.7355, -2.9699, -1.282, -3.1416], a=3.1416, v=0.0185, r=Zone001)
  movej([-1.2835, -1.5775, -1.7357, -2.9699, -1.2835, -3.1416], a=3.1416, v=0.0186, r=Zone001)
  movej([-1.2851, -1.5773, -1.736, -2.97, -1.2851, -3.1416], a=3.1416, v=0.0188, r=Zone001)
  movej([-1.2866, -1.5771, -1.7362, -2.97, -1.2866, -3.1416], a=3.1416, v=0.0189, r=Zone001)
  movej([-1.2882, -1.5769, -1.7363, -2.97, -1.2882, -3.1416], a=3.1416, v=0.0191, r=Zone001)
  movej([-1.2897, -1.5767, -1.7365, -2.97, -1.2897, -3.1416], a=3.1416, v=0.0192, r=Zone001)
  movej([-1.2913, -1.5766, -1.7366, -2.97, -1.2913, -3.1416], a=3.1416, v=0.0193, r=Zone001)
  movej([-1.2929, -1.5765, -1.7367, -2.97, -1.2929, -3.1416], a=3.1416, v=0.0195, r=Zone001)
  movej([-1.2945, -1.5765, -1.7367, -2.97, -1.2945, -3.1416], a=3.1416, v=0.0196, r=Zone001)
  movej([-1.2961, -1.5764, -1.7367, -2.97, -1.2961, -3.1416], a=3.1416, v=0.0197, r=Zone001)
  movej([-1.2977, -1.5764, -1.7367, -2.97, -1.2977, -3.1416], a=3.1416, v=0.0198, r=Zone001)
  movej([-1.2994, -1.5764, -1.7367, -2.97, -1.2994, -3.1416], a=3.1416, v=0.0199, r=Zone001)
  movej([-1.301, -1.5765, -1.7367, -2.97, -1.301, -3.1416], a=3.1416, v=0.02, r=Zone001)
  movej([-1.3026, -1.5766, -1.7366, -2.9701, -1.3026, -3.1416], a=3.1416, v=0.02, r=Zone001)
  movej([-1.3043, -1.5767, -1.7365, -2.9701, -1.3043, -3.1416], a=3.1416, v=0.0201, r=Zone001)
  movej([-1.3059, -1.5768, -1.7363, -2.9701, -1.3059, -3.1416], a=3.1416, v=0.0202, r=Zone001)
  movej([-1.3076, -1.577, -1.7361, -2.9701, -1.3076, -3.1416], a=3.1416, v=0.0202, r=Zone001)
  movej([-1.3092, -1.5771, -1.736, -2.9701, -1.3092, -3.1416], a=3.1416, v=0.0203, r=Zone001)
  movej([-1.3109, -1.5774, -1.7357, -2.9701, -1.3109, -3.1416], a=3.1416, v=0.0203, r=Zone001)
  movej([-1.3126, -1.5776, -1.7355, -2.9701, -1.3126, -3.1416], a=3.1416, v=0.0204, r=Zone001)
  movej([-1.3142, -1.5779, -1.7352, -2.9701, -1.3142, -3.1416], a=3.1416, v=0.0204, r=Zone001)
  movej([-1.3159, -1.5782, -1.7349, -2.9701, -1.3159, -3.1416], a=3.1416, v=0.0204, r=Zone001)
  movej([-1.3176, -1.5785, -1.7346, -2.9702, -1.3176, -3.1416], a=3.1416, v=0.0205, r=Zone001)
  movej([-1.3193, -1.5788, -1.7342, -2.9702, -1.3193, -3.1416], a=3.1416, v=0.0205, r=Zone001)
  movej([-1.3209, -1.5792, -1.7338, -2.9702, -1.3209, -3.1416], a=3.1416, v=0.0205, r=Zone001)
  movej([-1.3226, -1.5796, -1.7334, -2.9702, -1.3226, -3.1416], a=3.1416, v=0.0205, r=Zone001)
  movej([-1.3243, -1.58, -1.733, -2.9702, -1.3243, -3.1416], a=3.1416, v=0.0205, r=Zone001)
  movej([-1.3259, -1.5805, -1.7325, -2.9702, -1.3259, -3.1416], a=3.1416, v=0.0205, r=Zone001)
  movej([-1.3276, -1.581, -1.732, -2.9702, -1.3276, -3.1416], a=3.1416, v=0.0205, r=Zone001)
  movej([-1.3293, -1.5815, -1.7315, -2.9703, -1.3293, -3.1416], a=3.1416, v=0.0204, r=Zone001)
  movej([-1.3309, -1.582, -1.7309, -2.9703, -1.3309, -3.1416], a=3.1416, v=0.0204, r=Zone001)
  movej([-1.3326, -1.5826, -1.7303, -2.9703, -1.3326, -3.1416], a=3.1416, v=0.0204, r=Zone001)
  movej([-1.3343, -1.5831, -1.7297, -2.9703, -1.3343, -3.1416], a=3.1416, v=0.0203, r=Zone001)
  movej([-1.3359, -1.5838, -1.7291, -2.9703, -1.3359, -3.1416], a=3.1416, v=0.0203, r=Zone001)
  movej([-1.3376, -1.5844, -1.7285, -2.9703, -1.3376, -3.1416], a=3.1416, v=0.0202, r=Zone001)
  movej([-1.3392, -1.585, -1.7278, -2.9704, -1.3392, -3.1416], a=3.1416, v=0.0201, r=Zone001)
  movej([-1.3409, -1.5857, -1.7271, -2.9704, -1.3409, -3.1416], a=3.1416, v=0.0201, r=Zone001)
  movej([-1.3425, -1.5864, -1.7263, -2.9704, -1.3425, -3.1416], a=3.1416, v=0.02, r=Zone001)
  movej([-1.3441, -1.5872, -1.7256, -2.9704, -1.3441, -3.1416], a=3.1416, v=0.0199, r=Zone001)
  movej([-1.3457, -1.5879, -1.7248, -2.9704, -1.3457, -3.1416], a=3.1416, v=0.0198, r=Zone001)
  movej([-1.3473, -1.5887, -1.724, -2.9705, -1.3473, -3.1416], a=3.1416, v=0.0197, r=Zone001)
  movej([-1.3489, -1.5895, -1.7232, -2.9705, -1.3489, -3.1416], a=3.1416, v=0.0196, r=Zone001)
  movej([-1.3505, -1.5903, -1.7223, -2.9705, -1.3505, -3.1416], a=3.1416, v=0.0195, r=Zone001)
  movej([-1.3521, -1.5912, -1.7214, -2.9706, -1.3521, -3.1416], a=3.1416, v=0.0194, r=Zone001)
  movej([-1.3537, -1.5921, -1.7205, -2.9706, -1.3537, -3.1416], a=3.1416, v=0.0192, r=Zone001)
  movej([-1.3552, -1.593, -1.7196, -2.9706, -1.3552, -3.1416], a=3.1416, v=0.0191, r=Zone001)
  movej([-1.3568, -1.5939, -1.7187, -2.9706, -1.3568, -3.1416], a=3.1416, v=0.019, r=Zone001)
  movej([-1.3583, -1.5948, -1.7177, -2.9707, -1.3583, -3.1416], a=3.1416, v=0.0188, r=Zone001)
  movej([-1.3598, -1.5958, -1.7167, -2.9707, -1.3598, -3.1416], a=3.1416, v=0.0187, r=Zone001)
  movej([-1.3614, -1.5968, -1.7157, -2.9708, -1.3614, -3.1416], a=3.1416, v=0.0185, r=Zone001)
  movej([-1.3629, -1.5978, -1.7146, -2.9708, -1.3629, -3.1416], a=3.1416, v=0.0184, r=Zone001)
  movej([-1.3643, -1.5988, -1.7136, -2.9708, -1.3643, -3.1416], a=3.1416, v=0.0182, r=Zone001)
  movej([-1.3658, -1.5998, -1.7125, -2.9709, -1.3658, -3.1416], a=3.1416, v=0.018, r=Zone001)
  movej([-1.3673, -1.6009, -1.7114, -2.9709, -1.3673, -3.1416], a=3.1416, v=0.0179, r=Zone001)
  movej([-1.3687, -1.602, -1.7103, -2.971, -1.3687, -3.1416], a=3.1416, v=0.0177, r=Zone001)
  movej([-1.3701, -1.6031, -1.7091, -2.971, -1.3701, -3.1416], a=3.1416, v=0.0175, r=Zone001)
  movej([-1.3716, -1.6042, -1.7079, -2.9711, -1.3716, -3.1416], a=3.1416, v=0.0173, r=Zone001)
  movej([-1.373, -1.6053, -1.7068, -2.9711, -1.373, -3.1416], a=3.1416, v=0.0171, r=Zone001)
  movej([-1.3743, -1.6065, -1.7055, -2.9712, -1.3743, -3.1416], a=3.1416, v=0.0169, r=Zone001)
  movej([-1.3757, -1.6076, -1.7043, -2.9712, -1.3757, -3.1416], a=3.1416, v=0.0167, r=Zone001)
  movej([-1.377, -1.6088, -1.7031, -2.9713, -1.377, -3.1416], a=3.1416, v=0.0165, r=Zone001)
  movej([-1.3784, -1.61, -1.7018, -2.9713, -1.3784, -3.1416], a=3.1416, v=0.0163, r=Zone001)
  movej([-1.3797, -1.6113, -1.7005, -2.9714, -1.3797, -3.1416], a=3.1416, v=0.0161, r=Zone001)
  movej([-1.381, -1.6125, -1.6992, -2.9715, -1.381, -3.1416], a=3.1416, v=0.016, r=Zone001)
  movej([-1.3823, -1.6138, -1.6979, -2.9715, -1.3823, -3.1416], a=3.1416, v=0.0162, r=Zone001)
  movej([-1.3835, -1.615, -1.6965, -2.9716, -1.3835, -3.1416], a=3.1416, v=0.0165, r=Zone001)
  movej([-1.3848, -1.6163, -1.6952, -2.9717, -1.3848, -3.1416], a=3.1416, v=0.0167, r=Zone001)
  movej([-1.386, -1.6176, -1.6938, -2.9718, -1.386, -3.1416], a=3.1416, v=0.0169, r=Zone001)
  movej([-1.3872, -1.6189, -1.6924, -2.9718, -1.3872, -3.1416], a=3.1416, v=0.0171, r=Zone001)
  movej([-1.3883, -1.6203, -1.691, -2.9719, -1.3883, -3.1416], a=3.1416, v=0.0173, r=Zone001)
  movej([-1.3895, -1.6216, -1.6896, -2.972, -1.3895, -3.1416], a=3.1416, v=0.0175, r=Zone001)
  movej([-1.3906, -1.623, -1.6881, -2.9721, -1.3906, -3.1416], a=3.1416, v=0.0177, r=Zone001)
  movej([-1.3918, -1.6243, -1.6867, -2.9722, -1.3918, -3.1416], a=3.1416, v=0.0179, r=Zone001)
  movej([-1.3929, -1.6257, -1.6852, -2.9723, -1.3929, -3.1416], a=3.1416, v=0.0181, r=Zone001)
  movej([-1.3939, -1.6271, -1.6837, -2.9724, -1.3939, -3.1416], a=3.1416, v=0.0182, r=Zone001)
  movej([-1.395, -1.6285, -1.6822, -2.9725, -1.395, -3.1416], a=3.1416, v=0.0184, r=Zone001)
  movej([-1.396, -1.6299, -1.6807, -2.9726, -1.396, -3.1416], a=3.1416, v=0.0186, r=Zone001)
  movej([-1.397, -1.6313, -1.6792, -2.9727, -1.397, -3.1416], a=3.1416, v=0.0188, r=Zone001)
  movej([-1.398, -1.6328, -1.6776, -2.9728, -1.398, -3.1416], a=3.1416, v=0.0189, r=Zone001)
  movej([-1.399, -1.6342, -1.6761, -2.9729, -1.399, -3.1416], a=3.1416, v=0.0191, r=Zone001)
  movej([-1.3999, -1.6357, -1.6745, -2.973, -1.3999, -3.1416], a=3.1416, v=0.0192, r=Zone001)
  movej([-1.4009, -1.6371, -1.6729, -2.9731, -1.4009, -3.1416], a=3.1416, v=0.0194, r=Zone001)
  movej([-1.4018, -1.6386, -1.6713, -2.9732, -1.4018, -3.1416], a=3.1416, v=0.0195, r=Zone001)
  movej([-1.4026, -1.6401, -1.6697, -2.9734, -1.4026, -3.1416], a=3.1416, v=0.0197, r=Zone001)
  movej([-1.4035, -1.6416, -1.6681, -2.9735, -1.4035, -3.1416], a=3.1416, v=0.0198, r=Zone001)
  movej([-1.4043, -1.6431, -1.6665, -2.9736, -1.4043, -3.1416], a=3.1416, v=0.0199, r=Zone001)
  movej([-1.4051, -1.6446, -1.6649, -2.9737, -1.4051, -3.1416], a=3.1416, v=0.02, r=Zone001)
  movej([-1.4059, -1.6461, -1.6632, -2.9739, -1.4059, -3.1416], a=3.1416, v=0.0202, r=Zone001)
  movej([-1.4067, -1.6476, -1.6616, -2.974, -1.4067, -3.1416], a=3.1416, v=0.0203, r=Zone001)
  movej([-1.4074, -1.6491, -1.6599, -2.9741, -1.4074, -3.1416], a=3.1416, v=0.0204, r=Zone001)
  movej([-1.4081, -1.6507, -1.6582, -2.9743, -1.4081, -3.1416], a=3.1416, v=0.0205, r=Zone001)
  movej([-1.4088, -1.6522, -1.6566, -2.9744, -1.4088, -3.1416], a=3.1416, v=0.0206, r=Zone001)
  movej([-1.4095, -1.6537, -1.6549, -2.9746, -1.4095, -3.1416], a=3.1416, v=0.0207, r=Zone001)
  movej([-1.4101, -1.6553, -1.6532, -2.9747, -1.4101, -3.1416], a=3.1416, v=0.0208, r=Zone001)
  movej([-1.4107, -1.6568, -1.6515, -2.9749, -1.4107, -3.1416], a=3.1416, v=0.0209, r=Zone001)
  movej([-1.4113, -1.6584, -1.6498, -2.975, -1.4113, -3.1416], a=3.1416, v=0.0209, r=Zone001)
  movej([-1.4119, -1.6599, -1.6481, -2.9752, -1.4119, -3.1416], a=3.1416, v=0.021, r=Zone001)
  movej([-1.4124, -1.6615, -1.6464, -2.9754, -1.4124, -3.1416], a=3.1416, v=0.0211, r=Zone001)
  movej([-1.413, -1.663, -1.6446, -2.9755, -1.413, -3.1416], a=3.1416, v=0.0211, r=Zone001)
  movej([-1.4134, -1.6646, -1.6429, -2.9757, -1.4134, -3.1416], a=3.1416, v=0.0212, r=Zone001)
  movej([-1.4139, -1.6661, -1.6412, -2.9759, -1.4139, -3.1416], a=3.1416, v=0.0213, r=Zone001)
  movej([-1.4144, -1.6677, -1.6394, -2.976, -1.4144, -3.1416], a=3.1416, v=0.0213, r=Zone001)
  movej([-1.4148, -1.6693, -1.6377, -2.9762, -1.4148, -3.1416], a=3.1416, v=0.0213, r=Zone001)
  movej([-1.4152, -1.6708, -1.636, -2.9764, -1.4152, -3.1416], a=3.1416, v=0.0214, r=Zone001)
  movej([-1.4156, -1.6724, -1.6342, -2.9766, -1.4156, -3.1416], a=3.1416, v=0.0214, r=Zone001)
  movej([-1.4159, -1.6739, -1.6325, -2.9768, -1.4159, -3.1416], a=3.1416, v=0.0214, r=Zone001)
  movej([-1.4162, -1.6755, -1.6307, -2.977, -1.4162, -3.1416], a=3.1416, v=0.0215, r=Zone001)
  movej([-1.4165, -1.6771, -1.629, -2.9771, -1.4165, -3.1416], a=3.1416, v=0.0215, r=Zone001)
  movej([-1.4168, -1.6786, -1.6272, -2.9773, -1.4168, -3.1416], a=3.1416, v=0.0215, r=Zone001)
  movej([-1.4171, -1.6802, -1.6255, -2.9775, -1.4171, -3.1416], a=3.1416, v=0.0215, r=Zone001)
  movej([-1.4173, -1.6817, -1.6237, -2.9777, -1.4173, -3.1416], a=3.1416, v=0.0215, r=Zone001)
  movej([-1.4175, -1.6833, -1.622, -2.9779, -1.4175, -3.1416], a=3.1416, v=0.0215, r=Zone001)
  movej([-1.4177, -1.6848, -1.6202, -2.9781, -1.4177, -3.1416], a=3.1416, v=0.0215, r=Zone001)
  movej([-1.4178, -1.6864, -1.6185, -2.9783, -1.4178, -3.1416], a=3.1416, v=0.0215, r=Zone001)
  movej([-1.418, -1.6879, -1.6168, -2.9785, -1.418, -3.1416], a=3.1416, v=0.0214, r=Zone001)
  movej([-1.4181, -1.6894, -1.615, -2.9787, -1.4181, -3.1416], a=3.1416, v=0.0214, r=Zone001)
  movej([-1.4182, -1.691, -1.6133, -2.979, -1.4182, -3.1416], a=3.1416, v=0.0214, r=Zone001)
  movej([-1.4182, -1.6925, -1.6115, -2.9792, -1.4182, -3.1416], a=3.1416, v=0.0214, r=Zone001)
  movej([-1.4183, -1.694, -1.6098, -2.9794, -1.4183, -3.1416], a=3.1416, v=0.0213, r=Zone001)
  movej([-1.4183, -1.6955, -1.6081, -2.9796, -1.4183, -3.1416], a=3.1416, v=0.0213, r=Zone001)
  movej([-1.4183, -1.697, -1.6063, -2.9798, -1.4183, -3.1416], a=3.1416, v=0.0212, r=Zone001)
  movej([-1.4183, -1.6985, -1.6046, -2.98, -1.4183, -3.1416], a=3.1416, v=0.0212, r=Zone001)
  movej([-1.4182, -1.7, -1.6029, -2.9802, -1.4182, -3.1416], a=3.1416, v=0.0211, r=Zone001)
  movej([-1.4181, -1.7015, -1.6012, -2.9805, -1.4181, -3.1416], a=3.1416, v=0.021, r=Zone001)
  movej([-1.418, -1.703, -1.5995, -2.9807, -1.418, -3.1416], a=3.1416, v=0.021, r=Zone001)
  movej([-1.4179, -1.7045, -1.5978, -2.9809, -1.4179, -3.1416], a=3.1416, v=0.0209, r=Zone001)
  movej([-1.4178, -1.7059, -1.5961, -2.9811, -1.4178, -3.1416], a=3.1416, v=0.0208, r=Zone001)
  movej([-1.4176, -1.7074, -1.5944, -2.9814, -1.4176, -3.1416], a=3.1416, v=0.0207, r=Zone001)
  movej([-1.4174, -1.7088, -1.5928, -2.9816, -1.4174, -3.1416], a=3.1416, v=0.0206, r=Zone001)
  movej([-1.4172, -1.7103, -1.5911, -2.9818, -1.4172, -3.1416], a=3.1416, v=0.0205, r=Zone001)
  movej([-1.417, -1.7117, -1.5894, -2.9821, -1.417, -3.1416], a=3.1416, v=0.0204, r=Zone001)
  movej([-1.4167, -1.7131, -1.5878, -2.9823, -1.4167, -3.1416], a=3.1416, v=0.0203, r=Zone001)
  movej([-1.4164, -1.7145, -1.5861, -2.9825, -1.4164, -3.1416], a=3.1416, v=0.0202, r=Zone001)
  movej([-1.4161, -1.7159, -1.5845, -2.9827, -1.4161, -3.1416], a=3.1416, v=0.0201, r=Zone001)
  movej([-1.4158, -1.7173, -1.5829, -2.983, -1.4158, -3.1416], a=3.1416, v=0.02, r=Zone001)
  movej([-1.4155, -1.7187, -1.5813, -2.9832, -1.4155, -3.1416], a=3.1416, v=0.0198, r=Zone001)
  movej([-1.4151, -1.7201, -1.5797, -2.9834, -1.4151, -3.1416], a=3.1416, v=0.0197, r=Zone001)
  movej([-1.4147, -1.7214, -1.5781, -2.9837, -1.4147, -3.1416], a=3.1416, v=0.0196, r=Zone001)
  movej([-1.4143, -1.7228, -1.5765, -2.9839, -1.4143, -3.1416], a=3.1416, v=0.0194, r=Zone001)
  movej([-1.4139, -1.7241, -1.5749, -2.9841, -1.4139, -3.1416], a=3.1416, v=0.0193, r=Zone001)
  movej([-1.4134, -1.7254, -1.5734, -2.9844, -1.4134, -3.1416], a=3.1416, v=0.0191, r=Zone001)
  movej([-1.413, -1.7267, -1.5718, -2.9846, -1.413, -3.1416], a=3.1416, v=0.019, r=Zone001)
  movej([-1.4125, -1.728, -1.5703, -2.9848, -1.4125, -3.1416], a=3.1416, v=0.0188, r=Zone001)
  movej([-1.412, -1.7293, -1.5688, -2.9851, -1.412, -3.1416], a=3.1416, v=0.0186, r=Zone001)
  movej([-1.4115, -1.7306, -1.5673, -2.9853, -1.4115, -3.1416], a=3.1416, v=0.0185, r=Zone001)
  movej([-1.4109, -1.7319, -1.5658, -2.9855, -1.4109, -3.1416], a=3.1416, v=0.0183, r=Zone001)
  movej([-1.4104, -1.7331, -1.5643, -2.9858, -1.4104, -3.1416], a=3.1416, v=0.0181, r=Zone001)
  movej([-1.4098, -1.7343, -1.5629, -2.986, -1.4098, -3.1416], a=3.1416, v=0.0179, r=Zone001)
  movej([-1.4092, -1.7355, -1.5614, -2.9862, -1.4092, -3.1416], a=3.1416, v=0.0178, r=Zone001)
  movej([-1.4085, -1.7367, -1.56, -2.9864, -1.4085, -3.1416], a=3.1416, v=0.0176, r=Zone001)
  movej([-1.4079, -1.7379, -1.5586, -2.9867, -1.4079, -3.1416], a=3.1416, v=0.0174, r=Zone001)
  movej([-1.4073, -1.7391, -1.5572, -2.9869, -1.4073, -3.1416], a=3.1416, v=0.0172, r=Zone001)
  movej([-1.4066, -1.7402, -1.5558, -2.9871, -1.4066, -3.1416], a=3.1416, v=0.017, r=Zone001)
  movej([-1.4059, -1.7414, -1.5545, -2.9873, -1.4059, -3.1416], a=3.1416, v=0.0168, r=Zone001)
  movej([-1.4052, -1.7425, -1.5531, -2.9875, -1.4052, -3.1416], a=3.1416, v=0.0165, r=Zone001)
  movej([-1.4044, -1.7436, -1.5518, -2.9878, -1.4044, -3.1416], a=3.1416, v=0.0163, r=Zone001)
  movej([-1.4037, -1.7447, -1.5505, -2.988, -1.4037, -3.1416], a=3.1416, v=0.0161, r=Zone001)
  movej([-1.4029, -1.7458, -1.5492, -2.9882, -1.4029, -3.1416], a=3.1416, v=0.0159, r=Zone001)
  movej([-1.4022, -1.7468, -1.5479, -2.9884, -1.4022, -3.1416], a=3.1416, v=0.0156, r=Zone001)
  movej([-1.4014, -1.7479, -1.5467, -2.9886, -1.4014, -3.1416], a=3.1416, v=0.0154, r=Zone001)
  movej([-1.4005, -1.7489, -1.5455, -2.9888, -1.4005, -3.1416], a=3.1416, v=0.0152, r=Zone001)
  movej([-1.3997, -1.7499, -1.5442, -2.989, -1.3997, -3.1416], a=3.1416, v=0.0149, r=Zone001)
  movej([-1.3989, -1.7509, -1.5431, -2.9892, -1.3989, -3.1416], a=3.1416, v=0.0147, r=Zone001)
  movej([-1.398, -1.7519, -1.5419, -2.9894, -1.398, -3.1416], a=3.1416, v=0.0144, r=Zone001)
  movej([-1.3971, -1.7528, -1.5407, -2.9896, -1.3971, -3.1416], a=3.1416, v=0.0142, r=Zone001)
  movej([-1.3962, -1.7538, -1.5396, -2.9898, -1.3962, -3.1416], a=3.1416, v=0.0139, r=Zone001)
  movej([-1.3953, -1.7547, -1.5385, -2.99, -1.3953, -3.1416], a=3.1416, v=0.0137, r=Zone001)
  movej([-1.3944, -1.7556, -1.5374, -2.9902, -1.3944, -3.1416], a=3.1416, v=0.0134, r=Zone001)
  movej([-1.3935, -1.7565, -1.5363, -2.9904, -1.3935, -3.1416], a=3.1416, v=0.0132, r=Zone001)
  movej([-1.3925, -1.7573, -1.5353, -2.9906, -1.3925, -3.1416], a=3.1416, v=0.0129, r=Zone001)
  movej([-1.3916, -1.7582, -1.5343, -2.9908, -1.3916, -3.1416], a=3.1416, v=0.0126, r=Zone001)
  movej([-1.3906, -1.759, -1.5333, -2.9909, -1.3906, -3.1416], a=3.1416, v=0.0123, r=Zone001)
  movej([-1.3896, -1.7598, -1.5323, -2.9911, -1.3896, -3.1416], a=3.1416, v=0.0122, r=Zone001)
  movej([-1.3886, -1.7606, -1.5313, -2.9913, -1.3886, -3.1416], a=3.1416, v=0.0124, r=Zone001)
  movej([-1.3876, -1.7613, -1.5304, -2.9915, -1.3876, -3.1416], a=3.1416, v=0.0126, r=Zone001)
  movej([-1.3866, -1.7621, -1.5295, -2.9916, -1.3866, -3.1416], a=3.1416, v=0.0127, r=Zone001)
  movej([-1.3855, -1.7628, -1.5286, -2.9918, -1.3855, -3.1416], a=3.1416, v=0.0129, r=Zone001)
  movej([-1.3845, -1.7635, -1.5277, -2.9919, -1.3845, -3.1416], a=3.1416, v=0.013, r=Zone001)
  movej([-1.3834, -1.7642, -1.5269, -2.9921, -1.3834, -3.1416], a=3.1416, v=0.0132, r=Zone001)
  movej([-1.3823, -1.7649, -1.5261, -2.9922, -1.3823, -3.1416], a=3.1416, v=0.0133, r=Zone001)
  movej([-1.3812, -1.7655, -1.5253, -2.9924, -1.3812, -3.1416], a=3.1416, v=0.0135, r=Zone001)
  movej([-1.3801, -1.7661, -1.5245, -2.9925, -1.3801, -3.1416], a=3.1416, v=0.0136, r=Zone001)
  movej([-1.379, -1.7667, -1.5238, -2.9927, -1.379, -3.1416], a=3.1416, v=0.0138, r=Zone001)
  movej([-1.3779, -1.7673, -1.5231, -2.9928, -1.3779, -3.1416], a=3.1416, v=0.0139, r=Zone001)
  movej([-1.3767, -1.7679, -1.5224, -2.9929, -1.3767, -3.1416], a=3.1416, v=0.014, r=Zone001)
  movej([-1.3756, -1.7684, -1.5217, -2.9931, -1.3756, -3.1416], a=3.1416, v=0.0142, r=Zone001)
  movej([-1.3744, -1.7689, -1.5211, -2.9932, -1.3744, -3.1416], a=3.1416, v=0.0143, r=Zone001)
  movej([-1.3733, -1.7694, -1.5204, -2.9933, -1.3733, -3.1416], a=3.1416, v=0.0144, r=Zone001)
  movej([-1.3721, -1.7699, -1.5199, -2.9934, -1.3721, -3.1416], a=3.1416, v=0.0145, r=Zone001)
  movej([-1.3709, -1.7704, -1.5193, -2.9935, -1.3709, -3.1416], a=3.1416, v=0.0146, r=Zone001)
  movej([-1.3697, -1.7708, -1.5188, -2.9936, -1.3697, -3.1416], a=3.1416, v=0.0148, r=Zone001)
  movej([-1.3685, -1.7712, -1.5182, -2.9937, -1.3685, -3.1416], a=3.1416, v=0.0149, r=Zone001)
  movej([-1.3673, -1.7716, -1.5178, -2.9938, -1.3673, -3.1416], a=3.1416, v=0.015, r=Zone001)
  movej([-1.3661, -1.772, -1.5173, -2.9939, -1.3661, -3.1416], a=3.1416, v=0.0151, r=Zone001)
  movej([-1.3648, -1.7723, -1.5169, -2.994, -1.3648, -3.1416], a=3.1416, v=0.0152, r=Zone001)
  movej([-1.3636, -1.7727, -1.5165, -2.9941, -1.3636, -3.1416], a=3.1416, v=0.0153, r=Zone001)
  movej([-1.3623, -1.773, -1.5161, -2.9941, -1.3623, -3.1416], a=3.1416, v=0.0154, r=Zone001)
  movej([-1.3611, -1.7732, -1.5157, -2.9942, -1.3611, -3.1416], a=3.1416, v=0.0155, r=Zone001)
  movej([-1.3598, -1.7735, -1.5154, -2.9943, -1.3598, -3.1416], a=3.1416, v=0.0156, r=Zone001)
  movej([-1.3585, -1.7737, -1.5151, -2.9943, -1.3585, -3.1416], a=3.1416, v=0.0157, r=Zone001)
  movej([-1.3573, -1.7739, -1.5148, -2.9944, -1.3573, -3.1416], a=3.1416, v=0.0158, r=Zone001)
  movej([-1.356, -1.7741, -1.5146, -2.9945, -1.356, -3.1416], a=3.1416, v=0.0158, r=Zone001)
  movej([-1.3547, -1.7743, -1.5144, -2.9945, -1.3547, -3.1416], a=3.1416, v=0.0159, r=Zone001)
  movej([-1.3534, -1.7745, -1.5142, -2.9945, -1.3534, -3.1416], a=3.1416, v=0.016, r=Zone001)
  movej([-1.3521, -1.7746, -1.514, -2.9946, -1.3521, -3.1416], a=3.1416, v=0.0161, r=Zone001)
  movej([-1.3508, -1.7747, -1.5139, -2.9946, -1.3508, -3.1416], a=3.1416, v=0.0161, r=Zone001)
  movej([-1.3495, -1.7748, -1.5138, -2.9946, -1.3495, -3.1416], a=3.1416, v=0.0162, r=Zone001)
  movej([-1.3482, -1.7748, -1.5137, -2.9947, -1.3482, -3.1416], a=3.1416, v=0.0163, r=Zone001)
  movej([-1.3468, -1.7749, -1.5136, -2.9947, -1.3468, -3.1416], a=3.1416, v=0.0163, r=Zone001)
  movej([-1.3455, -1.7749, -1.5136, -2.9947, -1.3455, -3.1416], a=3.1416, v=0.0164, r=Zone001)
  movej([-1.3442, -1.7749, -1.5136, -2.9947, -1.3442, -3.1416], a=3.1416, v=0.0165, r=Zone001)
  movej([-1.3428, -1.7748, -1.5136, -2.9947, -1.3428, -3.1416], a=3.1416, v=0.0165, r=Zone001)
  movej([-1.3415, -1.7748, -1.5137, -2.9947, -1.3415, -3.1416], a=3.1416, v=0.0166, r=Zone001)
  movej([-1.3402, -1.7747, -1.5138, -2.9947, -1.3402, -3.1416], a=3.1416, v=0.0166, r=Zone001)
  movej([-1.3388, -1.7746, -1.5139, -2.9947, -1.3388, -3.1416], a=3.1416, v=0.0166, r=Zone001)
  movej([-1.3375, -1.7745, -1.514, -2.9947, -1.3375, -3.1416], a=3.1416, v=0.0167, r=Zone001)
  movej([-1.3361, -1.7744, -1.5142, -2.9947, -1.3361, -3.1416], a=3.1416, v=0.0167, r=Zone001)
  movej([-1.3348, -1.7742, -1.5144, -2.9946, -1.3348, -3.1416], a=3.1416, v=0.0168, r=Zone001)
  movej([-1.3334, -1.774, -1.5146, -2.9946, -1.3334, -3.1416], a=3.1416, v=0.0168, r=Zone001)
  movej([-1.332, -1.7738, -1.5148, -2.9946, -1.332, -3.1416], a=3.1416, v=0.0168, r=Zone001)
  movej([-1.3307, -1.7736, -1.5151, -2.9945, -1.3307, -3.1416], a=3.1416, v=0.0168, r=Zone001)
  movej([-1.3293, -1.7733, -1.5154, -2.9945, -1.3293, -3.1416], a=3.1416, v=0.0169, r=Zone001)
  movej([-1.3279, -1.7731, -1.5157, -2.9944, -1.3279, -3.1416], a=3.1416, v=0.0169, r=Zone001)
  movej([-1.3266, -1.7728, -1.5161, -2.9944, -1.3266, -3.1416], a=3.1416, v=0.0169, r=Zone001)
  movej([-1.3252, -1.7724, -1.5164, -2.9943, -1.3252, -3.1416], a=3.1416, v=0.0169, r=Zone001)
  movej([-1.3238, -1.7721, -1.5168, -2.9942, -1.3238, -3.1416], a=3.1416, v=0.0169, r=Zone001)
  movej([-1.3225, -1.7717, -1.5173, -2.9942, -1.3225, -3.1416], a=3.1416, v=0.0169, r=Zone001)
  movej([-1.3211, -1.7714, -1.5177, -2.9941, -1.3211, -3.1416], a=3.1416, v=0.0169, r=Zone001)
  movej([-1.3197, -1.7709, -1.5182, -2.994, -1.3197, -3.1416], a=3.1416, v=0.0169, r=Zone001)
  movej([-1.3184, -1.7705, -1.5187, -2.9939, -1.3184, -3.1416], a=3.1416, v=0.0169, r=Zone001)
  movej([-1.317, -1.7701, -1.5193, -2.9938, -1.317, -3.1416], a=3.1416, v=0.0169, r=Zone001)
  movej([-1.3156, -1.7696, -1.5198, -2.9938, -1.3156, -3.1416], a=3.1416, v=0.0169, r=Zone001)
  movej([-1.3143, -1.7691, -1.5204, -2.9937, -1.3143, -3.1416], a=3.1416, v=0.0169, r=Zone001)
  movej([-1.3129, -1.7686, -1.521, -2.9936, -1.3129, -3.1416], a=3.1416, v=0.0169, r=Zone001)
  movej([-1.3116, -1.7681, -1.5217, -2.9935, -1.3116, -3.1416], a=3.1416, v=0.0168, r=Zone001)
  movej([-1.3102, -1.7675, -1.5223, -2.9933, -1.3102, -3.1416], a=3.1416, v=0.0168, r=Zone001)
  movej([-1.3088, -1.7669, -1.523, -2.9932, -1.3088, -3.1416], a=3.1416, v=0.0168, r=Zone001)
  movej([-1.3075, -1.7663, -1.5237, -2.9931, -1.3075, -3.1416], a=3.1416, v=0.0168, r=Zone001)
  movej([-1.3061, -1.7657, -1.5245, -2.993, -1.3061, -3.1416], a=3.1416, v=0.0167, r=Zone001)
  movej([-1.3048, -1.7651, -1.5252, -2.9929, -1.3048, -3.1416], a=3.1416, v=0.0167, r=Zone001)
  movej([-1.3034, -1.7644, -1.526, -2.9927, -1.3034, -3.1416], a=3.1416, v=0.0166, r=Zone001)
  movej([-1.3021, -1.7638, -1.5268, -2.9926, -1.3021, -3.1416], a=3.1416, v=0.0166, r=Zone001)
  movej([-1.3008, -1.7631, -1.5276, -2.9925, -1.3008, -3.1416], a=3.1416, v=0.0166, r=Zone001)
  movej([-1.2994, -1.7623, -1.5285, -2.9923, -1.2994, -3.1416], a=3.1416, v=0.0165, r=Zone001)
  movej([-1.2981, -1.7616, -1.5294, -2.9922, -1.2981, -3.1416], a=3.1416, v=0.0165, r=Zone001)
  movej([-1.2968, -1.7609, -1.5303, -2.992, -1.2968, -3.1416], a=3.1416, v=0.0164, r=Zone001)
  movej([-1.2954, -1.7601, -1.5312, -2.9919, -1.2954, -3.1416], a=3.1416, v=0.0163, r=Zone001)
  movej([-1.2941, -1.7593, -1.5322, -2.9917, -1.2941, -3.1416], a=3.1416, v=0.0163, r=Zone001)
  movej([-1.2928, -1.7585, -1.5331, -2.9916, -1.2928, -3.1416], a=3.1416, v=0.0162, r=Zone001)
  movej([-1.2915, -1.7576, -1.5341, -2.9914, -1.2915, -3.1416], a=3.1416, v=0.0161, r=Zone001)
  movej([-1.2902, -1.7568, -1.5351, -2.9913, -1.2902, -3.1416], a=3.1416, v=0.0161, r=Zone001)
  movej([-1.2889, -1.7559, -1.5362, -2.9911, -1.2889, -3.1416], a=3.1416, v=0.016, r=Zone001)
  movej([-1.2876, -1.755, -1.5372, -2.9909, -1.2876, -3.1416], a=3.1416, v=0.0159, r=Zone001)
  movej([-1.2864, -1.7541, -1.5383, -2.9907, -1.2864, -3.1416], a=3.1416, v=0.0158, r=Zone001)
  movej([-1.2851, -1.7532, -1.5394, -2.9906, -1.2851, -3.1416], a=3.1416, v=0.0158, r=Zone001)
  movej([-1.2838, -1.7522, -1.5405, -2.9904, -1.2838, -3.1416], a=3.1416, v=0.0157, r=Zone001)
  movej([-1.2826, -1.7513, -1.5417, -2.9902, -1.2826, -3.1416], a=3.1416, v=0.0156, r=Zone001)
  movej([-1.2813, -1.7503, -1.5429, -2.99, -1.2813, -3.1416], a=3.1416, v=0.0155, r=Zone001)
  movej([-1.2801, -1.7493, -1.544, -2.9898, -1.2801, -3.1416], a=3.1416, v=0.0154, r=Zone001)
  movej([-1.2788, -1.7483, -1.5452, -2.9897, -1.2788, -3.1416], a=3.1416, v=0.0153, r=Zone001)
  movej([-1.2776, -1.7473, -1.5465, -2.9895, -1.2776, -3.1416], a=3.1416, v=0.0152, r=Zone001)
  movej([-1.2764, -1.7462, -1.5477, -2.9893, -1.2764, -3.1416], a=3.1416, v=0.0153, r=Zone001)
  movej([-1.2752, -1.7451, -1.549, -2.9891, -1.2752, -3.1416], a=3.1416, v=0.0156, r=Zone001)
  movej([-1.274, -1.7441, -1.5502, -2.9889, -1.274, -3.1416], a=3.1416, v=0.0158, r=Zone001)
  movej([-1.2728, -1.743, -1.5515, -2.9887, -1.2728, -3.1416], a=3.1416, v=0.016, r=Zone001)
  movej([-1.2716, -1.7419, -1.5528, -2.9885, -1.2716, -3.1416], a=3.1416, v=0.0162, r=Zone001)
  movej([-1.2704, -1.7407, -1.5542, -2.9883, -1.2704, -3.1416], a=3.1416, v=0.0165, r=Zone001)
  movej([-1.2693, -1.7396, -1.5555, -2.9881, -1.2693, -3.1416], a=3.1416, v=0.0167, r=Zone001)
  movej([-1.2681, -1.7384, -1.5569, -2.9879, -1.2681, -3.1416], a=3.1416, v=0.0169, r=Zone001)
  movej([-1.267, -1.7372, -1.5583, -2.9877, -1.267, -3.1416], a=3.1416, v=0.0171, r=Zone001)
  movej([-1.2659, -1.7361, -1.5596, -2.9875, -1.2659, -3.1416], a=3.1416, v=0.0173, r=Zone001)
  movej([-1.2648, -1.7349, -1.5611, -2.9873, -1.2648, -3.1416], a=3.1416, v=0.0175, r=Zone001)
  movej([-1.2636, -1.7336, -1.5625, -2.9871, -1.2636, -3.1416], a=3.1416, v=0.0177, r=Zone001)
  movej([-1.2626, -1.7324, -1.5639, -2.9869, -1.2626, -3.1416], a=3.1416, v=0.0178, r=Zone001)
  movej([-1.2615, -1.7312, -1.5654, -2.9867, -1.2615, -3.1416], a=3.1416, v=0.018, r=Zone001)
  movej([-1.2604, -1.7299, -1.5668, -2.9864, -1.2604, -3.1416], a=3.1416, v=0.0182, r=Zone001)
  movej([-1.2594, -1.7286, -1.5683, -2.9862, -1.2594, -3.1416], a=3.1416, v=0.0184, r=Zone001)
  movej([-1.2583, -1.7273, -1.5698, -2.986, -1.2583, -3.1416], a=3.1416, v=0.0185, r=Zone001)
  movej([-1.2573, -1.726, -1.5713, -2.9858, -1.2573, -3.1416], a=3.1416, v=0.0187, r=Zone001)
  movej([-1.2563, -1.7247, -1.5729, -2.9856, -1.2563, -3.1416], a=3.1416, v=0.0189, r=Zone001)
  movej([-1.2553, -1.7234, -1.5744, -2.9854, -1.2553, -3.1416], a=3.1416, v=0.019, r=Zone001)
  movej([-1.2543, -1.7221, -1.5759, -2.9852, -1.2543, -3.1416], a=3.1416, v=0.0192, r=Zone001)
  movej([-1.2533, -1.7207, -1.5775, -2.985, -1.2533, -3.1416], a=3.1416, v=0.0193, r=Zone001)
  movej([-1.2523, -1.7194, -1.5791, -2.9848, -1.2523, -3.1416], a=3.1416, v=0.0194, r=Zone001)
  movej([-1.2514, -1.718, -1.5806, -2.9845, -1.2514, -3.1416], a=3.1416, v=0.0196, r=Zone001)
  movej([-1.2505, -1.7166, -1.5822, -2.9843, -1.2505, -3.1416], a=3.1416, v=0.0197, r=Zone001)
  movej([-1.2495, -1.7152, -1.5838, -2.9841, -1.2495, -3.1416], a=3.1416, v=0.0198, r=Zone001)
  movej([-1.2486, -1.7138, -1.5854, -2.9839, -1.2486, -3.1416], a=3.1416, v=0.02, r=Zone001)
  movej([-1.2478, -1.7124, -1.5871, -2.9837, -1.2478, -3.1416], a=3.1416, v=0.0201, r=Zone001)
  movej([-1.2469, -1.711, -1.5887, -2.9835, -1.2469, -3.1416], a=3.1416, v=0.0202, r=Zone001)
  movej([-1.246, -1.7096, -1.5903, -2.9833, -1.246, -3.1416], a=3.1416, v=0.0203, r=Zone001)
  movej([-1.2452, -1.7081, -1.592, -2.9831, -1.2452, -3.1416], a=3.1416, v=0.0204, r=Zone001)
  movej([-1.2444, -1.7067, -1.5936, -2.9829, -1.2444, -3.1416], a=3.1416, v=0.0205, r=Zone001)
  movej([-1.2436, -1.7052, -1.5953, -2.9827, -1.2436, -3.1416], a=3.1416, v=0.0206, r=Zone001)
  movej([-1.2428, -1.7038, -1.5969, -2.9825, -1.2428, -3.1416], a=3.1416, v=0.0207, r=Zone001)
  movej([-1.242, -1.7023, -1.5986, -2.9823, -1.242, -3.1416], a=3.1416, v=0.0207, r=Zone001)
  movej([-1.2413, -1.7008, -1.6003, -2.9821, -1.2413, -3.1416], a=3.1416, v=0.0208, r=Zone001)
  movej([-1.2405, -1.6994, -1.602, -2.9819, -1.2405, -3.1416], a=3.1416, v=0.0209, r=Zone001)
  movej([-1.2398, -1.6979, -1.6037, -2.9817, -1.2398, -3.1416], a=3.1416, v=0.0209, r=Zone001)
  movej([-1.2391, -1.6964, -1.6053, -2.9815, -1.2391, -3.1416], a=3.1416, v=0.021, r=Zone001)
  movej([-1.2385, -1.6949, -1.607, -2.9813, -1.2385, -3.1416], a=3.1416, v=0.0211, r=Zone001)
  movej([-1.2378, -1.6934, -1.6087, -2.9811, -1.2378, -3.1416], a=3.1416, v=0.0211, r=Zone001)
  movej([-1.2372, -1.6919, -1.6105, -2.9809, -1.2372, -3.1416], a=3.1416, v=0.0211, r=Zone001)
  movej([-1.2365, -1.6903, -1.6122, -2.9807, -1.2365, -3.1416], a=3.1416, v=0.0212, r=Zone001)
  movej([-1.2359, -1.6888, -1.6139, -2.9805, -1.2359, -3.1416], a=3.1416, v=0.0212, r=Zone001)
  movej([-1.2354, -1.6873, -1.6156, -2.9803, -1.2354, -3.1416], a=3.1416, v=0.0212, r=Zone001)
  movej([-1.2348, -1.6858, -1.6173, -2.9801, -1.2348, -3.1416], a=3.1416, v=0.0213, r=Zone001)
  movej([-1.2342, -1.6842, -1.619, -2.9799, -1.2342, -3.1416], a=3.1416, v=0.0213, r=Zone001)
  movej([-1.2337, -1.6827, -1.6207, -2.9798, -1.2337, -3.1416], a=3.1416, v=0.0213, r=Zone001)
  movej([-1.2332, -1.6812, -1.6224, -2.9796, -1.2332, -3.1416], a=3.1416, v=0.0213, r=Zone001)
  movej([-1.2327, -1.6796, -1.6242, -2.9794, -1.2327, -3.1416], a=3.1416, v=0.0213, r=Zone001)
  movej([-1.2323, -1.6781, -1.6259, -2.9792, -1.2323, -3.1416], a=3.1416, v=0.0213, r=Zone001)
  movej([-1.2318, -1.6765, -1.6276, -2.9791, -1.2318, -3.1416], a=3.1416, v=0.0213, r=Zone001)
  movej([-1.2314, -1.675, -1.6293, -2.9789, -1.2314, -3.1416], a=3.1416, v=0.0213, r=Zone001)
  movej([-1.231, -1.6734, -1.631, -2.9787, -1.231, -3.1416], a=3.1416, v=0.0213, r=Zone001)
  movej([-1.2307, -1.6719, -1.6327, -2.9786, -1.2307, -3.1416], a=3.1416, v=0.0212, r=Zone001)
  movej([-1.2303, -1.6703, -1.6344, -2.9784, -1.2303, -3.1416], a=3.1416, v=0.0212, r=Zone001)
  movej([-1.23, -1.6688, -1.6361, -2.9783, -1.23, -3.1416], a=3.1416, v=0.0212, r=Zone001)
  movej([-1.2297, -1.6672, -1.6378, -2.9781, -1.2297, -3.1416], a=3.1416, v=0.0211, r=Zone001)
  movej([-1.2294, -1.6657, -1.6395, -2.9779, -1.2294, -3.1416], a=3.1416, v=0.0211, r=Zone001)
  movej([-1.2291, -1.6642, -1.6412, -2.9778, -1.2291, -3.1416], a=3.1416, v=0.021, r=Zone001)
  movej([-1.2289, -1.6626, -1.6429, -2.9777, -1.2289, -3.1416], a=3.1416, v=0.021, r=Zone001)
  movej([-1.2287, -1.6611, -1.6446, -2.9775, -1.2287, -3.1416], a=3.1416, v=0.0209, r=Zone001)
  movej([-1.2285, -1.6595, -1.6463, -2.9774, -1.2285, -3.1416], a=3.1416, v=0.0209, r=Zone001)
  movej([-1.2283, -1.658, -1.648, -2.9772, -1.2283, -3.1416], a=3.1416, v=0.0208, r=Zone001)
  movej([-1.2281, -1.6565, -1.6496, -2.9771, -1.2281, -3.1416], a=3.1416, v=0.0207, r=Zone001)
  movej([-1.228, -1.6549, -1.6513, -2.977, -1.228, -3.1416], a=3.1416, v=0.0206, r=Zone001)
  movej([-1.2279, -1.6534, -1.6529, -2.9768, -1.2279, -3.1416], a=3.1416, v=0.0205, r=Zone001)
  movej([-1.2278, -1.6519, -1.6546, -2.9767, -1.2278, -3.1416], a=3.1416, v=0.0204, r=Zone001)
  movej([-1.2278, -1.6504, -1.6562, -2.9766, -1.2278, -3.1416], a=3.1416, v=0.0203, r=Zone001)
  movej([-1.2277, -1.6489, -1.6578, -2.9765, -1.2277, -3.1416], a=3.1416, v=0.0202, r=Zone001)
  movej([-1.2277, -1.6474, -1.6595, -2.9763, -1.2277, -3.1416], a=3.1416, v=0.0201, r=Zone001)
  movej([-1.2278, -1.6459, -1.6611, -2.9762, -1.2278, -3.1416], a=3.1416, v=0.02, r=Zone001)
  movej([-1.2278, -1.6444, -1.6627, -2.9761, -1.2278, -3.1416], a=3.1416, v=0.0199, r=Zone001)
  movej([-1.2279, -1.6429, -1.6643, -2.976, -1.2279, -3.1416], a=3.1416, v=0.0198, r=Zone001)
  movej([-1.228, -1.6414, -1.6659, -2.9759, -1.228, -3.1416], a=3.1416, v=0.0197, r=Zone001)
  movej([-1.2281, -1.64, -1.6674, -2.9758, -1.2281, -3.1416], a=3.1416, v=0.0195, r=Zone001)
  movej([-1.2282, -1.6385, -1.669, -2.9757, -1.2282, -3.1416], a=3.1416, v=0.0194, r=Zone001)
  movej([-1.2284, -1.637, -1.6705, -2.9756, -1.2284, -3.1416], a=3.1416, v=0.0193, r=Zone001)
  movej([-1.2286, -1.6356, -1.6721, -2.9755, -1.2286, -3.1416], a=3.1416, v=0.0191, r=Zone001)
  movej([-1.2288, -1.6342, -1.6736, -2.9754, -1.2288, -3.1416], a=3.1416, v=0.019, r=Zone001)
  movej([-1.229, -1.6327, -1.6751, -2.9753, -1.229, -3.1416], a=3.1416, v=0.0188, r=Zone001)
  movej([-1.2293, -1.6313, -1.6766, -2.9752, -1.2293, -3.1416], a=3.1416, v=0.0186, r=Zone001)
  movej([-1.2296, -1.6299, -1.6781, -2.9752, -1.2296, -3.1416], a=3.1416, v=0.0185, r=Zone001)
  movej([-1.2299, -1.6285, -1.6796, -2.9751, -1.2299, -3.1416], a=3.1416, v=0.0183, r=Zone001)
  movej([-1.2302, -1.6272, -1.681, -2.975, -1.2302, -3.1416], a=3.1416, v=0.0181, r=Zone001)
  movej([-1.2306, -1.6258, -1.6825, -2.9749, -1.2306, -3.1416], a=3.1416, v=0.018, r=Zone001)
  movej([-1.231, -1.6244, -1.6839, -2.9749, -1.231, -3.1416], a=3.1416, v=0.0178, r=Zone001)
  movej([-1.2314, -1.6231, -1.6853, -2.9748, -1.2314, -3.1416], a=3.1416, v=0.0176, r=Zone001)
  movej([-1.2318, -1.6217, -1.6867, -2.9747, -1.2318, -3.1416], a=3.1416, v=0.0174, r=Zone001)
  movej([-1.2323, -1.6204, -1.6881, -2.9747, -1.2323, -3.1416], a=3.1416, v=0.0172, r=Zone001)
  movej([-1.2328, -1.6191, -1.6895, -2.9746, -1.2328, -3.1416], a=3.1416, v=0.017, r=Zone001)
  movej([-1.2333, -1.6178, -1.6908, -2.9745, -1.2333, -3.1416], a=3.1416, v=0.0168, r=Zone001)
  movej([-1.2338, -1.6166, -1.6921, -2.9745, -1.2338, -3.1416], a=3.1416, v=0.0166, r=Zone001)
  movej([-1.2344, -1.6153, -1.6935, -2.9744, -1.2344, -3.1416], a=3.1416, v=0.0164, r=Zone001)
  movej([-1.235, -1.614, -1.6948, -2.9744, -1.235, -3.1416], a=3.1416, v=0.0161, r=Zone001)
  movej([-1.2356, -1.6128, -1.696, -2.9743, -1.2356, -3.1416], a=3.1416, v=0.0159, r=Zone001)
  movej([-1.2362, -1.6116, -1.6973, -2.9743, -1.2362, -3.1416], a=3.1416, v=0.0157, r=Zone001)
  movej([-1.2369, -1.6104, -1.6985, -2.9742, -1.2369, -3.1416], a=3.1416, v=0.0155, r=Zone001)
  movej([-1.2376, -1.6092, -1.6998, -2.9742, -1.2376, -3.1416], a=3.1416, v=0.0152, r=Zone001)
  movej([-1.2383, -1.6081, -1.701, -2.9742, -1.2383, -3.1416], a=3.1416, v=0.015, r=Zone001)
  movej([-1.239, -1.6069, -1.7021, -2.9741, -1.239, -3.1416], a=3.1416, v=0.0147, r=Zone001)
  movej([-1.2398, -1.6058, -1.7033, -2.9741, -1.2398, -3.1416], a=3.1416, v=0.0145, r=Zone001)
  movej([-1.2406, -1.6047, -1.7045, -2.9741, -1.2406, -3.1416], a=3.1416, v=0.0143, r=Zone001)
  movej([-1.2414, -1.6036, -1.7056, -2.974, -1.2414, -3.1416], a=3.1416, v=0.014, r=Zone001)
  movej([-1.2422, -1.6025, -1.7067, -2.974, -1.2422, -3.1416], a=3.1416, v=0.0137, r=Zone001)
  movej([-1.2431, -1.6014, -1.7078, -2.974, -1.2431, -3.1416], a=3.1416, v=0.0135, r=Zone001)
  movej([-1.244, -1.6004, -1.7088, -2.974, -1.244, -3.1416], a=3.1416, v=0.0132, r=Zone001)
  movej([-1.2449, -1.5994, -1.7099, -2.9739, -1.2449, -3.1416], a=3.1416, v=0.013, r=Zone001)
  movej([-1.2458, -1.5984, -1.7109, -2.9739, -1.2458, -3.1416], a=3.1416, v=0.0127, r=Zone001)
  movej([-1.2467, -1.5974, -1.7119, -2.9739, -1.2467, -3.1416], a=3.1416, v=0.0124, r=Zone001)
  movej([-1.2477, -1.5964, -1.7129, -2.9739, -1.2477, -3.1416], a=3.1416, v=0.0121, r=Zone001)
  movej([-1.2487, -1.5955, -1.7138, -2.9739, -1.2487, -3.1416], a=3.1416, v=0.0124, r=Zone001)
  movej([-1.2497, -1.5946, -1.7147, -2.9738, -1.2497, -3.1416], a=3.1416, v=0.0126, r=Zone001)
  movej([-1.2507, -1.5937, -1.7157, -2.9738, -1.2507, -3.1416], a=3.1416, v=0.0129, r=Zone001)
  movej([-1.2518, -1.5928, -1.7165, -2.9738, -1.2518, -3.1416], a=3.1416, v=0.0132, r=Zone001)
  movej([-1.2529, -1.592, -1.7174, -2.9738, -1.2529, -3.1416], a=3.1416, v=0.0135, r=Zone001)
  movej([-1.254, -1.5912, -1.7182, -2.9738, -1.254, -3.1416], a=3.1416, v=0.0137, r=Zone001)
  movej([-1.2551, -1.5904, -1.719, -2.9738, -1.2551, -3.1416], a=3.1416, v=0.014, r=Zone001)
  movej([-1.2563, -1.5896, -1.7198, -2.9738, -1.2563, -3.1416], a=3.1416, v=0.0142, r=Zone001)
  movej([-1.2574, -1.5888, -1.7206, -2.9738, -1.2574, -3.1416], a=3.1416, v=0.0145, r=Zone001)
  movej([-1.2586, -1.5881, -1.7213, -2.9738, -1.2586, -3.1416], a=3.1416, v=0.0147, r=Zone001)
  movej([-1.2598, -1.5874, -1.722, -2.9738, -1.2598, -3.1416], a=3.1416, v=0.015, r=Zone001)
  movej([-1.261, -1.5867, -1.7227, -2.9738, -1.261, -3.1416], a=3.1416, v=0.0152, r=Zone001)
  movej([-1.2623, -1.586, -1.7234, -2.9738, -1.2623, -3.1416], a=3.1416, v=0.0155, r=Zone001)
  movej([-1.2635, -1.5854, -1.724, -2.9738, -1.2635, -3.1416], a=3.1416, v=0.0157, r=Zone001)
  movej([-1.2648, -1.5848, -1.7246, -2.9738, -1.2648, -3.1416], a=3.1416, v=0.0159, r=Zone001)
  movej([-1.2661, -1.5842, -1.7252, -2.9738, -1.2661, -3.1416], a=3.1416, v=0.0161, r=Zone001)
  movej([-1.2674, -1.5836, -1.7258, -2.9738, -1.2674, -3.1416], a=3.1416, v=0.0164, r=Zone001)
  movej([-1.2687, -1.5831, -1.7263, -2.9738, -1.2687, -3.1416], a=3.1416, v=0.0166, r=Zone001)
  movej([-1.2701, -1.5826, -1.7268, -2.9738, -1.2701, -3.1416], a=3.1416, v=0.0168, r=Zone001)
  movej([-1.2714, -1.5821, -1.7273, -2.9738, -1.2714, -3.1416], a=3.1416, v=0.017, r=Zone001)
  movej([-1.2728, -1.5816, -1.7278, -2.9738, -1.2728, -3.1416], a=3.1416, v=0.0172, r=Zone001)
  movej([-1.2742, -1.5812, -1.7282, -2.9738, -1.2742, -3.1416], a=3.1416, v=0.0174, r=Zone001)
  movej([-1.2756, -1.5808, -1.7286, -2.9738, -1.2756, -3.1416], a=3.1416, v=0.0176, r=Zone001)
  movej([-1.2771, -1.5804, -1.729, -2.9738, -1.2771, -3.1416], a=3.1416, v=0.0178, r=Zone001)
  movej([-1.2785, -1.58, -1.7294, -2.9738, -1.2785, -3.1416], a=3.1416, v=0.0179, r=Zone001)
  movej([-1.28, -1.5797, -1.7297, -2.9738, -1.28, -3.1416], a=3.1416, v=0.0181, r=Zone001)
  movej([-1.2814, -1.5794, -1.73, -2.9738, -1.2814, -3.1416], a=3.1416, v=0.0183, r=Zone001)
  movej([-1.2829, -1.5791, -1.7302, -2.9738, -1.2829, -3.1416], a=3.1416, v=0.0184, r=Zone001)
  movej([-1.2844, -1.5789, -1.7305, -2.9738, -1.2844, -3.1416], a=3.1416, v=0.0186, r=Zone001)
  movej([-1.2859, -1.5786, -1.7307, -2.9738, -1.2859, -3.1416], a=3.1416, v=0.0188, r=Zone001)
  movej([-1.2874, -1.5784, -1.7309, -2.9738, -1.2874, -3.1416], a=3.1416, v=0.0189, r=Zone001)
  movej([-1.2889, -1.5783, -1.7311, -2.9739, -1.2889, -3.1416], a=3.1416, v=0.019, r=Zone001)
  movej([-1.2905, -1.5781, -1.7312, -2.9739, -1.2905, -3.1416], a=3.1416, v=0.0192, r=Zone001)
  movej([-1.292, -1.578, -1.7313, -2.9739, -1.292, -3.1416], a=3.1416, v=0.0193, r=Zone001)
  movej([-1.2936, -1.5779, -1.7314, -2.9739, -1.2936, -3.1416], a=3.1416, v=0.0194, r=Zone001)
  movej([-1.2951, -1.5779, -1.7314, -2.9739, -1.2951, -3.1416], a=3.1416, v=0.0195, r=Zone001)
  movej([-1.2967, -1.5778, -1.7315, -2.9739, -1.2967, -3.1416], a=3.1416, v=0.0196, r=Zone001)
  movej([-1.2983, -1.5778, -1.7315, -2.9739, -1.2983, -3.1416], a=3.1416, v=0.0197, r=Zone001)
  movej([-1.2999, -1.5778, -1.7314, -2.9739, -1.2999, -3.1416], a=3.1416, v=0.0198, r=Zone001)
  movej([-1.3015, -1.5779, -1.7314, -2.9739, -1.3015, -3.1416], a=3.1416, v=0.0199, r=Zone001)
  movej([-1.3031, -1.578, -1.7313, -2.9739, -1.3031, -3.1416], a=3.1416, v=0.02, r=Zone001)
  movej([-1.3047, -1.5781, -1.7312, -2.974, -1.3047, -3.1416], a=3.1416, v=0.0201, r=Zone001)
  movej([-1.3063, -1.5782, -1.731, -2.974, -1.3063, -3.1416], a=3.1416, v=0.0201, r=Zone001)
  movej([-1.3079, -1.5783, -1.7309, -2.974, -1.3079, -3.1416], a=3.1416, v=0.0202, r=Zone001)
  movej([-1.3095, -1.5785, -1.7307, -2.974, -1.3095, -3.1416], a=3.1416, v=0.0203, r=Zone001)
  movej([-1.3112, -1.5787, -1.7305, -2.974, -1.3112, -3.1416], a=3.1416, v=0.0203, r=Zone001)
  movej([-1.3128, -1.579, -1.7302, -2.974, -1.3128, -3.1416], a=3.1416, v=0.0203, r=Zone001)
  movej([-1.3144, -1.5792, -1.73, -2.974, -1.3144, -3.1416], a=3.1416, v=0.0204, r=Zone001)
  movej([-1.3161, -1.5795, -1.7297, -2.974, -1.3161, -3.1416], a=3.1416, v=0.0204, r=Zone001)
  movej([-1.3177, -1.5798, -1.7293, -2.974, -1.3177, -3.1416], a=3.1416, v=0.0204, r=Zone001)
  movej([-1.3193, -1.5802, -1.729, -2.9741, -1.3193, -3.1416], a=3.1416, v=0.0204, r=Zone001)
  movej([-1.321, -1.5805, -1.7286, -2.9741, -1.321, -3.1416], a=3.1416, v=0.0204, r=Zone001)
  movej([-1.3226, -1.5809, -1.7282, -2.9741, -1.3226, -3.1416], a=3.1416, v=0.0204, r=Zone001)
  movej([-1.3243, -1.5813, -1.7277, -2.9741, -1.3243, -3.1416], a=3.1416, v=0.0204, r=Zone001)
  movej([-1.3259, -1.5818, -1.7273, -2.9741, -1.3259, -3.1416], a=3.1416, v=0.0204, r=Zone001)
  movej([-1.3275, -1.5823, -1.7268, -2.9741, -1.3275, -3.1416], a=3.1416, v=0.0204, r=Zone001)
  movej([-1.3292, -1.5827, -1.7263, -2.9741, -1.3292, -3.1416], a=3.1416, v=0.0204, r=Zone001)
  movej([-1.3308, -1.5833, -1.7258, -2.9742, -1.3308, -3.1416], a=3.1416, v=0.0204, r=Zone001)
  movej([-1.3324, -1.5838, -1.7252, -2.9742, -1.3324, -3.1416], a=3.1416, v=0.0203, r=Zone001)
  movej([-1.334, -1.5844, -1.7246, -2.9742, -1.334, -3.1416], a=3.1416, v=0.0203, r=Zone001)
  movej([-1.3357, -1.585, -1.724, -2.9742, -1.3357, -3.1416], a=3.1416, v=0.0202, r=Zone001)
  movej([-1.3373, -1.5856, -1.7233, -2.9742, -1.3373, -3.1416], a=3.1416, v=0.0202, r=Zone001)
  movej([-1.3389, -1.5862, -1.7227, -2.9743, -1.3389, -3.1416], a=3.1416, v=0.0201, r=Zone001)
  movej([-1.3405, -1.5869, -1.722, -2.9743, -1.3405, -3.1416], a=3.1416, v=0.02, r=Zone001)
  movej([-1.3421, -1.5876, -1.7213, -2.9743, -1.3421, -3.1416], a=3.1416, v=0.0199, r=Zone001)
  movej([-1.3437, -1.5883, -1.7205, -2.9743, -1.3437, -3.1416], a=3.1416, v=0.0198, r=Zone001)
  movej([-1.3452, -1.5891, -1.7198, -2.9743, -1.3452, -3.1416], a=3.1416, v=0.0198, r=Zone001)
  movej([-1.3468, -1.5898, -1.719, -2.9744, -1.3468, -3.1416], a=3.1416, v=0.0197, r=Zone001)
  movej([-1.3484, -1.5906, -1.7182, -2.9744, -1.3484, -3.1416], a=3.1416, v=0.0196, r=Zone001)
  movej([-1.3499, -1.5914, -1.7173, -2.9744, -1.3499, -3.1416], a=3.1416, v=0.0194, r=Zone001)
  movej([-1.3515, -1.5923, -1.7165, -2.9745, -1.3515, -3.1416], a=3.1416, v=0.0193, r=Zone001)
  movej([-1.353, -1.5931, -1.7156, -2.9745, -1.353, -3.1416], a=3.1416, v=0.0192, r=Zone001)
  movej([-1.3546, -1.594, -1.7147, -2.9745, -1.3546, -3.1416], a=3.1416, v=0.0191, r=Zone001)
  movej([-1.3561, -1.5949, -1.7137, -2.9746, -1.3561, -3.1416], a=3.1416, v=0.0189, r=Zone001)
  movej([-1.3576, -1.5958, -1.7128, -2.9746, -1.3576, -3.1416], a=3.1416, v=0.0188, r=Zone001)
  movej([-1.3591, -1.5967, -1.7118, -2.9746, -1.3591, -3.1416], a=3.1416, v=0.0187, r=Zone001)
  movej([-1.3605, -1.5977, -1.7108, -2.9747, -1.3605, -3.1416], a=3.1416, v=0.0185, r=Zone001)
  movej([-1.362, -1.5987, -1.7098, -2.9747, -1.362, -3.1416], a=3.1416, v=0.0184, r=Zone001)
  movej([-1.3635, -1.5997, -1.7088, -2.9747, -1.3635, -3.1416], a=3.1416, v=0.0182, r=Zone001)
  movej([-1.3649, -1.6007, -1.7077, -2.9748, -1.3649, -3.1416], a=3.1416, v=0.018, r=Zone001)
  movej([-1.3663, -1.6017, -1.7066, -2.9748, -1.3663, -3.1416], a=3.1416, v=0.0179, r=Zone001)
  movej([-1.3678, -1.6028, -1.7055, -2.9749, -1.3678, -3.1416], a=3.1416, v=0.0177, r=Zone001)
  movej([-1.3692, -1.6039, -1.7044, -2.9749, -1.3692, -3.1416], a=3.1416, v=0.0175, r=Zone001)
  movej([-1.3705, -1.605, -1.7032, -2.975, -1.3705, -3.1416], a=3.1416, v=0.0173, r=Zone001)
  movej([-1.3719, -1.6061, -1.7021, -2.975, -1.3719, -3.1416], a=3.1416, v=0.0171, r=Zone001)
  movej([-1.3733, -1.6072, -1.7009, -2.9751, -1.3733, -3.1416], a=3.1416, v=0.0169, r=Zone001)
  movej([-1.3746, -1.6084, -1.6997, -2.9751, -1.3746, -3.1416], a=3.1416, v=0.0167, r=Zone001)
  movej([-1.3759, -1.6095, -1.6985, -2.9752, -1.3759, -3.1416], a=3.1416, v=0.0165, r=Zone001)
  movej([-1.3772, -1.6107, -1.6972, -2.9753, -1.3772, -3.1416], a=3.1416, v=0.0163, r=Zone001)
  movej([-1.3785, -1.6119, -1.696, -2.9753, -1.3785, -3.1416], a=3.1416, v=0.0161, r=Zone001)
  movej([-1.3798, -1.6131, -1.6947, -2.9754, -1.3798, -3.1416], a=3.1416, v=0.016, r=Zone001)
  movej([-1.381, -1.6144, -1.6934, -2.9754, -1.381, -3.1416], a=3.1416, v=0.0162, r=Zone001)
  movej([-1.3823, -1.6156, -1.6921, -2.9755, -1.3823, -3.1416], a=3.1416, v=0.0164, r=Zone001)
  movej([-1.3835, -1.6169, -1.6907, -2.9756, -1.3835, -3.1416], a=3.1416, v=0.0167, r=Zone001)
  movej([-1.3847, -1.6181, -1.6894, -2.9757, -1.3847, -3.1416], a=3.1416, v=0.0169, r=Zone001)
  movej([-1.3858, -1.6194, -1.688, -2.9757, -1.3858, -3.1416], a=3.1416, v=0.0171, r=Zone001)
  movej([-1.387, -1.6207, -1.6866, -2.9758, -1.387, -3.1416], a=3.1416, v=0.0173, r=Zone001)
  movej([-1.3881, -1.622, -1.6852, -2.9759, -1.3881, -3.1416], a=3.1416, v=0.0175, r=Zone001)
  movej([-1.3892, -1.6234, -1.6838, -2.976, -1.3892, -3.1416], a=3.1416, v=0.0177, r=Zone001)
  movej([-1.3903, -1.6247, -1.6824, -2.9761, -1.3903, -3.1416], a=3.1416, v=0.0179, r=Zone001)
  movej([-1.3914, -1.6261, -1.681, -2.9762, -1.3914, -3.1416], a=3.1416, v=0.0181, r=Zone001)
  movej([-1.3925, -1.6274, -1.6795, -2.9763, -1.3925, -3.1416], a=3.1416, v=0.0182, r=Zone001)
  movej([-1.3935, -1.6288, -1.678, -2.9764, -1.3935, -3.1416], a=3.1416, v=0.0184, r=Zone001)
  movej([-1.3945, -1.6302, -1.6765, -2.9765, -1.3945, -3.1416], a=3.1416, v=0.0186, r=Zone001)
  movej([-1.3955, -1.6316, -1.675, -2.9766, -1.3955, -3.1416], a=3.1416, v=0.0188, r=Zone001)
  movej([-1.3965, -1.633, -1.6735, -2.9767, -1.3965, -3.1416], a=3.1416, v=0.0189, r=Zone001)
  movej([-1.3974, -1.6344, -1.672, -2.9768, -1.3974, -3.1416], a=3.1416, v=0.0191, r=Zone001)
  movej([-1.3984, -1.6358, -1.6705, -2.9769, -1.3984, -3.1416], a=3.1416, v=0.0192, r=Zone001)
  movej([-1.3993, -1.6373, -1.6689, -2.977, -1.3993, -3.1416], a=3.1416, v=0.0194, r=Zone001)
  movej([-1.4001, -1.6387, -1.6674, -2.9771, -1.4001, -3.1416], a=3.1416, v=0.0195, r=Zone001)
  movej([-1.401, -1.6402, -1.6658, -2.9772, -1.401, -3.1416], a=3.1416, v=0.0197, r=Zone001)
  movej([-1.4018, -1.6416, -1.6642, -2.9774, -1.4018, -3.1416], a=3.1416, v=0.0198, r=Zone001)
  movej([-1.4027, -1.6431, -1.6626, -2.9775, -1.4027, -3.1416], a=3.1416, v=0.0199, r=Zone001)
  movej([-1.4035, -1.6445, -1.661, -2.9776, -1.4035, -3.1416], a=3.1416, v=0.02, r=Zone001)
  movej([-1.4042, -1.646, -1.6594, -2.9777, -1.4042, -3.1416], a=3.1416, v=0.0202, r=Zone001)
  movej([-1.405, -1.6475, -1.6578, -2.9779, -1.405, -3.1416], a=3.1416, v=0.0203, r=Zone001)
  movej([-1.4057, -1.649, -1.6562, -2.978, -1.4057, -3.1416], a=3.1416, v=0.0204, r=Zone001)
  movej([-1.4064, -1.6505, -1.6545, -2.9781, -1.4064, -3.1416], a=3.1416, v=0.0205, r=Zone001)
  movej([-1.4071, -1.652, -1.6529, -2.9783, -1.4071, -3.1416], a=3.1416, v=0.0206, r=Zone001)
  movej([-1.4077, -1.6535, -1.6512, -2.9784, -1.4077, -3.1416], a=3.1416, v=0.0207, r=Zone001)
  movej([-1.4084, -1.655, -1.6496, -2.9786, -1.4084, -3.1416], a=3.1416, v=0.0208, r=Zone001)
  movej([-1.409, -1.6565, -1.6479, -2.9787, -1.409, -3.1416], a=3.1416, v=0.0209, r=Zone001)
  movej([-1.4095, -1.6581, -1.6462, -2.9789, -1.4095, -3.1416], a=3.1416, v=0.0209, r=Zone001)
  movej([-1.4101, -1.6596, -1.6446, -2.979, -1.4101, -3.1416], a=3.1416, v=0.021, r=Zone001)
  movej([-1.4106, -1.6611, -1.6429, -2.9792, -1.4106, -3.1416], a=3.1416, v=0.0211, r=Zone001)
  movej([-1.4112, -1.6626, -1.6412, -2.9794, -1.4112, -3.1416], a=3.1416, v=0.0211, r=Zone001)
  movej([-1.4116, -1.6641, -1.6395, -2.9795, -1.4116, -3.1416], a=3.1416, v=0.0212, r=Zone001)
  movej([-1.4121, -1.6657, -1.6378, -2.9797, -1.4121, -3.1416], a=3.1416, v=0.0213, r=Zone001)
  movej([-1.4125, -1.6672, -1.6361, -2.9799, -1.4125, -3.1416], a=3.1416, v=0.0213, r=Zone001)
  movej([-1.413, -1.6687, -1.6344, -2.98, -1.413, -3.1416], a=3.1416, v=0.0213, r=Zone001)
  movej([-1.4134, -1.6703, -1.6327, -2.9802, -1.4134, -3.1416], a=3.1416, v=0.0214, r=Zone001)
  movej([-1.4137, -1.6718, -1.631, -2.9804, -1.4137, -3.1416], a=3.1416, v=0.0214, r=Zone001)
  movej([-1.4141, -1.6733, -1.6293, -2.9806, -1.4141, -3.1416], a=3.1416, v=0.0214, r=Zone001)
  movej([-1.4144, -1.6749, -1.6276, -2.9808, -1.4144, -3.1416], a=3.1416, v=0.0215, r=Zone001)
  movej([-1.4147, -1.6764, -1.6259, -2.9809, -1.4147, -3.1416], a=3.1416, v=0.0215, r=Zone001)
  movej([-1.415, -1.6779, -1.6241, -2.9811, -1.415, -3.1416], a=3.1416, v=0.0215, r=Zone001)
  movej([-1.4152, -1.6794, -1.6224, -2.9813, -1.4152, -3.1416], a=3.1416, v=0.0215, r=Zone001)
  movej([-1.4154, -1.681, -1.6207, -2.9815, -1.4154, -3.1416], a=3.1416, v=0.0215, r=Zone001)
  movej([-1.4157, -1.6825, -1.619, -2.9817, -1.4157, -3.1416], a=3.1416, v=0.0215, r=Zone001)
  movej([-1.4158, -1.684, -1.6173, -2.9819, -1.4158, -3.1416], a=3.1416, v=0.0215, r=Zone001)
  movej([-1.416, -1.6855, -1.6156, -2.9821, -1.416, -3.1416], a=3.1416, v=0.0215, r=Zone001)
  movej([-1.4161, -1.687, -1.6139, -2.9823, -1.4161, -3.1416], a=3.1416, v=0.0214, r=Zone001)
  movej([-1.4162, -1.6885, -1.6122, -2.9825, -1.4162, -3.1416], a=3.1416, v=0.0214, r=Zone001)
  movej([-1.4163, -1.69, -1.6105, -2.9827, -1.4163, -3.1416], a=3.1416, v=0.0214, r=Zone001)
  movej([-1.4164, -1.6915, -1.6088, -2.9829, -1.4164, -3.1416], a=3.1416, v=0.0214, r=Zone001)
  movej([-1.4164, -1.693, -1.6071, -2.9831, -1.4164, -3.1416], a=3.1416, v=0.0213, r=Zone001)
  movej([-1.4164, -1.6945, -1.6054, -2.9833, -1.4164, -3.1416], a=3.1416, v=0.0213, r=Zone001)
  movej([-1.4164, -1.696, -1.6037, -2.9835, -1.4164, -3.1416], a=3.1416, v=0.0212, r=Zone001)
  movej([-1.4164, -1.6975, -1.602, -2.9838, -1.4164, -3.1416], a=3.1416, v=0.0212, r=Zone001)
  movej([-1.4164, -1.6989, -1.6003, -2.984, -1.4164, -3.1416], a=3.1416, v=0.0211, r=Zone001)
  movej([-1.4163, -1.7004, -1.5986, -2.9842, -1.4163, -3.1416], a=3.1416, v=0.021, r=Zone001)
  movej([-1.4162, -1.7018, -1.597, -2.9844, -1.4162, -3.1416], a=3.1416, v=0.021, r=Zone001)
  movej([-1.4161, -1.7033, -1.5953, -2.9846, -1.4161, -3.1416], a=3.1416, v=0.0209, r=Zone001)
  movej([-1.4159, -1.7047, -1.5936, -2.9848, -1.4159, -3.1416], a=3.1416, v=0.0208, r=Zone001)
  movej([-1.4158, -1.7061, -1.592, -2.9851, -1.4158, -3.1416], a=3.1416, v=0.0207, r=Zone001)
  movej([-1.4156, -1.7076, -1.5903, -2.9853, -1.4156, -3.1416], a=3.1416, v=0.0206, r=Zone001)
  movej([-1.4154, -1.709, -1.5887, -2.9855, -1.4154, -3.1416], a=3.1416, v=0.0205, r=Zone001)
  movej([-1.4152, -1.7104, -1.5871, -2.9857, -1.4152, -3.1416], a=3.1416, v=0.0204, r=Zone001)
  movej([-1.4149, -1.7118, -1.5855, -2.9859, -1.4149, -3.1416], a=3.1416, v=0.0203, r=Zone001)
  movej([-1.4146, -1.7132, -1.5838, -2.9862, -1.4146, -3.1416], a=3.1416, v=0.0202, r=Zone001)
  movej([-1.4143, -1.7145, -1.5823, -2.9864, -1.4143, -3.1416], a=3.1416, v=0.0201, r=Zone001)
  movej([-1.414, -1.7159, -1.5807, -2.9866, -1.414, -3.1416], a=3.1416, v=0.02, r=Zone001)
  movej([-1.4137, -1.7173, -1.5791, -2.9868, -1.4137, -3.1416], a=3.1416, v=0.0198, r=Zone001)
  movej([-1.4134, -1.7186, -1.5775, -2.9871, -1.4134, -3.1416], a=3.1416, v=0.0197, r=Zone001)
  movej([-1.413, -1.7199, -1.576, -2.9873, -1.413, -3.1416], a=3.1416, v=0.0196, r=Zone001)
  movej([-1.4126, -1.7213, -1.5744, -2.9875, -1.4126, -3.1416], a=3.1416, v=0.0194, r=Zone001)
  movej([-1.4122, -1.7226, -1.5729, -2.9877, -1.4122, -3.1416], a=3.1416, v=0.0193, r=Zone001)
  movej([-1.4117, -1.7239, -1.5713, -2.988, -1.4117, -3.1416], a=3.1416, v=0.0191, r=Zone001)
  movej([-1.4113, -1.7251, -1.5698, -2.9882, -1.4113, -3.1416], a=3.1416, v=0.019, r=Zone001)
  movej([-1.4108, -1.7264, -1.5683, -2.9884, -1.4108, -3.1416], a=3.1416, v=0.0188, r=Zone001)
  movej([-1.4103, -1.7277, -1.5669, -2.9886, -1.4103, -3.1416], a=3.1416, v=0.0186, r=Zone001)
  movej([-1.4098, -1.7289, -1.5654, -2.9889, -1.4098, -3.1416], a=3.1416, v=0.0185, r=Zone001)
  movej([-1.4093, -1.7302, -1.5639, -2.9891, -1.4093, -3.1416], a=3.1416, v=0.0183, r=Zone001)
  movej([-1.4087, -1.7314, -1.5625, -2.9893, -1.4087, -3.1416], a=3.1416, v=0.0181, r=Zone001)
  movej([-1.4081, -1.7326, -1.5611, -2.9895, -1.4081, -3.1416], a=3.1416, v=0.0179, r=Zone001)
  movej([-1.4076, -1.7338, -1.5596, -2.9898, -1.4076, -3.1416], a=3.1416, v=0.0178, r=Zone001)
  movej([-1.4069, -1.735, -1.5582, -2.99, -1.4069, -3.1416], a=3.1416, v=0.0176, r=Zone001)
  movej([-1.4063, -1.7361, -1.5569, -2.9902, -1.4063, -3.1416], a=3.1416, v=0.0174, r=Zone001)
  movej([-1.4057, -1.7373, -1.5555, -2.9904, -1.4057, -3.1416], a=3.1416, v=0.0172, r=Zone001)
  movej([-1.405, -1.7384, -1.5541, -2.9906, -1.405, -3.1416], a=3.1416, v=0.017, r=Zone001)
  movej([-1.4043, -1.7395, -1.5528, -2.9908, -1.4043, -3.1416], a=3.1416, v=0.0168, r=Zone001)
  movej([-1.4036, -1.7406, -1.5515, -2.9911, -1.4036, -3.1416], a=3.1416, v=0.0165, r=Zone001)
  movej([-1.4029, -1.7417, -1.5502, -2.9913, -1.4029, -3.1416], a=3.1416, v=0.0163, r=Zone001)
  movej([-1.4022, -1.7428, -1.5489, -2.9915, -1.4022, -3.1416], a=3.1416, v=0.0161, r=Zone001)
  movej([-1.4015, -1.7438, -1.5477, -2.9917, -1.4015, -3.1416], a=3.1416, v=0.0159, r=Zone001)
  movej([-1.4007, -1.7449, -1.5464, -2.9919, -1.4007, -3.1416], a=3.1416, v=0.0156, r=Zone001)
  movej([-1.3999, -1.7459, -1.5452, -2.9921, -1.3999, -3.1416], a=3.1416, v=0.0154, r=Zone001)
  movej([-1.3991, -1.7469, -1.544, -2.9923, -1.3991, -3.1416], a=3.1416, v=0.0152, r=Zone001)
  movej([-1.3983, -1.7479, -1.5428, -2.9925, -1.3983, -3.1416], a=3.1416, v=0.0149, r=Zone001)
  movej([-1.3975, -1.7489, -1.5416, -2.9927, -1.3975, -3.1416], a=3.1416, v=0.0147, r=Zone001)
  movej([-1.3966, -1.7498, -1.5405, -2.9929, -1.3966, -3.1416], a=3.1416, v=0.0145, r=Zone001)
  movej([-1.3958, -1.7508, -1.5393, -2.9931, -1.3958, -3.1416], a=3.1416, v=0.0142, r=Zone001)
  movej([-1.3949, -1.7517, -1.5382, -2.9933, -1.3949, -3.1416], a=3.1416, v=0.0139, r=Zone001)
  movej([-1.394, -1.7526, -1.5371, -2.9935, -1.394, -3.1416], a=3.1416, v=0.0137, r=Zone001)
  movej([-1.3931, -1.7535, -1.5361, -2.9937, -1.3931, -3.1416], a=3.1416, v=0.0134, r=Zone001)
  movej([-1.3922, -1.7543, -1.535, -2.9938, -1.3922, -3.1416], a=3.1416, v=0.0132, r=Zone001)
  movej([-1.3913, -1.7552, -1.534, -2.994, -1.3913, -3.1416], a=3.1416, v=0.0129, r=Zone001)
  movej([-1.3903, -1.756, -1.533, -2.9942, -1.3903, -3.1416], a=3.1416, v=0.0126, r=Zone001)
  movej([-1.3894, -1.7568, -1.532, -2.9944, -1.3894, -3.1416], a=3.1416, v=0.0123, r=Zone001)
  movej([-1.3884, -1.7576, -1.5311, -2.9945, -1.3884, -3.1416], a=3.1416, v=0.0122, r=Zone001)
  movej([-1.3874, -1.7584, -1.5301, -2.9947, -1.3874, -3.1416], a=3.1416, v=0.0124, r=Zone001)
  movej([-1.3864, -1.7591, -1.5292, -2.9949, -1.3864, -3.1416], a=3.1416, v=0.0126, r=Zone001)
  movej([-1.3854, -1.7599, -1.5283, -2.995, -1.3854, -3.1416], a=3.1416, v=0.0127, r=Zone001)
  movej([-1.3844, -1.7606, -1.5274, -2.9952, -1.3844, -3.1416], a=3.1416, v=0.0129, r=Zone001)
  movej([-1.3833, -1.7613, -1.5266, -2.9953, -1.3833, -3.1416], a=3.1416, v=0.013, r=Zone001)
  movej([-1.3823, -1.7619, -1.5258, -2.9955, -1.3823, -3.1416], a=3.1416, v=0.0132, r=Zone001)
  movej([-1.3812, -1.7626, -1.525, -2.9956, -1.3812, -3.1416], a=3.1416, v=0.0133, r=Zone001)
  movej([-1.3802, -1.7632, -1.5242, -2.9958, -1.3802, -3.1416], a=3.1416, v=0.0135, r=Zone001)
  movej([-1.3791, -1.7638, -1.5234, -2.9959, -1.3791, -3.1416], a=3.1416, v=0.0136, r=Zone001)
  movej([-1.378, -1.7644, -1.5227, -2.996, -1.378, -3.1416], a=3.1416, v=0.0138, r=Zone001)
  movej([-1.3769, -1.765, -1.522, -2.9962, -1.3769, -3.1416], a=3.1416, v=0.0139, r=Zone001)
  movej([-1.3758, -1.7655, -1.5213, -2.9963, -1.3758, -3.1416], a=3.1416, v=0.014, r=Zone001)
  movej([-1.3746, -1.7661, -1.5207, -2.9964, -1.3746, -3.1416], a=3.1416, v=0.0142, r=Zone001)
  movej([-1.3735, -1.7666, -1.5201, -2.9965, -1.3735, -3.1416], a=3.1416, v=0.0143, r=Zone001)
  movej([-1.3724, -1.7671, -1.5195, -2.9967, -1.3724, -3.1416], a=3.1416, v=0.0144, r=Zone001)
  movej([-1.3712, -1.7675, -1.5189, -2.9968, -1.3712, -3.1416], a=3.1416, v=0.0145, r=Zone001)
  movej([-1.37, -1.768, -1.5183, -2.9969, -1.37, -3.1416], a=3.1416, v=0.0147, r=Zone001)
  movej([-1.3689, -1.7684, -1.5178, -2.997, -1.3689, -3.1416], a=3.1416, v=0.0148, r=Zone001)
  movej([-1.3677, -1.7688, -1.5173, -2.9971, -1.3677, -3.1416], a=3.1416, v=0.0149, r=Zone001)
  movej([-1.3665, -1.7692, -1.5168, -2.9972, -1.3665, -3.1416], a=3.1416, v=0.015, r=Zone001)
  movej([-1.3653, -1.7696, -1.5164, -2.9972, -1.3653, -3.1416], a=3.1416, v=0.0151, r=Zone001)
  movej([-1.3641, -1.7699, -1.5159, -2.9973, -1.3641, -3.1416], a=3.1416, v=0.0152, r=Zone001)
  movej([-1.3629, -1.7702, -1.5155, -2.9974, -1.3629, -3.1416], a=3.1416, v=0.0153, r=Zone001)
  movej([-1.3616, -1.7705, -1.5152, -2.9975, -1.3616, -3.1416], a=3.1416, v=0.0154, r=Zone001)
  movej([-1.3604, -1.7708, -1.5148, -2.9976, -1.3604, -3.1416], a=3.1416, v=0.0155, r=Zone001)
  movej([-1.3592, -1.7711, -1.5145, -2.9976, -1.3592, -3.1416], a=3.1416, v=0.0156, r=Zone001)
  movej([-1.3579, -1.7713, -1.5142, -2.9977, -1.3579, -3.1416], a=3.1416, v=0.0157, r=Zone001)
  movej([-1.3567, -1.7715, -1.5139, -2.9977, -1.3567, -3.1416], a=3.1416, v=0.0158, r=Zone001)
  movej([-1.3554, -1.7717, -1.5137, -2.9978, -1.3554, -3.1416], a=3.1416, v=0.0159, r=Zone001)
  movej([-1.3541, -1.7719, -1.5135, -2.9978, -1.3541, -3.1416], a=3.1416, v=0.0159, r=Zone001)
  movej([-1.3529, -1.772, -1.5133, -2.9979, -1.3529, -3.1416], a=3.1416, v=0.016, r=Zone001)
  movej([-1.3516, -1.7721, -1.5131, -2.9979, -1.3516, -3.1416], a=3.1416, v=0.0161, r=Zone001)
  movej([-1.3503, -1.7722, -1.513, -2.9979, -1.3503, -3.1416], a=3.1416, v=0.0162, r=Zone001)
  movej([-1.349, -1.7723, -1.5129, -2.998, -1.349, -3.1416], a=3.1416, v=0.0162, r=Zone001)
  movej([-1.3477, -1.7724, -1.5128, -2.998, -1.3477, -3.1416], a=3.1416, v=0.0163, r=Zone001)
  movej([-1.3464, -1.7724, -1.5128, -2.998, -1.3464, -3.1416], a=3.1416, v=0.0164, r=Zone001)
  movej([-1.3451, -1.7724, -1.5127, -2.998, -1.3451, -3.1416], a=3.1416, v=0.0164, r=Zone001)
  movej([-1.3438, -1.7724, -1.5127, -2.998, -1.3438, -3.1416], a=3.1416, v=0.0165, r=Zone001)
  movej([-1.3425, -1.7724, -1.5128, -2.998, -1.3425, -3.1416], a=3.1416, v=0.0165, r=Zone001)
  movej([-1.3412, -1.7723, -1.5128, -2.998, -1.3412, -3.1416], a=3.1416, v=0.0166, r=Zone001)
  movej([-1.3399, -1.7723, -1.5129, -2.998, -1.3399, -3.1416], a=3.1416, v=0.0166, r=Zone001)
  movej([-1.3385, -1.7722, -1.513, -2.998, -1.3385, -3.1416], a=3.1416, v=0.0167, r=Zone001)
  movej([-1.3372, -1.7721, -1.5131, -2.998, -1.3372, -3.1416], a=3.1416, v=0.0167, r=Zone001)
  movej([-1.3359, -1.7719, -1.5133, -2.998, -1.3359, -3.1416], a=3.1416, v=0.0167, r=Zone001)
  movej([-1.3346, -1.7718, -1.5135, -2.998, -1.3346, -3.1416], a=3.1416, v=0.0168, r=Zone001)
  movej([-1.3332, -1.7716, -1.5137, -2.9979, -1.3332, -3.1416], a=3.1416, v=0.0168, r=Zone001)
  movej([-1.3319, -1.7714, -1.5139, -2.9979, -1.3319, -3.1416], a=3.1416, v=0.0168, r=Zone001)
  movej([-1.3305, -1.7711, -1.5142, -2.9978, -1.3305, -3.1416], a=3.1416, v=0.0169, r=Zone001)
  movej([-1.3292, -1.7709, -1.5145, -2.9978, -1.3292, -3.1416], a=3.1416, v=0.0169, r=Zone001)
  movej([-1.3279, -1.7706, -1.5148, -2.9978, -1.3279, -3.1416], a=3.1416, v=0.0169, r=Zone001)
  movej([-1.3265, -1.7703, -1.5152, -2.9977, -1.3265, -3.1416], a=3.1416, v=0.0169, r=Zone001)
  movej([-1.3252, -1.77, -1.5155, -2.9976, -1.3252, -3.1416], a=3.1416, v=0.0169, r=Zone001)
  movej([-1.3238, -1.7697, -1.5159, -2.9976, -1.3238, -3.1416], a=3.1416, v=0.0169, r=Zone001)
  movej([-1.3225, -1.7693, -1.5163, -2.9975, -1.3225, -3.1416], a=3.1416, v=0.0169, r=Zone001)
  movej([-1.3212, -1.769, -1.5168, -2.9974, -1.3212, -3.1416], a=3.1416, v=0.0169, r=Zone001)
  movej([-1.3198, -1.7686, -1.5173, -2.9974, -1.3198, -3.1416], a=3.1416, v=0.0169, r=Zone001)
  movej([-1.3185, -1.7681, -1.5178, -2.9973, -1.3185, -3.1416], a=3.1416, v=0.0169, r=Zone001)
  movej([-1.3171, -1.7677, -1.5183, -2.9972, -1.3171, -3.1416], a=3.1416, v=0.0169, r=Zone001)
  movej([-1.3158, -1.7672, -1.5188, -2.9971, -1.3158, -3.1416], a=3.1416, v=0.0169, r=Zone001)
  movej([-1.3144, -1.7668, -1.5194, -2.997, -1.3144, -3.1416], a=3.1416, v=0.0169, r=Zone001)
  movej([-1.3131, -1.7663, -1.52, -2.9969, -1.3131, -3.1416], a=3.1416, v=0.0169, r=Zone001)
  movej([-1.3118, -1.7657, -1.5206, -2.9968, -1.3118, -3.1416], a=3.1416, v=0.0169, r=Zone001)
  movej([-1.3104, -1.7652, -1.5213, -2.9967, -1.3104, -3.1416], a=3.1416, v=0.0168, r=Zone001)
  movej([-1.3091, -1.7646, -1.522, -2.9966, -1.3091, -3.1416], a=3.1416, v=0.0168, r=Zone001)
  movej([-1.3078, -1.764, -1.5227, -2.9965, -1.3078, -3.1416], a=3.1416, v=0.0168, r=Zone001)
  movej([-1.3064, -1.7634, -1.5234, -2.9964, -1.3064, -3.1416], a=3.1416, v=0.0167, r=Zone001)
  movej([-1.3051, -1.7628, -1.5241, -2.9963, -1.3051, -3.1416], a=3.1416, v=0.0167, r=Zone001)
  movej([-1.3038, -1.7622, -1.5249, -2.9961, -1.3038, -3.1416], a=3.1416, v=0.0167, r=Zone001)
  movej([-1.3025, -1.7615, -1.5257, -2.996, -1.3025, -3.1416], a=3.1416, v=0.0166, r=Zone001)
  movej([-1.3012, -1.7608, -1.5265, -2.9959, -1.3012, -3.1416], a=3.1416, v=0.0166, r=Zone001)
  movej([-1.2999, -1.7601, -1.5273, -2.9957, -1.2999, -3.1416], a=3.1416, v=0.0165, r=Zone001)
  movej([-1.2986, -1.7594, -1.5282, -2.9956, -1.2986, -3.1416], a=3.1416, v=0.0165, r=Zone001)
  movej([-1.2973, -1.7586, -1.5291, -2.9955, -1.2973, -3.1416], a=3.1416, v=0.0164, r=Zone001)
  movej([-1.296, -1.7579, -1.53, -2.9953, -1.296, -3.1416], a=3.1416, v=0.0164, r=Zone001)
  movej([-1.2947, -1.7571, -1.5309, -2.9952, -1.2947, -3.1416], a=3.1416, v=0.0163, r=Zone001)
  movej([-1.2934, -1.7563, -1.5319, -2.995, -1.2934, -3.1416], a=3.1416, v=0.0162, r=Zone001)
  movej([-1.2921, -1.7555, -1.5329, -2.9948, -1.2921, -3.1416], a=3.1416, v=0.0162, r=Zone001)
  movej([-1.2908, -1.7546, -1.5339, -2.9947, -1.2908, -3.1416], a=3.1416, v=0.0161, r=Zone001)
  movej([-1.2896, -1.7538, -1.5349, -2.9945, -1.2896, -3.1416], a=3.1416, v=0.016, r=Zone001)
  movej([-1.2883, -1.7529, -1.5359, -2.9944, -1.2883, -3.1416], a=3.1416, v=0.0159, r=Zone001)
  movej([-1.287, -1.752, -1.537, -2.9942, -1.287, -3.1416], a=3.1416, v=0.0159, r=Zone001)
  movej([-1.2858, -1.7511, -1.538, -2.994, -1.2858, -3.1416], a=3.1416, v=0.0158, r=Zone001)
  movej([-1.2845, -1.7502, -1.5391, -2.9939, -1.2845, -3.1416], a=3.1416, v=0.0157, r=Zone001)
  movej([-1.2833, -1.7492, -1.5403, -2.9937, -1.2833, -3.1416], a=3.1416, v=0.0156, r=Zone001)
  movej([-1.2821, -1.7483, -1.5414, -2.9935, -1.2821, -3.1416], a=3.1416, v=0.0155, r=Zone001)
  movej([-1.2809, -1.7473, -1.5426, -2.9933, -1.2809, -3.1416], a=3.1416, v=0.0154, r=Zone001)
  movej([-1.2797, -1.7463, -1.5437, -2.9931, -1.2797, -3.1416], a=3.1416, v=0.0153, r=Zone001)
  movej([-1.2785, -1.7453, -1.5449, -2.993, -1.2785, -3.1416], a=3.1416, v=0.0152, r=Zone001)
  movej([-1.2773, -1.7443, -1.5462, -2.9928, -1.2773, -3.1416], a=3.1416, v=0.0153, r=Zone001)
  movej([-1.2761, -1.7432, -1.5474, -2.9926, -1.2761, -3.1416], a=3.1416, v=0.0156, r=Zone001)
  movej([-1.2749, -1.7421, -1.5486, -2.9924, -1.2749, -3.1416], a=3.1416, v=0.0158, r=Zone001)
