def Program():
  Clay_extruderTcp = p[0, 0.1765, 0.058, -1.5708, -0, 0]
  Clay_extruderWeight = 1.78
  Clay_extruderCog = [0, 0.1765, 0.058]
  Speed000 = 0.008
  Zone000 = 0
  Zone001 = 0.01
  set_tcp(Clay_extruderTcp)
  set_payload(Clay_extruderWeight, Clay_extruderCog)
  movej([-1.2715, -1.641, -2.1667, -2.4755, -1.2715, -3.1416], a=3.1416, v=0.0251, r=Zone000)
  movej([-1.2794, -1.6408, -2.1668, -2.4756, -1.2794, -3.1416], a=3.1416, v=0.0223, r=Zone001)
  movej([-1.2875, -1.6411, -2.1665, -2.4756, -1.2875, -3.1416], a=3.1416, v=0.0228, r=Zone001)
  movej([-1.2958, -1.6418, -2.1656, -2.4758, -1.2958, -3.1416], a=3.1416, v=0.0232, r=Zone001)
  movej([-1.3041, -1.643, -2.1642, -2.4759, -1.3041, -3.1416], a=3.1416, v=0.0234, r=Zone001)
  movej([-1.3125, -1.6447, -2.1623, -2.4761, -1.3125, -3.1416], a=3.1416, v=0.0235, r=Zone001)
  movej([-1.3209, -1.6468, -2.16, -2.4764, -1.3209, -3.1416], a=3.1416, v=0.0235, r=Zone001)
  movej([-1.3292, -1.6494, -2.1571, -2.4767, -1.3292, -3.1416], a=3.1416, v=0.0233, r=Zone001)
  movej([-1.3374, -1.6524, -2.1537, -2.4771, -1.3374, -3.1416], a=3.1416, v=0.023, r=Zone001)
  movej([-1.3454, -1.6557, -2.1499, -2.4776, -1.3454, -3.1416], a=3.1416, v=0.0226, r=Zone001)
  movej([-1.3532, -1.6595, -2.1456, -2.478, -1.3532, -3.1416], a=3.1416, v=0.022, r=Zone001)
  movej([-1.3608, -1.6636, -2.141, -2.4786, -1.3608, -3.1416], a=3.1416, v=0.0214, r=Zone001)
  movej([-1.3682, -1.6681, -2.1359, -2.4792, -1.3682, -3.1416], a=3.1416, v=0.0206, r=Zone001)
  movej([-1.3752, -1.6728, -2.1304, -2.4799, -1.3752, -3.1416], a=3.1416, v=0.0197, r=Zone001)
  movej([-1.3819, -1.6778, -2.1246, -2.4807, -1.3819, -3.1416], a=3.1416, v=0.0188, r=Zone001)
  movej([-1.3882, -1.6831, -2.1185, -2.4815, -1.3882, -3.1416], a=3.1416, v=0.0177, r=Zone001)
  movej([-1.3941, -1.6886, -2.1121, -2.4825, -1.3941, -3.1416], a=3.1416, v=0.018, r=Zone001)
  movej([-1.3996, -1.6943, -2.1055, -2.4834, -1.3996, -3.1416], a=3.1416, v=0.0188, r=Zone001)
  movej([-1.4046, -1.7001, -2.0986, -2.4845, -1.4046, -3.1416], a=3.1416, v=0.0194, r=Zone001)
  movej([-1.4092, -1.7061, -2.0915, -2.4856, -1.4092, -3.1416], a=3.1416, v=0.02, r=Zone001)
  movej([-1.4134, -1.7122, -2.0842, -2.4868, -1.4134, -3.1416], a=3.1416, v=0.0205, r=Zone001)
  movej([-1.417, -1.7183, -2.0768, -2.4881, -1.417, -3.1416], a=3.1416, v=0.0209, r=Zone001)
  movej([-1.4202, -1.7245, -2.0692, -2.4894, -1.4202, -3.1416], a=3.1416, v=0.0212, r=Zone001)
  movej([-1.4229, -1.7308, -2.0616, -2.4908, -1.4229, -3.1416], a=3.1416, v=0.0214, r=Zone001)
  movej([-1.4251, -1.737, -2.054, -2.4922, -1.4251, -3.1416], a=3.1416, v=0.0216, r=Zone001)
  movej([-1.4268, -1.7432, -2.0463, -2.4937, -1.4268, -3.1416], a=3.1416, v=0.0216, r=Zone001)
  movej([-1.4281, -1.7494, -2.0386, -2.4952, -1.4281, -3.1416], a=3.1416, v=0.0216, r=Zone001)
  movej([-1.4289, -1.7555, -2.031, -2.4967, -1.4289, -3.1416], a=3.1416, v=0.0215, r=Zone001)
  movej([-1.4292, -1.7614, -2.0235, -2.4983, -1.4292, -3.1416], a=3.1416, v=0.0213, r=Zone001)
  movej([-1.429, -1.7673, -2.016, -2.4999, -1.429, -3.1416], a=3.1416, v=0.021, r=Zone001)
  movej([-1.4284, -1.7731, -2.0087, -2.5014, -1.4284, -3.1416], a=3.1416, v=0.0206, r=Zone001)
  movej([-1.4274, -1.7786, -2.0015, -2.503, -1.4274, -3.1416], a=3.1416, v=0.0202, r=Zone001)
  movej([-1.4259, -1.784, -1.9945, -2.5046, -1.4259, -3.1416], a=3.1416, v=0.0197, r=Zone001)
  movej([-1.4241, -1.7893, -1.9878, -2.5061, -1.4241, -3.1416], a=3.1416, v=0.0191, r=Zone001)
  movej([-1.4218, -1.7943, -1.9812, -2.5077, -1.4218, -3.1416], a=3.1416, v=0.0185, r=Zone001)
  movej([-1.4192, -1.7991, -1.975, -2.5092, -1.4192, -3.1416], a=3.1416, v=0.0177, r=Zone001)
  movej([-1.4162, -1.8036, -1.969, -2.5106, -1.4162, -3.1416], a=3.1416, v=0.0169, r=Zone001)
  movej([-1.4128, -1.8079, -1.9633, -2.512, -1.4128, -3.1416], a=3.1416, v=0.0161, r=Zone001)
  movej([-1.4091, -1.812, -1.9579, -2.5133, -1.4091, -3.1416], a=3.1416, v=0.0152, r=Zone001)
  movej([-1.4051, -1.8158, -1.9528, -2.5146, -1.4051, -3.1416], a=3.1416, v=0.0142, r=Zone001)
  movej([-1.4009, -1.8192, -1.9482, -2.5158, -1.4009, -3.1416], a=3.1416, v=0.0132, r=Zone001)
  movej([-1.3963, -1.8224, -1.9439, -2.5169, -1.3963, -3.1416], a=3.1416, v=0.0129, r=Zone001)
  movej([-1.3915, -1.8253, -1.9399, -2.5179, -1.3915, -3.1416], a=3.1416, v=0.0136, r=Zone001)
  movej([-1.3864, -1.8279, -1.9364, -2.5188, -1.3864, -3.1416], a=3.1416, v=0.0143, r=Zone001)
  movej([-1.3811, -1.8302, -1.9334, -2.5196, -1.3811, -3.1416], a=3.1416, v=0.015, r=Zone001)
  movej([-1.3756, -1.8321, -1.9307, -2.5204, -1.3756, -3.1416], a=3.1416, v=0.0156, r=Zone001)
  movej([-1.3699, -1.8338, -1.9285, -2.521, -1.3699, -3.1416], a=3.1416, v=0.0161, r=Zone001)
  movej([-1.364, -1.8351, -1.9267, -2.5215, -1.364, -3.1416], a=3.1416, v=0.0166, r=Zone001)
  movej([-1.358, -1.836, -1.9254, -2.5218, -1.358, -3.1416], a=3.1416, v=0.017, r=Zone001)
  movej([-1.3518, -1.8366, -1.9245, -2.5221, -1.3518, -3.1416], a=3.1416, v=0.0174, r=Zone001)
  movej([-1.3456, -1.8369, -1.9241, -2.5222, -1.3456, -3.1416], a=3.1416, v=0.0177, r=Zone001)
  movej([-1.3392, -1.8368, -1.9241, -2.5223, -1.3392, -3.1416], a=3.1416, v=0.018, r=Zone001)
  movej([-1.3328, -1.8364, -1.9246, -2.5222, -1.3328, -3.1416], a=3.1416, v=0.0182, r=Zone001)
  movej([-1.3262, -1.8357, -1.9256, -2.522, -1.3262, -3.1416], a=3.1416, v=0.0184, r=Zone001)
  movej([-1.3197, -1.8346, -1.927, -2.5216, -1.3197, -3.1416], a=3.1416, v=0.0185, r=Zone001)
  movej([-1.3131, -1.8332, -1.9288, -2.5212, -1.3131, -3.1416], a=3.1416, v=0.0186, r=Zone001)
  movej([-1.3065, -1.8314, -1.9311, -2.5206, -1.3065, -3.1416], a=3.1416, v=0.0186, r=Zone001)
  movej([-1.3, -1.8294, -1.9338, -2.52, -1.3, -3.1416], a=3.1416, v=0.0186, r=Zone001)
  movej([-1.2935, -1.827, -1.937, -2.5192, -1.2935, -3.1416], a=3.1416, v=0.0185, r=Zone001)
  movej([-1.287, -1.8243, -1.9406, -2.5183, -1.287, -3.1416], a=3.1416, v=0.0184, r=Zone001)
  movej([-1.2806, -1.8213, -1.9445, -2.5174, -1.2806, -3.1416], a=3.1416, v=0.0182, r=Zone001)
  movej([-1.2742, -1.818, -1.9489, -2.5164, -1.2742, -3.1416], a=3.1416, v=0.0179, r=Zone001)
  movej([-1.268, -1.8144, -1.9536, -2.5152, -1.268, -3.1416], a=3.1416, v=0.0176, r=Zone001)
  movej([-1.262, -1.8105, -1.9587, -2.514, -1.262, -3.1416], a=3.1416, v=0.0172, r=Zone001)
  movej([-1.256, -1.8063, -1.9641, -2.5128, -1.256, -3.1416], a=3.1416, v=0.0168, r=Zone001)
  movej([-1.2503, -1.8019, -1.9698, -2.5115, -1.2503, -3.1416], a=3.1416, v=0.0163, r=Zone001)
  movej([-1.2447, -1.7973, -1.9758, -2.5101, -1.2447, -3.1416], a=3.1416, v=0.017, r=Zone001)
  movej([-1.2394, -1.7924, -1.9821, -2.5087, -1.2394, -3.1416], a=3.1416, v=0.0178, r=Zone001)
  movej([-1.2342, -1.7873, -1.9886, -2.5073, -1.2342, -3.1416], a=3.1416, v=0.0185, r=Zone001)
  movej([-1.2293, -1.782, -1.9954, -2.5058, -1.2293, -3.1416], a=3.1416, v=0.0192, r=Zone001)
  movej([-1.2247, -1.7766, -2.0023, -2.5043, -1.2247, -3.1416], a=3.1416, v=0.0197, r=Zone001)
  movej([-1.2204, -1.7709, -2.0094, -2.5028, -1.2204, -3.1416], a=3.1416, v=0.0202, r=Zone001)
  movej([-1.2164, -1.7651, -2.0167, -2.5013, -1.2164, -3.1416], a=3.1416, v=0.0206, r=Zone001)
  movej([-1.2127, -1.7592, -2.0241, -2.4999, -1.2127, -3.1416], a=3.1416, v=0.021, r=Zone001)
  movej([-1.2094, -1.7532, -2.0316, -2.4984, -1.2094, -3.1416], a=3.1416, v=0.0212, r=Zone001)
  movej([-1.2064, -1.7471, -2.0391, -2.497, -1.2064, -3.1416], a=3.1416, v=0.0214, r=Zone001)
  movej([-1.2039, -1.7409, -2.0467, -2.4956, -1.2039, -3.1416], a=3.1416, v=0.0215, r=Zone001)
  movej([-1.2017, -1.7347, -2.0543, -2.4942, -1.2017, -3.1416], a=3.1416, v=0.0215, r=Zone001)
  movej([-1.1999, -1.7284, -2.0618, -2.4929, -1.1999, -3.1416], a=3.1416, v=0.0214, r=Zone001)
  movej([-1.1986, -1.7222, -2.0693, -2.4917, -1.1986, -3.1416], a=3.1416, v=0.0213, r=Zone001)
  movej([-1.1978, -1.716, -2.0767, -2.4905, -1.1978, -3.1416], a=3.1416, v=0.021, r=Zone001)
  movej([-1.1974, -1.7099, -2.084, -2.4893, -1.1974, -3.1416], a=3.1416, v=0.0207, r=Zone001)
  movej([-1.1975, -1.7038, -2.0911, -2.4883, -1.1975, -3.1416], a=3.1416, v=0.0203, r=Zone001)
  movej([-1.198, -1.6979, -2.098, -2.4873, -1.198, -3.1416], a=3.1416, v=0.0197, r=Zone001)
  movej([-1.1991, -1.6921, -2.1048, -2.4863, -1.1991, -3.1416], a=3.1416, v=0.0191, r=Zone001)
  movej([-1.2007, -1.6864, -2.1113, -2.4855, -1.2007, -3.1416], a=3.1416, v=0.0185, r=Zone001)
  movej([-1.2028, -1.681, -2.1175, -2.4847, -1.2028, -3.1416], a=3.1416, v=0.0177, r=Zone001)
  movej([-1.2054, -1.6758, -2.1234, -2.484, -1.2054, -3.1416], a=3.1416, v=0.0169, r=Zone001)
  movej([-1.2085, -1.6708, -2.129, -2.4833, -1.2085, -3.1416], a=3.1416, v=0.0159, r=Zone001)
  movej([-1.2121, -1.6662, -2.1343, -2.4828, -1.2121, -3.1416], a=3.1416, v=0.0149, r=Zone001)
  movej([-1.2162, -1.6618, -2.1391, -2.4822, -1.2162, -3.1416], a=3.1416, v=0.0139, r=Zone001)
  movej([-1.2208, -1.6578, -2.1436, -2.4818, -1.2208, -3.1416], a=3.1416, v=0.0131, r=Zone001)
  movej([-1.2258, -1.6541, -2.1477, -2.4814, -1.2258, -3.1416], a=3.1416, v=0.0144, r=Zone001)
  movej([-1.2313, -1.6508, -2.1513, -2.4811, -1.2313, -3.1416], a=3.1416, v=0.0157, r=Zone001)
  movej([-1.2372, -1.6479, -2.1544, -2.4808, -1.2372, -3.1416], a=3.1416, v=0.0169, r=Zone001)
  movej([-1.2436, -1.6454, -2.1571, -2.4806, -1.2436, -3.1416], a=3.1416, v=0.018, r=Zone001)
  movej([-1.2503, -1.6434, -2.1593, -2.4805, -1.2503, -3.1416], a=3.1416, v=0.0191, r=Zone001)
  movej([-1.2573, -1.6418, -2.161, -2.4804, -1.2573, -3.1416], a=3.1416, v=0.02, r=Zone001)
  movej([-1.2646, -1.6406, -2.1622, -2.4803, -1.2646, -3.1416], a=3.1416, v=0.0209, r=Zone001)
  movej([-1.2722, -1.64, -2.1629, -2.4803, -1.2722, -3.1416], a=3.1416, v=0.0216, r=Zone001)
  movej([-1.28, -1.6398, -2.1631, -2.4803, -1.28, -3.1416], a=3.1416, v=0.0223, r=Zone001)
  movej([-1.288, -1.64, -2.1628, -2.4804, -1.288, -3.1416], a=3.1416, v=0.0228, r=Zone001)
  movej([-1.2961, -1.6408, -2.1619, -2.4805, -1.2961, -3.1416], a=3.1416, v=0.0231, r=Zone001)
  movej([-1.3043, -1.6419, -2.1606, -2.4807, -1.3043, -3.1416], a=3.1416, v=0.0234, r=Zone001)
  movej([-1.3125, -1.6436, -2.1587, -2.4809, -1.3125, -3.1416], a=3.1416, v=0.0235, r=Zone001)
  movej([-1.3208, -1.6457, -2.1563, -2.4812, -1.3208, -3.1416], a=3.1416, v=0.0234, r=Zone001)
  movej([-1.3289, -1.6482, -2.1535, -2.4815, -1.3289, -3.1416], a=3.1416, v=0.0233, r=Zone001)
  movej([-1.337, -1.6512, -2.1502, -2.4818, -1.337, -3.1416], a=3.1416, v=0.023, r=Zone001)
  movej([-1.3449, -1.6545, -2.1465, -2.4823, -1.3449, -3.1416], a=3.1416, v=0.0226, r=Zone001)
  movej([-1.3526, -1.6582, -2.1423, -2.4827, -1.3526, -3.1416], a=3.1416, v=0.022, r=Zone001)
  movej([-1.3601, -1.6622, -2.1377, -2.4833, -1.3601, -3.1416], a=3.1416, v=0.0214, r=Zone001)
  movej([-1.3673, -1.6666, -2.1327, -2.4839, -1.3673, -3.1416], a=3.1416, v=0.0206, r=Zone001)
  movej([-1.3742, -1.6713, -2.1273, -2.4846, -1.3742, -3.1416], a=3.1416, v=0.0197, r=Zone001)
  movej([-1.3808, -1.6762, -2.1216, -2.4853, -1.3808, -3.1416], a=3.1416, v=0.0188, r=Zone001)
  movej([-1.387, -1.6814, -2.1156, -2.4861, -1.387, -3.1416], a=3.1416, v=0.0177, r=Zone001)
  movej([-1.3928, -1.6868, -2.1093, -2.487, -1.3928, -3.1416], a=3.1416, v=0.018, r=Zone001)
  movej([-1.3982, -1.6924, -2.1028, -2.488, -1.3982, -3.1416], a=3.1416, v=0.0187, r=Zone001)
  movej([-1.4032, -1.6982, -2.096, -2.489, -1.4032, -3.1416], a=3.1416, v=0.0194, r=Zone001)
  movej([-1.4077, -1.7041, -2.089, -2.4901, -1.4077, -3.1416], a=3.1416, v=0.02, r=Zone001)
  movej([-1.4118, -1.7101, -2.0819, -2.4912, -1.4118, -3.1416], a=3.1416, v=0.0205, r=Zone001)
  movej([-1.4154, -1.7162, -2.0746, -2.4925, -1.4154, -3.1416], a=3.1416, v=0.0209, r=Zone001)
  movej([-1.4185, -1.7223, -2.0672, -2.4937, -1.4185, -3.1416], a=3.1416, v=0.0212, r=Zone001)
  movej([-1.4212, -1.7284, -2.0597, -2.4951, -1.4212, -3.1416], a=3.1416, v=0.0214, r=Zone001)
  movej([-1.4234, -1.7346, -2.0521, -2.4965, -1.4234, -3.1416], a=3.1416, v=0.0216, r=Zone001)
  movej([-1.4251, -1.7407, -2.0446, -2.4979, -1.4251, -3.1416], a=3.1416, v=0.0216, r=Zone001)
  movej([-1.4264, -1.7468, -2.037, -2.4993, -1.4264, -3.1416], a=3.1416, v=0.0216, r=Zone001)
  movej([-1.4271, -1.7528, -2.0295, -2.5008, -1.4271, -3.1416], a=3.1416, v=0.0215, r=Zone001)
  movej([-1.4274, -1.7587, -2.0221, -2.5024, -1.4274, -3.1416], a=3.1416, v=0.0213, r=Zone001)
  movej([-1.4273, -1.7645, -2.0148, -2.5039, -1.4273, -3.1416], a=3.1416, v=0.021, r=Zone001)
  movej([-1.4267, -1.7702, -2.0076, -2.5054, -1.4267, -3.1416], a=3.1416, v=0.0206, r=Zone001)
  movej([-1.4257, -1.7757, -2.0005, -2.507, -1.4257, -3.1416], a=3.1416, v=0.0202, r=Zone001)
  movej([-1.4243, -1.7811, -1.9936, -2.5085, -1.4243, -3.1416], a=3.1416, v=0.0197, r=Zone001)
  movej([-1.4225, -1.7862, -1.987, -2.51, -1.4225, -3.1416], a=3.1416, v=0.0191, r=Zone001)
  movej([-1.4203, -1.7912, -1.9805, -2.5115, -1.4203, -3.1416], a=3.1416, v=0.0184, r=Zone001)
  movej([-1.4177, -1.7959, -1.9744, -2.5129, -1.4177, -3.1416], a=3.1416, v=0.0177, r=Zone001)
  movej([-1.4147, -1.8004, -1.9684, -2.5143, -1.4147, -3.1416], a=3.1416, v=0.0169, r=Zone001)
  movej([-1.4114, -1.8047, -1.9628, -2.5157, -1.4114, -3.1416], a=3.1416, v=0.0161, r=Zone001)
  movej([-1.4078, -1.8087, -1.9575, -2.517, -1.4078, -3.1416], a=3.1416, v=0.0152, r=Zone001)
  movej([-1.4039, -1.8124, -1.9526, -2.5182, -1.4039, -3.1416], a=3.1416, v=0.0142, r=Zone001)
  movej([-1.3996, -1.8158, -1.948, -2.5194, -1.3996, -3.1416], a=3.1416, v=0.0132, r=Zone001)
  movej([-1.3951, -1.819, -1.9437, -2.5205, -1.3951, -3.1416], a=3.1416, v=0.0129, r=Zone001)
  movej([-1.3904, -1.8219, -1.9399, -2.5214, -1.3904, -3.1416], a=3.1416, v=0.0137, r=Zone001)
  movej([-1.3854, -1.8244, -1.9364, -2.5223, -1.3854, -3.1416], a=3.1416, v=0.0143, r=Zone001)
  movej([-1.3802, -1.8267, -1.9334, -2.5231, -1.3802, -3.1416], a=3.1416, v=0.015, r=Zone001)
  movej([-1.3747, -1.8286, -1.9308, -2.5238, -1.3747, -3.1416], a=3.1416, v=0.0156, r=Zone001)
  movej([-1.3691, -1.8302, -1.9286, -2.5244, -1.3691, -3.1416], a=3.1416, v=0.0161, r=Zone001)
  movej([-1.3633, -1.8315, -1.9268, -2.5249, -1.3633, -3.1416], a=3.1416, v=0.0166, r=Zone001)
  movej([-1.3574, -1.8324, -1.9255, -2.5253, -1.3574, -3.1416], a=3.1416, v=0.017, r=Zone001)
  movej([-1.3513, -1.833, -1.9246, -2.5255, -1.3513, -3.1416], a=3.1416, v=0.0174, r=Zone001)
  movej([-1.3451, -1.8333, -1.9242, -2.5257, -1.3451, -3.1416], a=3.1416, v=0.0178, r=Zone001)
  movej([-1.3389, -1.8332, -1.9243, -2.5257, -1.3389, -3.1416], a=3.1416, v=0.018, r=Zone001)
  movej([-1.3325, -1.8328, -1.9248, -2.5256, -1.3325, -3.1416], a=3.1416, v=0.0183, r=Zone001)
  movej([-1.3261, -1.8321, -1.9257, -2.5254, -1.3261, -3.1416], a=3.1416, v=0.0184, r=Zone001)
  movej([-1.3196, -1.831, -1.9271, -2.5251, -1.3196, -3.1416], a=3.1416, v=0.0186, r=Zone001)
  movej([-1.3131, -1.8296, -1.9289, -2.5247, -1.3131, -3.1416], a=3.1416, v=0.0186, r=Zone001)
  movej([-1.3067, -1.8279, -1.9312, -2.5241, -1.3067, -3.1416], a=3.1416, v=0.0187, r=Zone001)
  movej([-1.3002, -1.8258, -1.9339, -2.5235, -1.3002, -3.1416], a=3.1416, v=0.0186, r=Zone001)
  movej([-1.2937, -1.8235, -1.937, -2.5227, -1.2937, -3.1416], a=3.1416, v=0.0185, r=Zone001)
  movej([-1.2874, -1.8208, -1.9405, -2.5219, -1.2874, -3.1416], a=3.1416, v=0.0184, r=Zone001)
  movej([-1.281, -1.8178, -1.9444, -2.521, -1.281, -3.1416], a=3.1416, v=0.0182, r=Zone001)
  movej([-1.2748, -1.8146, -1.9487, -2.52, -1.2748, -3.1416], a=3.1416, v=0.0179, r=Zone001)
  movej([-1.2687, -1.811, -1.9533, -2.5189, -1.2687, -3.1416], a=3.1416, v=0.0176, r=Zone001)
  movej([-1.2627, -1.8072, -1.9583, -2.5177, -1.2627, -3.1416], a=3.1416, v=0.0172, r=Zone001)
  movej([-1.2569, -1.8031, -1.9636, -2.5165, -1.2569, -3.1416], a=3.1416, v=0.0168, r=Zone001)
  movej([-1.2512, -1.7987, -1.9693, -2.5152, -1.2512, -3.1416], a=3.1416, v=0.0163, r=Zone001)
  movej([-1.2457, -1.7941, -1.9752, -2.5139, -1.2457, -3.1416], a=3.1416, v=0.017, r=Zone001)
  movej([-1.2404, -1.7893, -1.9814, -2.5125, -1.2404, -3.1416], a=3.1416, v=0.0178, r=Zone001)
  movej([-1.2354, -1.7843, -1.9878, -2.5111, -1.2354, -3.1416], a=3.1416, v=0.0185, r=Zone001)
  movej([-1.2306, -1.7791, -1.9944, -2.5097, -1.2306, -3.1416], a=3.1416, v=0.0192, r=Zone001)
  movej([-1.226, -1.7736, -2.0013, -2.5083, -1.226, -3.1416], a=3.1416, v=0.0197, r=Zone001)
  movej([-1.2218, -1.7681, -2.0083, -2.5068, -1.2218, -3.1416], a=3.1416, v=0.0202, r=Zone001)
  movej([-1.2178, -1.7624, -2.0154, -2.5054, -1.2178, -3.1416], a=3.1416, v=0.0206, r=Zone001)
  movej([-1.2142, -1.7565, -2.0227, -2.504, -1.2142, -3.1416], a=3.1416, v=0.021, r=Zone001)
  movej([-1.211, -1.7506, -2.0301, -2.5026, -1.211, -3.1416], a=3.1416, v=0.0212, r=Zone001)
  movej([-1.208, -1.7445, -2.0375, -2.5012, -1.208, -3.1416], a=3.1416, v=0.0214, r=Zone001)
  movej([-1.2055, -1.7384, -2.0449, -2.4998, -1.2055, -3.1416], a=3.1416, v=0.0215, r=Zone001)
  movej([-1.2034, -1.7323, -2.0524, -2.4985, -1.2034, -3.1416], a=3.1416, v=0.0215, r=Zone001)
  movej([-1.2017, -1.7261, -2.0598, -2.4972, -1.2017, -3.1416], a=3.1416, v=0.0214, r=Zone001)
  movej([-1.2004, -1.72, -2.0672, -2.496, -1.2004, -3.1416], a=3.1416, v=0.0212, r=Zone001)
  movej([-1.1996, -1.7139, -2.0745, -2.4949, -1.1996, -3.1416], a=3.1416, v=0.021, r=Zone001)
  movej([-1.1992, -1.7078, -2.0816, -2.4938, -1.1992, -3.1416], a=3.1416, v=0.0207, r=Zone001)
  movej([-1.1993, -1.7018, -2.0886, -2.4927, -1.1993, -3.1416], a=3.1416, v=0.0202, r=Zone001)
  movej([-1.1999, -1.696, -2.0954, -2.4918, -1.1999, -3.1416], a=3.1416, v=0.0197, r=Zone001)
  movej([-1.2009, -1.6903, -2.1021, -2.4909, -1.2009, -3.1416], a=3.1416, v=0.0191, r=Zone001)
  movej([-1.2025, -1.6847, -2.1084, -2.49, -1.2025, -3.1416], a=3.1416, v=0.0184, r=Zone001)
  movej([-1.2046, -1.6794, -2.1146, -2.4893, -1.2046, -3.1416], a=3.1416, v=0.0177, r=Zone001)
  movej([-1.2071, -1.6742, -2.1204, -2.4886, -1.2071, -3.1416], a=3.1416, v=0.0168, r=Zone001)
  movej([-1.2102, -1.6694, -2.1259, -2.488, -1.2102, -3.1416], a=3.1416, v=0.0159, r=Zone001)
  movej([-1.2138, -1.6648, -2.131, -2.4874, -1.2138, -3.1416], a=3.1416, v=0.0149, r=Zone001)
  movej([-1.2178, -1.6605, -2.1358, -2.4869, -1.2178, -3.1416], a=3.1416, v=0.0138, r=Zone001)
  movej([-1.2223, -1.6565, -2.1402, -2.4865, -1.2223, -3.1416], a=3.1416, v=0.0131, r=Zone001)
  movej([-1.2273, -1.6529, -2.1442, -2.4861, -1.2273, -3.1416], a=3.1416, v=0.0144, r=Zone001)
  movej([-1.2327, -1.6496, -2.1478, -2.4858, -1.2327, -3.1416], a=3.1416, v=0.0157, r=Zone001)
  movej([-1.2386, -1.6468, -2.1509, -2.4856, -1.2386, -3.1416], a=3.1416, v=0.0169, r=Zone001)
  movej([-1.2448, -1.6443, -2.1535, -2.4854, -1.2448, -3.1416], a=3.1416, v=0.018, r=Zone001)
  movej([-1.2514, -1.6423, -2.1557, -2.4852, -1.2514, -3.1416], a=3.1416, v=0.0191, r=Zone001)
  movej([-1.2583, -1.6407, -2.1573, -2.4851, -1.2583, -3.1416], a=3.1416, v=0.02, r=Zone001)
  movej([-1.2655, -1.6396, -2.1585, -2.485, -1.2655, -3.1416], a=3.1416, v=0.0209, r=Zone001)
  movej([-1.273, -1.639, -2.1592, -2.485, -1.273, -3.1416], a=3.1416, v=0.0216, r=Zone001)
  movej([-1.2806, -1.6387, -2.1594, -2.4851, -1.2806, -3.1416], a=3.1416, v=0.0222, r=Zone001)
  movej([-1.2885, -1.639, -2.159, -2.4851, -1.2885, -3.1416], a=3.1416, v=0.0227, r=Zone001)
  movej([-1.2964, -1.6397, -2.1582, -2.4852, -1.2964, -3.1416], a=3.1416, v=0.0231, r=Zone001)
  movej([-1.3045, -1.6409, -2.1569, -2.4854, -1.3045, -3.1416], a=3.1416, v=0.0233, r=Zone001)
  movej([-1.3126, -1.6425, -2.155, -2.4856, -1.3126, -3.1416], a=3.1416, v=0.0234, r=Zone001)
  movej([-1.3207, -1.6446, -2.1527, -2.4859, -1.3207, -3.1416], a=3.1416, v=0.0234, r=Zone001)
  movej([-1.3287, -1.6471, -2.1499, -2.4862, -1.3287, -3.1416], a=3.1416, v=0.0232, r=Zone001)
  movej([-1.3366, -1.65, -2.1467, -2.4865, -1.3366, -3.1416], a=3.1416, v=0.0229, r=Zone001)
  movej([-1.3444, -1.6532, -2.143, -2.4869, -1.3444, -3.1416], a=3.1416, v=0.0225, r=Zone001)
  movej([-1.3519, -1.6569, -2.1389, -2.4874, -1.3519, -3.1416], a=3.1416, v=0.022, r=Zone001)
  movej([-1.3593, -1.6609, -2.1344, -2.4879, -1.3593, -3.1416], a=3.1416, v=0.0213, r=Zone001)
  movej([-1.3664, -1.6652, -2.1295, -2.4885, -1.3664, -3.1416], a=3.1416, v=0.0206, r=Zone001)
  movej([-1.3732, -1.6698, -2.1242, -2.4892, -1.3732, -3.1416], a=3.1416, v=0.0197, r=Zone001)
  movej([-1.3797, -1.6747, -2.1186, -2.4899, -1.3797, -3.1416], a=3.1416, v=0.0188, r=Zone001)
  movej([-1.3858, -1.6798, -2.1127, -2.4907, -1.3858, -3.1416], a=3.1416, v=0.0177, r=Zone001)
  movej([-1.3915, -1.6851, -2.1065, -2.4915, -1.3915, -3.1416], a=3.1416, v=0.018, r=Zone001)
  movej([-1.3968, -1.6906, -2.1001, -2.4925, -1.3968, -3.1416], a=3.1416, v=0.0187, r=Zone001)
  movej([-1.4017, -1.6963, -2.0934, -2.4935, -1.4017, -3.1416], a=3.1416, v=0.0194, r=Zone001)
  movej([-1.4062, -1.7021, -2.0865, -2.4945, -1.4062, -3.1416], a=3.1416, v=0.0199, r=Zone001)
  movej([-1.4102, -1.708, -2.0795, -2.4956, -1.4102, -3.1416], a=3.1416, v=0.0204, r=Zone001)
  movej([-1.4138, -1.714, -2.0723, -2.4968, -1.4138, -3.1416], a=3.1416, v=0.0208, r=Zone001)
  movej([-1.4169, -1.7201, -2.065, -2.4981, -1.4169, -3.1416], a=3.1416, v=0.0212, r=Zone001)
  movej([-1.4195, -1.7261, -2.0577, -2.4994, -1.4195, -3.1416], a=3.1416, v=0.0214, r=Zone001)
  movej([-1.4217, -1.7322, -2.0503, -2.5007, -1.4217, -3.1416], a=3.1416, v=0.0215, r=Zone001)
  movej([-1.4234, -1.7383, -2.0428, -2.5021, -1.4234, -3.1416], a=3.1416, v=0.0216, r=Zone001)
  movej([-1.4246, -1.7443, -2.0354, -2.5035, -1.4246, -3.1416], a=3.1416, v=0.0216, r=Zone001)
  movej([-1.4254, -1.7502, -2.028, -2.505, -1.4254, -3.1416], a=3.1416, v=0.0215, r=Zone001)
  movej([-1.4257, -1.756, -2.0207, -2.5064, -1.4257, -3.1416], a=3.1416, v=0.0213, r=Zone001)
  movej([-1.4256, -1.7617, -2.0135, -2.5079, -1.4256, -3.1416], a=3.1416, v=0.021, r=Zone001)
  movej([-1.4251, -1.7673, -2.0064, -2.5094, -1.4251, -3.1416], a=3.1416, v=0.0206, r=Zone001)
  movej([-1.4241, -1.7728, -1.9995, -2.5109, -1.4241, -3.1416], a=3.1416, v=0.0202, r=Zone001)
  movej([-1.4227, -1.7781, -1.9927, -2.5124, -1.4227, -3.1416], a=3.1416, v=0.0197, r=Zone001)
  movej([-1.4209, -1.7832, -1.9862, -2.5139, -1.4209, -3.1416], a=3.1416, v=0.0191, r=Zone001)
  movej([-1.4187, -1.7881, -1.9798, -2.5153, -1.4187, -3.1416], a=3.1416, v=0.0184, r=Zone001)
  movej([-1.4162, -1.7927, -1.9737, -2.5167, -1.4162, -3.1416], a=3.1416, v=0.0177, r=Zone001)
  movej([-1.4133, -1.7972, -1.9679, -2.5181, -1.4133, -3.1416], a=3.1416, v=0.0169, r=Zone001)
  movej([-1.41, -1.8014, -1.9624, -2.5194, -1.41, -3.1416], a=3.1416, v=0.0161, r=Zone001)
  movej([-1.4065, -1.8053, -1.9572, -2.5207, -1.4065, -3.1416], a=3.1416, v=0.0152, r=Zone001)
  movej([-1.4026, -1.809, -1.9523, -2.5219, -1.4026, -3.1416], a=3.1416, v=0.0142, r=Zone001)
  movej([-1.3984, -1.8124, -1.9478, -2.523, -1.3984, -3.1416], a=3.1416, v=0.0132, r=Zone001)
  movej([-1.394, -1.8156, -1.9436, -2.524, -1.394, -3.1416], a=3.1416, v=0.0129, r=Zone001)
  movej([-1.3893, -1.8184, -1.9398, -2.525, -1.3893, -3.1416], a=3.1416, v=0.0137, r=Zone001)
  movej([-1.3844, -1.8209, -1.9364, -2.5259, -1.3844, -3.1416], a=3.1416, v=0.0144, r=Zone001)
  movej([-1.3792, -1.8231, -1.9334, -2.5266, -1.3792, -3.1416], a=3.1416, v=0.015, r=Zone001)
  movej([-1.3739, -1.825, -1.9308, -2.5273, -1.3739, -3.1416], a=3.1416, v=0.0156, r=Zone001)
  movej([-1.3684, -1.8266, -1.9287, -2.5279, -1.3684, -3.1416], a=3.1416, v=0.0161, r=Zone001)
  movej([-1.3627, -1.8279, -1.9269, -2.5284, -1.3627, -3.1416], a=3.1416, v=0.0166, r=Zone001)
  movej([-1.3568, -1.8288, -1.9256, -2.5287, -1.3568, -3.1416], a=3.1416, v=0.0171, r=Zone001)
  movej([-1.3508, -1.8294, -1.9248, -2.529, -1.3508, -3.1416], a=3.1416, v=0.0175, r=Zone001)
  movej([-1.3447, -1.8297, -1.9244, -2.5291, -1.3447, -3.1416], a=3.1416, v=0.0178, r=Zone001)
  movej([-1.3385, -1.8296, -1.9244, -2.5291, -1.3385, -3.1416], a=3.1416, v=0.0181, r=Zone001)
  movej([-1.3323, -1.8292, -1.9249, -2.5291, -1.3323, -3.1416], a=3.1416, v=0.0183, r=Zone001)
  movej([-1.3259, -1.8285, -1.9258, -2.5289, -1.3259, -3.1416], a=3.1416, v=0.0185, r=Zone001)
  movej([-1.3196, -1.8274, -1.9272, -2.5286, -1.3196, -3.1416], a=3.1416, v=0.0186, r=Zone001)
  movej([-1.3132, -1.8261, -1.929, -2.5281, -1.3132, -3.1416], a=3.1416, v=0.0187, r=Zone001)
  movej([-1.3068, -1.8244, -1.9312, -2.5276, -1.3068, -3.1416], a=3.1416, v=0.0187, r=Zone001)
  movej([-1.3004, -1.8223, -1.9339, -2.527, -1.3004, -3.1416], a=3.1416, v=0.0186, r=Zone001)
  movej([-1.294, -1.82, -1.9369, -2.5263, -1.294, -3.1416], a=3.1416, v=0.0186, r=Zone001)
  movej([-1.2877, -1.8173, -1.9404, -2.5255, -1.2877, -3.1416], a=3.1416, v=0.0184, r=Zone001)
  movej([-1.2815, -1.8144, -1.9442, -2.5246, -1.2815, -3.1416], a=3.1416, v=0.0182, r=Zone001)
  movej([-1.2754, -1.8112, -1.9484, -2.5236, -1.2754, -3.1416], a=3.1416, v=0.0179, r=Zone001)
  movej([-1.2693, -1.8077, -1.953, -2.5225, -1.2693, -3.1416], a=3.1416, v=0.0176, r=Zone001)
  movej([-1.2634, -1.8039, -1.9579, -2.5214, -1.2634, -3.1416], a=3.1416, v=0.0173, r=Zone001)
  movej([-1.2577, -1.7998, -1.9632, -2.5202, -1.2577, -3.1416], a=3.1416, v=0.0168, r=Zone001)
  movej([-1.2521, -1.7955, -1.9687, -2.519, -1.2521, -3.1416], a=3.1416, v=0.0163, r=Zone001)
  movej([-1.2467, -1.791, -1.9745, -2.5177, -1.2467, -3.1416], a=3.1416, v=0.017, r=Zone001)
  movej([-1.2415, -1.7862, -1.9806, -2.5164, -1.2415, -3.1416], a=3.1416, v=0.0178, r=Zone001)
  movej([-1.2365, -1.7813, -1.9869, -2.515, -1.2365, -3.1416], a=3.1416, v=0.0185, r=Zone001)
  movej([-1.2318, -1.7761, -1.9935, -2.5136, -1.2318, -3.1416], a=3.1416, v=0.0191, r=Zone001)
  movej([-1.2273, -1.7707, -2.0002, -2.5122, -1.2273, -3.1416], a=3.1416, v=0.0197, r=Zone001)
  movej([-1.2232, -1.7652, -2.0071, -2.5108, -1.2232, -3.1416], a=3.1416, v=0.0202, r=Zone001)
  movej([-1.2193, -1.7596, -2.0142, -2.5094, -1.2193, -3.1416], a=3.1416, v=0.0206, r=Zone001)
  movej([-1.2157, -1.7538, -2.0213, -2.508, -1.2157, -3.1416], a=3.1416, v=0.0209, r=Zone001)
  movej([-1.2125, -1.748, -2.0285, -2.5067, -1.2125, -3.1416], a=3.1416, v=0.0212, r=Zone001)
  movej([-1.2097, -1.742, -2.0358, -2.5053, -1.2097, -3.1416], a=3.1416, v=0.0214, r=Zone001)
  movej([-1.2072, -1.736, -2.0432, -2.504, -1.2072, -3.1416], a=3.1416, v=0.0215, r=Zone001)
  movej([-1.2051, -1.7299, -2.0505, -2.5028, -1.2051, -3.1416], a=3.1416, v=0.0215, r=Zone001)
  movej([-1.2034, -1.7238, -2.0578, -2.5015, -1.2034, -3.1416], a=3.1416, v=0.0214, r=Zone001)
  movej([-1.2022, -1.7178, -2.065, -2.5004, -1.2022, -3.1416], a=3.1416, v=0.0212, r=Zone001)
  movej([-1.2014, -1.7118, -2.0722, -2.4992, -1.2014, -3.1416], a=3.1416, v=0.021, r=Zone001)
  movej([-1.201, -1.7058, -2.0792, -2.4982, -1.201, -3.1416], a=3.1416, v=0.0206, r=Zone001)
  movej([-1.2011, -1.6999, -2.0861, -2.4972, -1.2011, -3.1416], a=3.1416, v=0.0202, r=Zone001)
  movej([-1.2017, -1.6941, -2.0928, -2.4962, -1.2017, -3.1416], a=3.1416, v=0.0197, r=Zone001)
  movej([-1.2028, -1.6885, -2.0993, -2.4954, -1.2028, -3.1416], a=3.1416, v=0.0191, r=Zone001)
  movej([-1.2043, -1.683, -2.1056, -2.4946, -1.2043, -3.1416], a=3.1416, v=0.0184, r=Zone001)
  movej([-1.2064, -1.6777, -2.1116, -2.4938, -1.2064, -3.1416], a=3.1416, v=0.0176, r=Zone001)
  movej([-1.2089, -1.6727, -2.1173, -2.4932, -1.2089, -3.1416], a=3.1416, v=0.0168, r=Zone001)
  movej([-1.2119, -1.6679, -2.1227, -2.4926, -1.2119, -3.1416], a=3.1416, v=0.0159, r=Zone001)
  movej([-1.2155, -1.6633, -2.1278, -2.492, -1.2155, -3.1416], a=3.1416, v=0.0149, r=Zone001)
  movej([-1.2194, -1.6591, -2.1325, -2.4916, -1.2194, -3.1416], a=3.1416, v=0.0138, r=Zone001)
  movej([-1.2239, -1.6552, -2.1368, -2.4911, -1.2239, -3.1416], a=3.1416, v=0.0131, r=Zone001)
  movej([-1.2288, -1.6516, -2.1407, -2.4908, -1.2288, -3.1416], a=3.1416, v=0.0144, r=Zone001)
  movej([-1.2341, -1.6484, -2.1442, -2.4905, -1.2341, -3.1416], a=3.1416, v=0.0157, r=Zone001)
  movej([-1.2399, -1.6456, -2.1473, -2.4903, -1.2399, -3.1416], a=3.1416, v=0.0169, r=Zone001)
  movej([-1.246, -1.6432, -2.1499, -2.4901, -1.246, -3.1416], a=3.1416, v=0.018, r=Zone001)
  movej([-1.2525, -1.6413, -2.152, -2.4899, -1.2525, -3.1416], a=3.1416, v=0.019, r=Zone001)
  movej([-1.2593, -1.6397, -2.1536, -2.4898, -1.2593, -3.1416], a=3.1416, v=0.02, r=Zone001)
  movej([-1.2663, -1.6386, -2.1548, -2.4898, -1.2663, -3.1416], a=3.1416, v=0.0208, r=Zone001)
  movej([-1.2737, -1.638, -2.1555, -2.4898, -1.2737, -3.1416], a=3.1416, v=0.0216, r=Zone001)
  movej([-1.2812, -1.6378, -2.1556, -2.4898, -1.2812, -3.1416], a=3.1416, v=0.0222, r=Zone001)
  movej([-1.2889, -1.638, -2.1553, -2.4899, -1.2889, -3.1416], a=3.1416, v=0.0227, r=Zone001)
  movej([-1.2968, -1.6387, -2.1545, -2.49, -1.2968, -3.1416], a=3.1416, v=0.023, r=Zone001)
  movej([-1.3047, -1.6399, -2.1532, -2.4901, -1.3047, -3.1416], a=3.1416, v=0.0233, r=Zone001)
  movej([-1.3126, -1.6415, -2.1514, -2.4903, -1.3126, -3.1416], a=3.1416, v=0.0234, r=Zone001)
  movej([-1.3206, -1.6435, -2.1491, -2.4906, -1.3206, -3.1416], a=3.1416, v=0.0233, r=Zone001)
  movej([-1.3284, -1.6459, -2.1464, -2.4909, -1.3284, -3.1416], a=3.1416, v=0.0232, r=Zone001)
  movej([-1.3362, -1.6488, -2.1432, -2.4912, -1.3362, -3.1416], a=3.1416, v=0.0229, r=Zone001)
  movej([-1.3438, -1.652, -2.1396, -2.4916, -1.3438, -3.1416], a=3.1416, v=0.0225, r=Zone001)
  movej([-1.3513, -1.6556, -2.1355, -2.4921, -1.3513, -3.1416], a=3.1416, v=0.022, r=Zone001)
  movej([-1.3585, -1.6595, -2.1311, -2.4926, -1.3585, -3.1416], a=3.1416, v=0.0213, r=Zone001)
  movej([-1.3655, -1.6638, -2.1263, -2.4931, -1.3655, -3.1416], a=3.1416, v=0.0205, r=Zone001)
  movej([-1.3722, -1.6683, -2.1211, -2.4938, -1.3722, -3.1416], a=3.1416, v=0.0197, r=Zone001)
  movej([-1.3786, -1.6731, -2.1156, -2.4945, -1.3786, -3.1416], a=3.1416, v=0.0188, r=Zone001)
  movej([-1.3846, -1.6781, -2.1098, -2.4952, -1.3846, -3.1416], a=3.1416, v=0.0177, r=Zone001)
  movej([-1.3902, -1.6834, -2.1037, -2.4961, -1.3902, -3.1416], a=3.1416, v=0.0179, r=Zone001)
  movej([-1.3955, -1.6888, -2.0974, -2.497, -1.3955, -3.1416], a=3.1416, v=0.0187, r=Zone001)
  movej([-1.4003, -1.6944, -2.0908, -2.4979, -1.4003, -3.1416], a=3.1416, v=0.0193, r=Zone001)
  movej([-1.4047, -1.7002, -2.0841, -2.499, -1.4047, -3.1416], a=3.1416, v=0.0199, r=Zone001)
  movej([-1.4087, -1.706, -2.0771, -2.5, -1.4087, -3.1416], a=3.1416, v=0.0204, r=Zone001)
  movej([-1.4122, -1.7119, -2.0701, -2.5012, -1.4122, -3.1416], a=3.1416, v=0.0208, r=Zone001)
  movej([-1.4153, -1.7179, -2.0629, -2.5024, -1.4153, -3.1416], a=3.1416, v=0.0211, r=Zone001)
  movej([-1.4179, -1.7238, -2.0557, -2.5037, -1.4179, -3.1416], a=3.1416, v=0.0214, r=Zone001)
  movej([-1.42, -1.7298, -2.0484, -2.505, -1.42, -3.1416], a=3.1416, v=0.0215, r=Zone001)
  movej([-1.4217, -1.7358, -2.0411, -2.5063, -1.4217, -3.1416], a=3.1416, v=0.0216, r=Zone001)
  movej([-1.4229, -1.7417, -2.0338, -2.5077, -1.4229, -3.1416], a=3.1416, v=0.0215, r=Zone001)
  movej([-1.4237, -1.7476, -2.0265, -2.5091, -1.4237, -3.1416], a=3.1416, v=0.0214, r=Zone001)
  movej([-1.424, -1.7533, -2.0193, -2.5105, -1.424, -3.1416], a=3.1416, v=0.0212, r=Zone001)
  movej([-1.4239, -1.759, -2.0122, -2.512, -1.4239, -3.1416], a=3.1416, v=0.021, r=Zone001)
  movej([-1.4234, -1.7645, -2.0053, -2.5134, -1.4234, -3.1416], a=3.1416, v=0.0206, r=Zone001)
  movej([-1.4224, -1.7699, -1.9984, -2.5149, -1.4224, -3.1416], a=3.1416, v=0.0202, r=Zone001)
  movej([-1.4211, -1.7751, -1.9918, -2.5163, -1.4211, -3.1416], a=3.1416, v=0.0197, r=Zone001)
  movej([-1.4193, -1.7801, -1.9853, -2.5177, -1.4193, -3.1416], a=3.1416, v=0.0191, r=Zone001)
  movej([-1.4172, -1.785, -1.9791, -2.5191, -1.4172, -3.1416], a=3.1416, v=0.0184, r=Zone001)
  movej([-1.4147, -1.7896, -1.9731, -2.5205, -1.4147, -3.1416], a=3.1416, v=0.0177, r=Zone001)
  movej([-1.4118, -1.794, -1.9674, -2.5218, -1.4118, -3.1416], a=3.1416, v=0.0169, r=Zone001)
  movej([-1.4086, -1.7981, -1.9619, -2.5231, -1.4086, -3.1416], a=3.1416, v=0.0161, r=Zone001)
  movej([-1.4051, -1.8021, -1.9568, -2.5243, -1.4051, -3.1416], a=3.1416, v=0.0152, r=Zone001)
  movej([-1.4013, -1.8057, -1.952, -2.5255, -1.4013, -3.1416], a=3.1416, v=0.0142, r=Zone001)
  movej([-1.3972, -1.8091, -1.9475, -2.5266, -1.3972, -3.1416], a=3.1416, v=0.0132, r=Zone001)
  movej([-1.3929, -1.8122, -1.9434, -2.5276, -1.3929, -3.1416], a=3.1416, v=0.0129, r=Zone001)
  movej([-1.3883, -1.8149, -1.9397, -2.5286, -1.3883, -3.1416], a=3.1416, v=0.0137, r=Zone001)
  movej([-1.3834, -1.8174, -1.9363, -2.5294, -1.3834, -3.1416], a=3.1416, v=0.0144, r=Zone001)
  movej([-1.3783, -1.8196, -1.9334, -2.5302, -1.3783, -3.1416], a=3.1416, v=0.015, r=Zone001)
  movej([-1.3731, -1.8215, -1.9308, -2.5308, -1.3731, -3.1416], a=3.1416, v=0.0156, r=Zone001)
  movej([-1.3676, -1.8231, -1.9287, -2.5314, -1.3676, -3.1416], a=3.1416, v=0.0162, r=Zone001)
  movej([-1.362, -1.8243, -1.927, -2.5319, -1.362, -3.1416], a=3.1416, v=0.0166, r=Zone001)
  movej([-1.3562, -1.8252, -1.9257, -2.5322, -1.3562, -3.1416], a=3.1416, v=0.0171, r=Zone001)
  movej([-1.3503, -1.8258, -1.9249, -2.5324, -1.3503, -3.1416], a=3.1416, v=0.0175, r=Zone001)
  movej([-1.3443, -1.8261, -1.9245, -2.5326, -1.3443, -3.1416], a=3.1416, v=0.0178, r=Zone001)
  movej([-1.3382, -1.826, -1.9245, -2.5326, -1.3382, -3.1416], a=3.1416, v=0.0181, r=Zone001)
  movej([-1.332, -1.8256, -1.925, -2.5325, -1.332, -3.1416], a=3.1416, v=0.0183, r=Zone001)
  movej([-1.3258, -1.8249, -1.9259, -2.5323, -1.3258, -3.1416], a=3.1416, v=0.0185, r=Zone001)
  movej([-1.3195, -1.8239, -1.9273, -2.532, -1.3195, -3.1416], a=3.1416, v=0.0186, r=Zone001)
  movej([-1.3132, -1.8225, -1.929, -2.5316, -1.3132, -3.1416], a=3.1416, v=0.0187, r=Zone001)
  movej([-1.3069, -1.8208, -1.9312, -2.5311, -1.3069, -3.1416], a=3.1416, v=0.0187, r=Zone001)
  movej([-1.3006, -1.8188, -1.9338, -2.5305, -1.3006, -3.1416], a=3.1416, v=0.0187, r=Zone001)
  movej([-1.2943, -1.8165, -1.9368, -2.5298, -1.2943, -3.1416], a=3.1416, v=0.0186, r=Zone001)
  movej([-1.2881, -1.8139, -1.9403, -2.529, -1.2881, -3.1416], a=3.1416, v=0.0184, r=Zone001)
  movej([-1.282, -1.811, -1.944, -2.5282, -1.282, -3.1416], a=3.1416, v=0.0182, r=Zone001)
  movej([-1.2759, -1.8078, -1.9482, -2.5272, -1.2759, -3.1416], a=3.1416, v=0.018, r=Zone001)
  movej([-1.27, -1.8043, -1.9527, -2.5262, -1.27, -3.1416], a=3.1416, v=0.0176, r=Zone001)
  movej([-1.2642, -1.8006, -1.9575, -2.5251, -1.2642, -3.1416], a=3.1416, v=0.0173, r=Zone001)
  movej([-1.2585, -1.7966, -1.9627, -2.5239, -1.2585, -3.1416], a=3.1416, v=0.0168, r=Zone001)
  movej([-1.253, -1.7923, -1.9681, -2.5227, -1.253, -3.1416], a=3.1416, v=0.0164, r=Zone001)
  movej([-1.2477, -1.7879, -1.9739, -2.5215, -1.2477, -3.1416], a=3.1416, v=0.017, r=Zone001)
  movej([-1.2426, -1.7832, -1.9798, -2.5202, -1.2426, -3.1416], a=3.1416, v=0.0178, r=Zone001)
  movej([-1.2377, -1.7782, -1.9861, -2.5189, -1.2377, -3.1416], a=3.1416, v=0.0185, r=Zone001)
  movej([-1.233, -1.7731, -1.9925, -2.5175, -1.233, -3.1416], a=3.1416, v=0.0191, r=Zone001)
  movej([-1.2286, -1.7679, -1.9991, -2.5162, -1.2286, -3.1416], a=3.1416, v=0.0197, r=Zone001)
  movej([-1.2245, -1.7624, -2.0059, -2.5148, -1.2245, -3.1416], a=3.1416, v=0.0202, r=Zone001)
  movej([-1.2207, -1.7569, -2.0128, -2.5135, -1.2207, -3.1416], a=3.1416, v=0.0206, r=Zone001)
  movej([-1.2172, -1.7512, -2.0199, -2.5121, -1.2172, -3.1416], a=3.1416, v=0.0209, r=Zone001)
  movej([-1.2141, -1.7454, -2.027, -2.5108, -1.2141, -3.1416], a=3.1416, v=0.0212, r=Zone001)
  movej([-1.2113, -1.7395, -2.0342, -2.5095, -1.2113, -3.1416], a=3.1416, v=0.0214, r=Zone001)
  movej([-1.2088, -1.7335, -2.0414, -2.5082, -1.2088, -3.1416], a=3.1416, v=0.0214, r=Zone001)
  movej([-1.2068, -1.7276, -2.0486, -2.507, -1.2068, -3.1416], a=3.1416, v=0.0214, r=Zone001)
  movej([-1.2052, -1.7216, -2.0558, -2.5058, -1.2052, -3.1416], a=3.1416, v=0.0214, r=Zone001)
  movej([-1.2039, -1.7156, -2.0629, -2.5047, -1.2039, -3.1416], a=3.1416, v=0.0212, r=Zone001)
  movej([-1.2032, -1.7096, -2.0699, -2.5036, -1.2032, -3.1416], a=3.1416, v=0.0209, r=Zone001)
  movej([-1.2028, -1.7038, -2.0768, -2.5026, -1.2028, -3.1416], a=3.1416, v=0.0206, r=Zone001)
  movej([-1.2029, -1.698, -2.0836, -2.5016, -1.2029, -3.1416], a=3.1416, v=0.0202, r=Zone001)
  movej([-1.2035, -1.6923, -2.0902, -2.5007, -1.2035, -3.1416], a=3.1416, v=0.0197, r=Zone001)
  movej([-1.2046, -1.6867, -2.0966, -2.4999, -1.2046, -3.1416], a=3.1416, v=0.0191, r=Zone001)
  movej([-1.2061, -1.6813, -2.1028, -2.4991, -1.2061, -3.1416], a=3.1416, v=0.0184, r=Zone001)
  movej([-1.2082, -1.6761, -2.1087, -2.4984, -1.2082, -3.1416], a=3.1416, v=0.0176, r=Zone001)
  movej([-1.2107, -1.6712, -2.1143, -2.4977, -1.2107, -3.1416], a=3.1416, v=0.0168, r=Zone001)
  movej([-1.2137, -1.6664, -2.1196, -2.4972, -1.2137, -3.1416], a=3.1416, v=0.0158, r=Zone001)
  movej([-1.2171, -1.662, -2.1246, -2.4966, -1.2171, -3.1416], a=3.1416, v=0.0148, r=Zone001)
  movej([-1.2211, -1.6578, -2.1292, -2.4962, -1.2211, -3.1416], a=3.1416, v=0.0138, r=Zone001)
  movej([-1.2254, -1.6539, -2.1334, -2.4958, -1.2254, -3.1416], a=3.1416, v=0.0131, r=Zone001)
  movej([-1.2303, -1.6504, -2.1373, -2.4955, -1.2303, -3.1416], a=3.1416, v=0.0144, r=Zone001)
  movej([-1.2355, -1.6473, -2.1407, -2.4952, -1.2355, -3.1416], a=3.1416, v=0.0157, r=Zone001)
  movej([-1.2412, -1.6445, -2.1437, -2.4949, -1.2412, -3.1416], a=3.1416, v=0.0169, r=Zone001)
  movej([-1.2472, -1.6422, -2.1463, -2.4948, -1.2472, -3.1416], a=3.1416, v=0.018, r=Zone001)
  movej([-1.2536, -1.6402, -2.1483, -2.4946, -1.2536, -3.1416], a=3.1416, v=0.019, r=Zone001)
  movej([-1.2602, -1.6387, -2.15, -2.4945, -1.2602, -3.1416], a=3.1416, v=0.02, r=Zone001)
  movej([-1.2672, -1.6376, -2.1511, -2.4945, -1.2672, -3.1416], a=3.1416, v=0.0208, r=Zone001)
  movej([-1.2744, -1.637, -2.1517, -2.4945, -1.2744, -3.1416], a=3.1416, v=0.0215, r=Zone001)
  movej([-1.2818, -1.6368, -2.1519, -2.4945, -1.2818, -3.1416], a=3.1416, v=0.0221, r=Zone001)
  movej([-1.2894, -1.637, -2.1516, -2.4946, -1.2894, -3.1416], a=3.1416, v=0.0226, r=Zone001)
  movej([-1.2971, -1.6377, -2.1508, -2.4947, -1.2971, -3.1416], a=3.1416, v=0.023, r=Zone001)
  movej([-1.3049, -1.6389, -2.1495, -2.4948, -1.3049, -3.1416], a=3.1416, v=0.0232, r=Zone001)
  movej([-1.3127, -1.6404, -2.1477, -2.495, -1.3127, -3.1416], a=3.1416, v=0.0233, r=Zone001)
  movej([-1.3204, -1.6424, -2.1455, -2.4953, -1.3204, -3.1416], a=3.1416, v=0.0233, r=Zone001)
  movej([-1.3282, -1.6448, -2.1428, -2.4956, -1.3282, -3.1416], a=3.1416, v=0.0231, r=Zone001)
  movej([-1.3358, -1.6476, -2.1397, -2.4959, -1.3358, -3.1416], a=3.1416, v=0.0229, r=Zone001)
  movej([-1.3433, -1.6508, -2.1361, -2.4963, -1.3433, -3.1416], a=3.1416, v=0.0224, r=Zone001)
  movej([-1.3507, -1.6543, -2.1321, -2.4967, -1.3507, -3.1416], a=3.1416, v=0.0219, r=Zone001)
  movej([-1.3578, -1.6582, -2.1278, -2.4972, -1.3578, -3.1416], a=3.1416, v=0.0213, r=Zone001)
  movej([-1.3646, -1.6624, -2.123, -2.4978, -1.3646, -3.1416], a=3.1416, v=0.0205, r=Zone001)
  movej([-1.3712, -1.6668, -2.118, -2.4984, -1.3712, -3.1416], a=3.1416, v=0.0197, r=Zone001)
  movej([-1.3775, -1.6716, -2.1126, -2.4991, -1.3775, -3.1416], a=3.1416, v=0.0187, r=Zone001)
  movej([-1.3834, -1.6765, -2.1069, -2.4998, -1.3834, -3.1416], a=3.1416, v=0.0177, r=Zone001)
  movej([-1.3889, -1.6817, -2.1009, -2.5006, -1.3889, -3.1416], a=3.1416, v=0.0179, r=Zone001)
  movej([-1.3941, -1.6871, -2.0947, -2.5015, -1.3941, -3.1416], a=3.1416, v=0.0186, r=Zone001)
  movej([-1.3989, -1.6926, -2.0882, -2.5024, -1.3989, -3.1416], a=3.1416, v=0.0193, r=Zone001)
  movej([-1.4032, -1.6982, -2.0816, -2.5034, -1.4032, -3.1416], a=3.1416, v=0.0199, r=Zone001)
  movej([-1.4071, -1.704, -2.0748, -2.5044, -1.4071, -3.1416], a=3.1416, v=0.0204, r=Zone001)
  movej([-1.4106, -1.7098, -2.0678, -2.5056, -1.4106, -3.1416], a=3.1416, v=0.0208, r=Zone001)
  movej([-1.4136, -1.7157, -2.0608, -2.5067, -1.4136, -3.1416], a=3.1416, v=0.0211, r=Zone001)
  movej([-1.4162, -1.7216, -2.0537, -2.5079, -1.4162, -3.1416], a=3.1416, v=0.0213, r=Zone001)
  movej([-1.4183, -1.7275, -2.0465, -2.5092, -1.4183, -3.1416], a=3.1416, v=0.0215, r=Zone001)
  movej([-1.42, -1.7334, -2.0393, -2.5105, -1.42, -3.1416], a=3.1416, v=0.0216, r=Zone001)
  movej([-1.4212, -1.7392, -2.0321, -2.5118, -1.4212, -3.1416], a=3.1416, v=0.0215, r=Zone001)
  movej([-1.422, -1.745, -2.025, -2.5132, -1.422, -3.1416], a=3.1416, v=0.0214, r=Zone001)
  movej([-1.4223, -1.7507, -2.0179, -2.5146, -1.4223, -3.1416], a=3.1416, v=0.0212, r=Zone001)
  movej([-1.4222, -1.7563, -2.0109, -2.516, -1.4222, -3.1416], a=3.1416, v=0.021, r=Zone001)
  movej([-1.4217, -1.7617, -2.0041, -2.5174, -1.4217, -3.1416], a=3.1416, v=0.0206, r=Zone001)
  movej([-1.4208, -1.767, -1.9973, -2.5188, -1.4208, -3.1416], a=3.1416, v=0.0202, r=Zone001)
  movej([-1.4195, -1.7722, -1.9908, -2.5202, -1.4195, -3.1416], a=3.1416, v=0.0197, r=Zone001)
  movej([-1.4177, -1.7771, -1.9844, -2.5216, -1.4177, -3.1416], a=3.1416, v=0.0191, r=Zone001)
  movej([-1.4156, -1.7819, -1.9783, -2.523, -1.4156, -3.1416], a=3.1416, v=0.0184, r=Zone001)
  movej([-1.4132, -1.7865, -1.9724, -2.5243, -1.4132, -3.1416], a=3.1416, v=0.0177, r=Zone001)
  movej([-1.4104, -1.7908, -1.9668, -2.5256, -1.4104, -3.1416], a=3.1416, v=0.0169, r=Zone001)
  movej([-1.4073, -1.7949, -1.9614, -2.5268, -1.4073, -3.1416], a=3.1416, v=0.0161, r=Zone001)
  movej([-1.4038, -1.7988, -1.9564, -2.528, -1.4038, -3.1416], a=3.1416, v=0.0152, r=Zone001)
  movej([-1.4001, -1.8024, -1.9516, -2.5292, -1.4001, -3.1416], a=3.1416, v=0.0142, r=Zone001)
  movej([-1.396, -1.8057, -1.9472, -2.5302, -1.396, -3.1416], a=3.1416, v=0.0132, r=Zone001)
  movej([-1.3917, -1.8088, -1.9432, -2.5312, -1.3917, -3.1416], a=3.1416, v=0.0129, r=Zone001)
  movej([-1.3872, -1.8115, -1.9395, -2.5321, -1.3872, -3.1416], a=3.1416, v=0.0137, r=Zone001)
  movej([-1.3824, -1.814, -1.9362, -2.533, -1.3824, -3.1416], a=3.1416, v=0.0144, r=Zone001)
  movej([-1.3774, -1.8161, -1.9333, -2.5337, -1.3774, -3.1416], a=3.1416, v=0.015, r=Zone001)
  movej([-1.3722, -1.818, -1.9308, -2.5343, -1.3722, -3.1416], a=3.1416, v=0.0156, r=Zone001)
  movej([-1.3668, -1.8196, -1.9287, -2.5349, -1.3668, -3.1416], a=3.1416, v=0.0162, r=Zone001)
  movej([-1.3613, -1.8208, -1.9271, -2.5353, -1.3613, -3.1416], a=3.1416, v=0.0167, r=Zone001)
  movej([-1.3556, -1.8217, -1.9258, -2.5357, -1.3556, -3.1416], a=3.1416, v=0.0171, r=Zone001)
  movej([-1.3498, -1.8223, -1.925, -2.5359, -1.3498, -3.1416], a=3.1416, v=0.0175, r=Zone001)
  movej([-1.3439, -1.8225, -1.9246, -2.5361, -1.3439, -3.1416], a=3.1416, v=0.0178, r=Zone001)
  movej([-1.3379, -1.8225, -1.9246, -2.5361, -1.3379, -3.1416], a=3.1416, v=0.0181, r=Zone001)
  movej([-1.3318, -1.8221, -1.9251, -2.536, -1.3318, -3.1416], a=3.1416, v=0.0184, r=Zone001)
  movej([-1.3256, -1.8214, -1.926, -2.5358, -1.3256, -3.1416], a=3.1416, v=0.0185, r=Zone001)
  movej([-1.3194, -1.8203, -1.9273, -2.5355, -1.3194, -3.1416], a=3.1416, v=0.0187, r=Zone001)
  movej([-1.3132, -1.819, -1.9291, -2.5351, -1.3132, -3.1416], a=3.1416, v=0.0187, r=Zone001)
  movej([-1.307, -1.8173, -1.9312, -2.5346, -1.307, -3.1416], a=3.1416, v=0.0187, r=Zone001)
  movej([-1.3008, -1.8153, -1.9338, -2.5341, -1.3008, -3.1416], a=3.1416, v=0.0187, r=Zone001)
  movej([-1.2946, -1.8131, -1.9367, -2.5334, -1.2946, -3.1416], a=3.1416, v=0.0186, r=Zone001)
  movej([-1.2885, -1.8105, -1.9401, -2.5326, -1.2885, -3.1416], a=3.1416, v=0.0185, r=Zone001)
  movej([-1.2824, -1.8076, -1.9438, -2.5318, -1.2824, -3.1416], a=3.1416, v=0.0182, r=Zone001)
  movej([-1.2765, -1.8044, -1.9479, -2.5308, -1.2765, -3.1416], a=3.1416, v=0.018, r=Zone001)
  movej([-1.2706, -1.801, -1.9523, -2.5298, -1.2706, -3.1416], a=3.1416, v=0.0177, r=Zone001)
  movej([-1.2649, -1.7973, -1.9571, -2.5288, -1.2649, -3.1416], a=3.1416, v=0.0173, r=Zone001)
  movej([-1.2593, -1.7934, -1.9622, -2.5277, -1.2593, -3.1416], a=3.1416, v=0.0169, r=Zone001)
  movej([-1.2539, -1.7892, -1.9675, -2.5265, -1.2539, -3.1416], a=3.1416, v=0.0164, r=Zone001)
  movej([-1.2487, -1.7847, -1.9732, -2.5253, -1.2487, -3.1416], a=3.1416, v=0.017, r=Zone001)
  movej([-1.2436, -1.7801, -1.9791, -2.524, -1.2436, -3.1416], a=3.1416, v=0.0178, r=Zone001)
  movej([-1.2388, -1.7752, -1.9852, -2.5228, -1.2388, -3.1416], a=3.1416, v=0.0185, r=Zone001)
  movej([-1.2342, -1.7702, -1.9915, -2.5215, -1.2342, -3.1416], a=3.1416, v=0.0191, r=Zone001)
  movej([-1.2299, -1.765, -1.998, -2.5202, -1.2299, -3.1416], a=3.1416, v=0.0197, r=Zone001)
  movej([-1.2259, -1.7596, -2.0047, -2.5188, -1.2259, -3.1416], a=3.1416, v=0.0202, r=Zone001)
  movej([-1.2221, -1.7541, -2.0115, -2.5175, -1.2221, -3.1416], a=3.1416, v=0.0206, r=Zone001)
  movej([-1.2187, -1.7485, -2.0184, -2.5162, -1.2187, -3.1416], a=3.1416, v=0.0209, r=Zone001)
  movej([-1.2156, -1.7428, -2.0254, -2.5149, -1.2156, -3.1416], a=3.1416, v=0.0212, r=Zone001)
  movej([-1.2128, -1.737, -2.0325, -2.5137, -1.2128, -3.1416], a=3.1416, v=0.0213, r=Zone001)
  movej([-1.2105, -1.7311, -2.0396, -2.5125, -1.2105, -3.1416], a=3.1416, v=0.0214, r=Zone001)
  movej([-1.2085, -1.7252, -2.0467, -2.5113, -1.2085, -3.1416], a=3.1416, v=0.0214, r=Zone001)
  movej([-1.2069, -1.7193, -2.0537, -2.5101, -1.2069, -3.1416], a=3.1416, v=0.0213, r=Zone001)
  movej([-1.2057, -1.7134, -2.0607, -2.509, -1.2057, -3.1416], a=3.1416, v=0.0212, r=Zone001)
  movej([-1.2049, -1.7076, -2.0676, -2.508, -1.2049, -3.1416], a=3.1416, v=0.0209, r=Zone001)
  movej([-1.2046, -1.7018, -2.0744, -2.507, -1.2046, -3.1416], a=3.1416, v=0.0206, r=Zone001)
  movej([-1.2047, -1.696, -2.0811, -2.506, -1.2047, -3.1416], a=3.1416, v=0.0201, r=Zone001)
  movej([-1.2053, -1.6904, -2.0876, -2.5052, -1.2053, -3.1416], a=3.1416, v=0.0196, r=Zone001)
  movej([-1.2064, -1.685, -2.0939, -2.5044, -1.2064, -3.1416], a=3.1416, v=0.019, r=Zone001)
  movej([-1.2079, -1.6797, -2.0999, -2.5036, -1.2079, -3.1416], a=3.1416, v=0.0183, r=Zone001)
  movej([-1.2099, -1.6745, -2.1057, -2.5029, -1.2099, -3.1416], a=3.1416, v=0.0176, r=Zone001)
  movej([-1.2124, -1.6696, -2.1112, -2.5023, -1.2124, -3.1416], a=3.1416, v=0.0167, r=Zone001)
  movej([-1.2154, -1.665, -2.1165, -2.5017, -1.2154, -3.1416], a=3.1416, v=0.0158, r=Zone001)
  movej([-1.2188, -1.6606, -2.1213, -2.5013, -1.2188, -3.1416], a=3.1416, v=0.0148, r=Zone001)
  movej([-1.2227, -1.6565, -2.1259, -2.5008, -1.2227, -3.1416], a=3.1416, v=0.0138, r=Zone001)
  movej([-1.227, -1.6527, -2.13, -2.5004, -1.227, -3.1416], a=3.1416, v=0.0131, r=Zone001)
  movej([-1.2317, -1.6493, -2.1338, -2.5001, -1.2317, -3.1416], a=3.1416, v=0.0144, r=Zone001)
  movej([-1.2369, -1.6462, -2.1372, -2.4998, -1.2369, -3.1416], a=3.1416, v=0.0157, r=Zone001)
  movej([-1.2424, -1.6434, -2.1401, -2.4996, -1.2424, -3.1416], a=3.1416, v=0.0168, r=Zone001)
  movej([-1.2484, -1.6411, -2.1426, -2.4994, -1.2484, -3.1416], a=3.1416, v=0.018, r=Zone001)
  movej([-1.2546, -1.6392, -2.1447, -2.4993, -1.2546, -3.1416], a=3.1416, v=0.019, r=Zone001)
  movej([-1.2612, -1.6377, -2.1463, -2.4992, -1.2612, -3.1416], a=3.1416, v=0.0199, r=Zone001)
  movej([-1.268, -1.6366, -2.1474, -2.4992, -1.268, -3.1416], a=3.1416, v=0.0208, r=Zone001)
  movej([-1.2751, -1.636, -2.148, -2.4992, -1.2751, -3.1416], a=3.1416, v=0.0215, r=Zone001)
  movej([-1.2824, -1.6358, -2.1482, -2.4992, -1.2824, -3.1416], a=3.1416, v=0.0221, r=Zone001)
  movej([-1.2898, -1.6361, -2.1479, -2.4993, -1.2898, -3.1416], a=3.1416, v=0.0226, r=Zone001)
  movej([-1.2974, -1.6367, -2.1471, -2.4994, -1.2974, -3.1416], a=3.1416, v=0.0229, r=Zone001)
  movej([-1.305, -1.6379, -2.1458, -2.4995, -1.305, -3.1416], a=3.1416, v=0.0232, r=Zone001)
  movej([-1.3127, -1.6394, -2.1441, -2.4997, -1.3127, -3.1416], a=3.1416, v=0.0233, r=Zone001)
  movej([-1.3203, -1.6414, -2.1419, -2.4999, -1.3203, -3.1416], a=3.1416, v=0.0233, r=Zone001)
  movej([-1.328, -1.6437, -2.1392, -2.5002, -1.328, -3.1416], a=3.1416, v=0.0231, r=Zone001)
  movej([-1.3355, -1.6465, -2.1361, -2.5005, -1.3355, -3.1416], a=3.1416, v=0.0228, r=Zone001)
  movej([-1.3428, -1.6496, -2.1327, -2.5009, -1.3428, -3.1416], a=3.1416, v=0.0224, r=Zone001)
  movej([-1.35, -1.6531, -2.1288, -2.5013, -1.35, -3.1416], a=3.1416, v=0.0219, r=Zone001)
  movej([-1.357, -1.6569, -2.1245, -2.5018, -1.357, -3.1416], a=3.1416, v=0.0212, r=Zone001)
  movej([-1.3638, -1.661, -2.1198, -2.5024, -1.3638, -3.1416], a=3.1416, v=0.0205, r=Zone001)
  movej([-1.3702, -1.6654, -2.1148, -2.503, -1.3702, -3.1416], a=3.1416, v=0.0197, r=Zone001)
  movej([-1.3764, -1.67, -2.1095, -2.5036, -1.3764, -3.1416], a=3.1416, v=0.0187, r=Zone001)
  movej([-1.3822, -1.6749, -2.1039, -2.5043, -1.3822, -3.1416], a=3.1416, v=0.0177, r=Zone001)
  movej([-1.3877, -1.68, -2.0981, -2.5051, -1.3877, -3.1416], a=3.1416, v=0.0179, r=Zone001)
  movej([-1.3928, -1.6853, -2.0919, -2.5059, -1.3928, -3.1416], a=3.1416, v=0.0186, r=Zone001)
  movej([-1.3975, -1.6907, -2.0856, -2.5069, -1.3975, -3.1416], a=3.1416, v=0.0193, r=Zone001)
  movej([-1.4017, -1.6963, -2.0791, -2.5078, -1.4017, -3.1416], a=3.1416, v=0.0199, r=Zone001)
  movej([-1.4056, -1.702, -2.0724, -2.5088, -1.4056, -3.1416], a=3.1416, v=0.0204, r=Zone001)
  movej([-1.409, -1.7077, -2.0656, -2.5099, -1.409, -3.1416], a=3.1416, v=0.0208, r=Zone001)
  movej([-1.412, -1.7135, -2.0586, -2.511, -1.412, -3.1416], a=3.1416, v=0.0211, r=Zone001)
  movej([-1.4146, -1.7193, -2.0516, -2.5122, -1.4146, -3.1416], a=3.1416, v=0.0213, r=Zone001)
  movej([-1.4167, -1.7251, -2.0446, -2.5134, -1.4167, -3.1416], a=3.1416, v=0.0215, r=Zone001)
  movej([-1.4183, -1.7309, -2.0375, -2.5147, -1.4183, -3.1416], a=3.1416, v=0.0215, r=Zone001)
  movej([-1.4195, -1.7367, -2.0305, -2.516, -1.4195, -3.1416], a=3.1416, v=0.0215, r=Zone001)
  movej([-1.4203, -1.7424, -2.0234, -2.5173, -1.4203, -3.1416], a=3.1416, v=0.0214, r=Zone001)
  movej([-1.4206, -1.748, -2.0165, -2.5187, -1.4206, -3.1416], a=3.1416, v=0.0212, r=Zone001)
  movej([-1.4206, -1.7535, -2.0096, -2.52, -1.4206, -3.1416], a=3.1416, v=0.0209, r=Zone001)
  movej([-1.4201, -1.7589, -2.0029, -2.5214, -1.4201, -3.1416], a=3.1416, v=0.0206, r=Zone001)
  movej([-1.4192, -1.7642, -1.9962, -2.5228, -1.4192, -3.1416], a=3.1416, v=0.0202, r=Zone001)
  movej([-1.4179, -1.7692, -1.9898, -2.5241, -1.4179, -3.1416], a=3.1416, v=0.0197, r=Zone001)
  movej([-1.4162, -1.7741, -1.9836, -2.5255, -1.4162, -3.1416], a=3.1416, v=0.0191, r=Zone001)
  movej([-1.4141, -1.7789, -1.9775, -2.5268, -1.4141, -3.1416], a=3.1416, v=0.0184, r=Zone001)
  movej([-1.4117, -1.7834, -1.9717, -2.5281, -1.4117, -3.1416], a=3.1416, v=0.0177, r=Zone001)
  movej([-1.409, -1.7877, -1.9662, -2.5294, -1.409, -3.1416], a=3.1416, v=0.0169, r=Zone001)
  movej([-1.4059, -1.7917, -1.9609, -2.5306, -1.4059, -3.1416], a=3.1416, v=0.0161, r=Zone001)
  movej([-1.4025, -1.7955, -1.9559, -2.5317, -1.4025, -3.1416], a=3.1416, v=0.0152, r=Zone001)
  movej([-1.3988, -1.7991, -1.9513, -2.5328, -1.3988, -3.1416], a=3.1416, v=0.0142, r=Zone001)
  movej([-1.3948, -1.8024, -1.9469, -2.5339, -1.3948, -3.1416], a=3.1416, v=0.0132, r=Zone001)
  movej([-1.3906, -1.8054, -1.943, -2.5348, -1.3906, -3.1416], a=3.1416, v=0.0129, r=Zone001)
  movej([-1.3861, -1.8081, -1.9394, -2.5357, -1.3861, -3.1416], a=3.1416, v=0.0137, r=Zone001)
  movej([-1.3814, -1.8105, -1.9361, -2.5365, -1.3814, -3.1416], a=3.1416, v=0.0144, r=Zone001)
  movej([-1.3765, -1.8127, -1.9333, -2.5373, -1.3765, -3.1416], a=3.1416, v=0.015, r=Zone001)
  movej([-1.3714, -1.8145, -1.9308, -2.5379, -1.3714, -3.1416], a=3.1416, v=0.0156, r=Zone001)
  movej([-1.3661, -1.816, -1.9287, -2.5384, -1.3661, -3.1416], a=3.1416, v=0.0162, r=Zone001)
  movej([-1.3606, -1.8173, -1.9271, -2.5388, -1.3606, -3.1416], a=3.1416, v=0.0167, r=Zone001)
  movej([-1.355, -1.8182, -1.9259, -2.5392, -1.355, -3.1416], a=3.1416, v=0.0171, r=Zone001)
  movej([-1.3493, -1.8187, -1.925, -2.5394, -1.3493, -3.1416], a=3.1416, v=0.0175, r=Zone001)
  movej([-1.3435, -1.819, -1.9247, -2.5395, -1.3435, -3.1416], a=3.1416, v=0.0179, r=Zone001)
  movej([-1.3375, -1.8189, -1.9247, -2.5396, -1.3375, -3.1416], a=3.1416, v=0.0182, r=Zone001)
  movej([-1.3315, -1.8185, -1.9251, -2.5395, -1.3315, -3.1416], a=3.1416, v=0.0184, r=Zone001)
  movej([-1.3255, -1.8178, -1.926, -2.5393, -1.3255, -3.1416], a=3.1416, v=0.0186, r=Zone001)
  movej([-1.3194, -1.8168, -1.9273, -2.539, -1.3194, -3.1416], a=3.1416, v=0.0187, r=Zone001)
  movej([-1.3132, -1.8155, -1.929, -2.5387, -1.3132, -3.1416], a=3.1416, v=0.0188, r=Zone001)
  movej([-1.3071, -1.8138, -1.9312, -2.5382, -1.3071, -3.1416], a=3.1416, v=0.0188, r=Zone001)
  movej([-1.301, -1.8119, -1.9337, -2.5376, -1.301, -3.1416], a=3.1416, v=0.0187, r=Zone001)
  movej([-1.2949, -1.8096, -1.9366, -2.537, -1.2949, -3.1416], a=3.1416, v=0.0186, r=Zone001)
  movej([-1.2889, -1.8071, -1.9399, -2.5362, -1.2889, -3.1416], a=3.1416, v=0.0185, r=Zone001)
  movej([-1.2829, -1.8042, -1.9436, -2.5354, -1.2829, -3.1416], a=3.1416, v=0.0183, r=Zone001)
  movej([-1.277, -1.8011, -1.9476, -2.5345, -1.277, -3.1416], a=3.1416, v=0.018, r=Zone001)
  movej([-1.2713, -1.7977, -1.9519, -2.5335, -1.2713, -3.1416], a=3.1416, v=0.0177, r=Zone001)
  movej([-1.2656, -1.7941, -1.9566, -2.5325, -1.2656, -3.1416], a=3.1416, v=0.0173, r=Zone001)
  movej([-1.2601, -1.7902, -1.9616, -2.5314, -1.2601, -3.1416], a=3.1416, v=0.0169, r=Zone001)
  movej([-1.2548, -1.786, -1.9669, -2.5303, -1.2548, -3.1416], a=3.1416, v=0.0164, r=Zone001)
  movej([-1.2496, -1.7817, -1.9724, -2.5291, -1.2496, -3.1416], a=3.1416, v=0.017, r=Zone001)
  movej([-1.2447, -1.7771, -1.9782, -2.5279, -1.2447, -3.1416], a=3.1416, v=0.0178, r=Zone001)
  movej([-1.2399, -1.7723, -1.9843, -2.5266, -1.2399, -3.1416], a=3.1416, v=0.0185, r=Zone001)
  movej([-1.2354, -1.7673, -1.9905, -2.5254, -1.2354, -3.1416], a=3.1416, v=0.0191, r=Zone001)
  movej([-1.2312, -1.7622, -1.9969, -2.5241, -1.2312, -3.1416], a=3.1416, v=0.0197, r=Zone001)
  movej([-1.2272, -1.7569, -2.0035, -2.5229, -1.2272, -3.1416], a=3.1416, v=0.0202, r=Zone001)
  movej([-1.2235, -1.7514, -2.0102, -2.5216, -1.2235, -3.1416], a=3.1416, v=0.0206, r=Zone001)
  movej([-1.2202, -1.7459, -2.017, -2.5203, -1.2202, -3.1416], a=3.1416, v=0.0209, r=Zone001)
  movej([-1.2171, -1.7402, -2.0239, -2.5191, -1.2171, -3.1416], a=3.1416, v=0.0212, r=Zone001)
  movej([-1.2144, -1.7345, -2.0308, -2.5179, -1.2144, -3.1416], a=3.1416, v=0.0213, r=Zone001)
  movej([-1.2121, -1.7287, -2.0378, -2.5167, -1.2121, -3.1416], a=3.1416, v=0.0214, r=Zone001)
  movej([-1.2101, -1.7229, -2.0447, -2.5155, -1.2101, -3.1416], a=3.1416, v=0.0214, r=Zone001)
  movej([-1.2086, -1.7171, -2.0517, -2.5144, -1.2086, -3.1416], a=3.1416, v=0.0213, r=Zone001)
  movej([-1.2074, -1.7113, -2.0586, -2.5133, -1.2074, -3.1416], a=3.1416, v=0.0211, r=Zone001)
  movej([-1.2067, -1.7055, -2.0653, -2.5123, -1.2067, -3.1416], a=3.1416, v=0.0209, r=Zone001)
  movej([-1.2064, -1.6998, -2.072, -2.5114, -1.2064, -3.1416], a=3.1416, v=0.0205, r=Zone001)
  movej([-1.2065, -1.6941, -2.0786, -2.5105, -1.2065, -3.1416], a=3.1416, v=0.0201, r=Zone001)
  movej([-1.2071, -1.6886, -2.0849, -2.5096, -1.2071, -3.1416], a=3.1416, v=0.0196, r=Zone001)
  movej([-1.2082, -1.6832, -2.0911, -2.5088, -1.2082, -3.1416], a=3.1416, v=0.019, r=Zone001)
  movej([-1.2097, -1.678, -2.0971, -2.5081, -1.2097, -3.1416], a=3.1416, v=0.0183, r=Zone001)
  movej([-1.2117, -1.673, -2.1028, -2.5075, -1.2117, -3.1416], a=3.1416, v=0.0175, r=Zone001)
  movej([-1.2141, -1.6681, -2.1082, -2.5069, -1.2141, -3.1416], a=3.1416, v=0.0167, r=Zone001)
  movej([-1.217, -1.6636, -2.1133, -2.5063, -1.217, -3.1416], a=3.1416, v=0.0158, r=Zone001)
  movej([-1.2204, -1.6592, -2.1181, -2.5058, -1.2204, -3.1416], a=3.1416, v=0.0148, r=Zone001)
  movej([-1.2242, -1.6552, -2.1226, -2.5054, -1.2242, -3.1416], a=3.1416, v=0.0137, r=Zone001)
  movej([-1.2285, -1.6515, -2.1267, -2.5051, -1.2285, -3.1416], a=3.1416, v=0.0131, r=Zone001)
  movej([-1.2332, -1.6481, -2.1304, -2.5047, -1.2332, -3.1416], a=3.1416, v=0.0144, r=Zone001)
  movej([-1.2382, -1.645, -2.1337, -2.5045, -1.2382, -3.1416], a=3.1416, v=0.0157, r=Zone001)
  movej([-1.2437, -1.6424, -2.1365, -2.5043, -1.2437, -3.1416], a=3.1416, v=0.0168, r=Zone001)
  movej([-1.2495, -1.6401, -2.139, -2.5041, -1.2495, -3.1416], a=3.1416, v=0.0179, r=Zone001)
  movej([-1.2557, -1.6382, -2.141, -2.504, -1.2557, -3.1416], a=3.1416, v=0.019, r=Zone001)
  movej([-1.2621, -1.6367, -2.1426, -2.5039, -1.2621, -3.1416], a=3.1416, v=0.0199, r=Zone001)
  movej([-1.2689, -1.6357, -2.1437, -2.5039, -1.2689, -3.1416], a=3.1416, v=0.0207, r=Zone001)
  movej([-1.2758, -1.6351, -2.1443, -2.5038, -1.2758, -3.1416], a=3.1416, v=0.0215, r=Zone001)
  movej([-1.283, -1.6349, -2.1444, -2.5039, -1.283, -3.1416], a=3.1416, v=0.0221, r=Zone001)
  movej([-1.2903, -1.6351, -2.1441, -2.5039, -1.2903, -3.1416], a=3.1416, v=0.0225, r=Zone001)
  movej([-1.2977, -1.6358, -2.1434, -2.5041, -1.2977, -3.1416], a=3.1416, v=0.0229, r=Zone001)
  movej([-1.3052, -1.6369, -2.1421, -2.5042, -1.3052, -3.1416], a=3.1416, v=0.0231, r=Zone001)
  movej([-1.3127, -1.6384, -2.1404, -2.5044, -1.3127, -3.1416], a=3.1416, v=0.0232, r=Zone001)
  movej([-1.3202, -1.6403, -2.1383, -2.5046, -1.3202, -3.1416], a=3.1416, v=0.0232, r=Zone001)
  movej([-1.3277, -1.6427, -2.1357, -2.5049, -1.3277, -3.1416], a=3.1416, v=0.0231, r=Zone001)
  movej([-1.3351, -1.6454, -2.1326, -2.5052, -1.3351, -3.1416], a=3.1416, v=0.0228, r=Zone001)
  movej([-1.3423, -1.6484, -2.1292, -2.5056, -1.3423, -3.1416], a=3.1416, v=0.0224, r=Zone001)
  movej([-1.3494, -1.6518, -2.1254, -2.506, -1.3494, -3.1416], a=3.1416, v=0.0219, r=Zone001)
  movej([-1.3563, -1.6556, -2.1212, -2.5064, -1.3563, -3.1416], a=3.1416, v=0.0212, r=Zone001)
  movej([-1.3629, -1.6596, -2.1166, -2.507, -1.3629, -3.1416], a=3.1416, v=0.0205, r=Zone001)
  movej([-1.3693, -1.664, -2.1117, -2.5075, -1.3693, -3.1416], a=3.1416, v=0.0196, r=Zone001)
  movej([-1.3753, -1.6685, -2.1065, -2.5082, -1.3753, -3.1416], a=3.1416, v=0.0187, r=Zone001)
  movej([-1.3811, -1.6733, -2.101, -2.5089, -1.3811, -3.1416], a=3.1416, v=0.0177, r=Zone001)
  movej([-1.3864, -1.6784, -2.0952, -2.5096, -1.3864, -3.1416], a=3.1416, v=0.0178, r=Zone001)
  movej([-1.3914, -1.6836, -2.0892, -2.5104, -1.3914, -3.1416], a=3.1416, v=0.0186, r=Zone001)
  movej([-1.3961, -1.6889, -2.083, -2.5113, -1.3961, -3.1416], a=3.1416, v=0.0193, r=Zone001)
  movej([-1.4003, -1.6944, -2.0766, -2.5122, -1.4003, -3.1416], a=3.1416, v=0.0198, r=Zone001)
  movej([-1.4041, -1.7, -2.07, -2.5132, -1.4041, -3.1416], a=3.1416, v=0.0203, r=Zone001)
  movej([-1.4075, -1.7056, -2.0633, -2.5143, -1.4075, -3.1416], a=3.1416, v=0.0207, r=Zone001)
  movej([-1.4104, -1.7113, -2.0565, -2.5154, -1.4104, -3.1416], a=3.1416, v=0.0211, r=Zone001)
  movej([-1.4129, -1.7171, -2.0496, -2.5165, -1.4129, -3.1416], a=3.1416, v=0.0213, r=Zone001)
  movej([-1.415, -1.7228, -2.0427, -2.5177, -1.415, -3.1416], a=3.1416, v=0.0215, r=Zone001)
  movej([-1.4166, -1.7285, -2.0357, -2.5189, -1.4166, -3.1416], a=3.1416, v=0.0215, r=Zone001)
  movej([-1.4178, -1.7342, -2.0288, -2.5202, -1.4178, -3.1416], a=3.1416, v=0.0215, r=Zone001)
  movej([-1.4186, -1.7399, -2.0219, -2.5215, -1.4186, -3.1416], a=3.1416, v=0.0214, r=Zone001)
  movej([-1.419, -1.7454, -2.015, -2.5228, -1.419, -3.1416], a=3.1416, v=0.0212, r=Zone001)
  movej([-1.4189, -1.7508, -2.0083, -2.5241, -1.4189, -3.1416], a=3.1416, v=0.0209, r=Zone001)
  movej([-1.4184, -1.7561, -2.0016, -2.5254, -1.4184, -3.1416], a=3.1416, v=0.0206, r=Zone001)
  movej([-1.4175, -1.7613, -1.9951, -2.5267, -1.4175, -3.1416], a=3.1416, v=0.0202, r=Zone001)
  movej([-1.4163, -1.7663, -1.9888, -2.5281, -1.4163, -3.1416], a=3.1416, v=0.0196, r=Zone001)
  movej([-1.4146, -1.7712, -1.9826, -2.5294, -1.4146, -3.1416], a=3.1416, v=0.0191, r=Zone001)
  movej([-1.4126, -1.7758, -1.9767, -2.5307, -1.4126, -3.1416], a=3.1416, v=0.0184, r=Zone001)
  movej([-1.4102, -1.7803, -1.971, -2.5319, -1.4102, -3.1416], a=3.1416, v=0.0177, r=Zone001)
  movej([-1.4075, -1.7845, -1.9655, -2.5331, -1.4075, -3.1416], a=3.1416, v=0.0169, r=Zone001)
  movej([-1.4045, -1.7885, -1.9603, -2.5343, -1.4045, -3.1416], a=3.1416, v=0.0161, r=Zone001)
  movej([-1.4012, -1.7923, -1.9555, -2.5355, -1.4012, -3.1416], a=3.1416, v=0.0152, r=Zone001)
  movej([-1.3976, -1.7958, -1.9509, -2.5365, -1.3976, -3.1416], a=3.1416, v=0.0142, r=Zone001)
  movej([-1.3937, -1.799, -1.9466, -2.5375, -1.3937, -3.1416], a=3.1416, v=0.0132, r=Zone001)
  movej([-1.3895, -1.802, -1.9427, -2.5385, -1.3895, -3.1416], a=3.1416, v=0.0129, r=Zone001)
  movej([-1.3851, -1.8047, -1.9391, -2.5393, -1.3851, -3.1416], a=3.1416, v=0.0137, r=Zone001)
  movej([-1.3805, -1.8071, -1.936, -2.5401, -1.3805, -3.1416], a=3.1416, v=0.0144, r=Zone001)
  movej([-1.3756, -1.8092, -1.9331, -2.5408, -1.3756, -3.1416], a=3.1416, v=0.015, r=Zone001)
  movej([-1.3706, -1.811, -1.9307, -2.5414, -1.3706, -3.1416], a=3.1416, v=0.0157, r=Zone001)
  movej([-1.3654, -1.8125, -1.9287, -2.5419, -1.3654, -3.1416], a=3.1416, v=0.0162, r=Zone001)
  movej([-1.36, -1.8137, -1.9271, -2.5424, -1.36, -3.1416], a=3.1416, v=0.0167, r=Zone001)
  movej([-1.3545, -1.8146, -1.9259, -2.5427, -1.3545, -3.1416], a=3.1416, v=0.0172, r=Zone001)
  movej([-1.3488, -1.8152, -1.9251, -2.5429, -1.3488, -3.1416], a=3.1416, v=0.0176, r=Zone001)
  movej([-1.3431, -1.8155, -1.9247, -2.543, -1.3431, -3.1416], a=3.1416, v=0.0179, r=Zone001)
  movej([-1.3372, -1.8154, -1.9247, -2.5431, -1.3372, -3.1416], a=3.1416, v=0.0182, r=Zone001)
  movej([-1.3313, -1.815, -1.9252, -2.543, -1.3313, -3.1416], a=3.1416, v=0.0184, r=Zone001)
  movej([-1.3253, -1.8143, -1.926, -2.5428, -1.3253, -3.1416], a=3.1416, v=0.0186, r=Zone001)
  movej([-1.3193, -1.8133, -1.9273, -2.5426, -1.3193, -3.1416], a=3.1416, v=0.0187, r=Zone001)
  movej([-1.3133, -1.812, -1.929, -2.5422, -1.3133, -3.1416], a=3.1416, v=0.0188, r=Zone001)
  movej([-1.3072, -1.8104, -1.9311, -2.5417, -1.3072, -3.1416], a=3.1416, v=0.0188, r=Zone001)
  movej([-1.3012, -1.8084, -1.9336, -2.5412, -1.3012, -3.1416], a=3.1416, v=0.0188, r=Zone001)
  movej([-1.2952, -1.8062, -1.9364, -2.5405, -1.2952, -3.1416], a=3.1416, v=0.0187, r=Zone001)
  movej([-1.2892, -1.8037, -1.9397, -2.5398, -1.2892, -3.1416], a=3.1416, v=0.0185, r=Zone001)
  movej([-1.2834, -1.8009, -1.9433, -2.539, -1.2834, -3.1416], a=3.1416, v=0.0183, r=Zone001)
  movej([-1.2776, -1.7978, -1.9472, -2.5381, -1.2776, -3.1416], a=3.1416, v=0.018, r=Zone001)
  movej([-1.2719, -1.7945, -1.9515, -2.5372, -1.2719, -3.1416], a=3.1416, v=0.0177, r=Zone001)
  movej([-1.2663, -1.7908, -1.9561, -2.5362, -1.2663, -3.1416], a=3.1416, v=0.0173, r=Zone001)
  movej([-1.2609, -1.787, -1.961, -2.5352, -1.2609, -3.1416], a=3.1416, v=0.0169, r=Zone001)
  movej([-1.2557, -1.7829, -1.9662, -2.5341, -1.2557, -3.1416], a=3.1416, v=0.0164, r=Zone001)
  movej([-1.2506, -1.7786, -1.9717, -2.5329, -1.2506, -3.1416], a=3.1416, v=0.017, r=Zone001)
  movej([-1.2457, -1.774, -1.9774, -2.5317, -1.2457, -3.1416], a=3.1416, v=0.0178, r=Zone001)
  movej([-1.241, -1.7693, -1.9833, -2.5305, -1.241, -3.1416], a=3.1416, v=0.0185, r=Zone001)
  movej([-1.2366, -1.7644, -1.9894, -2.5293, -1.2366, -3.1416], a=3.1416, v=0.0191, r=Zone001)
  movej([-1.2324, -1.7593, -1.9957, -2.5281, -1.2324, -3.1416], a=3.1416, v=0.0197, r=Zone001)
  movej([-1.2285, -1.7541, -2.0022, -2.5269, -1.2285, -3.1416], a=3.1416, v=0.0201, r=Zone001)
  movej([-1.2249, -1.7488, -2.0088, -2.5256, -1.2249, -3.1416], a=3.1416, v=0.0206, r=Zone001)
  movej([-1.2216, -1.7433, -2.0155, -2.5244, -1.2216, -3.1416], a=3.1416, v=0.0209, r=Zone001)
  movej([-1.2186, -1.7377, -2.0223, -2.5232, -1.2186, -3.1416], a=3.1416, v=0.0211, r=Zone001)
  movej([-1.216, -1.7321, -2.0291, -2.522, -1.216, -3.1416], a=3.1416, v=0.0213, r=Zone001)
  movej([-1.2137, -1.7264, -2.0359, -2.5209, -1.2137, -3.1416], a=3.1416, v=0.0214, r=Zone001)
  movej([-1.2118, -1.7206, -2.0428, -2.5198, -1.2118, -3.1416], a=3.1416, v=0.0214, r=Zone001)
  movej([-1.2103, -1.7149, -2.0496, -2.5187, -1.2103, -3.1416], a=3.1416, v=0.0213, r=Zone001)
  movej([-1.2091, -1.7092, -2.0564, -2.5177, -1.2091, -3.1416], a=3.1416, v=0.0211, r=Zone001)
  movej([-1.2084, -1.7035, -2.063, -2.5167, -1.2084, -3.1416], a=3.1416, v=0.0209, r=Zone001)
  movej([-1.2082, -1.6978, -2.0696, -2.5158, -1.2082, -3.1416], a=3.1416, v=0.0205, r=Zone001)
  movej([-1.2083, -1.6923, -2.076, -2.5149, -1.2083, -3.1416], a=3.1416, v=0.0201, r=Zone001)
  movej([-1.2089, -1.6868, -2.0823, -2.5141, -1.2089, -3.1416], a=3.1416, v=0.0196, r=Zone001)
  movej([-1.21, -1.6815, -2.0884, -2.5133, -1.21, -3.1416], a=3.1416, v=0.019, r=Zone001)
  movej([-1.2115, -1.6764, -2.0942, -2.5126, -1.2115, -3.1416], a=3.1416, v=0.0183, r=Zone001)
  movej([-1.2134, -1.6714, -2.0998, -2.512, -1.2134, -3.1416], a=3.1416, v=0.0175, r=Zone001)
  movej([-1.2158, -1.6667, -2.1051, -2.5114, -1.2158, -3.1416], a=3.1416, v=0.0167, r=Zone001)
  movej([-1.2187, -1.6621, -2.1102, -2.5109, -1.2187, -3.1416], a=3.1416, v=0.0157, r=Zone001)
  movej([-1.222, -1.6579, -2.1149, -2.5104, -1.222, -3.1416], a=3.1416, v=0.0148, r=Zone001)
  movej([-1.2258, -1.6539, -2.1192, -2.51, -1.2258, -3.1416], a=3.1416, v=0.0137, r=Zone001)
  movej([-1.23, -1.6502, -2.1233, -2.5097, -1.23, -3.1416], a=3.1416, v=0.0131, r=Zone001)
  movej([-1.2346, -1.6469, -2.1269, -2.5094, -1.2346, -3.1416], a=3.1416, v=0.0144, r=Zone001)
  movej([-1.2396, -1.6439, -2.1301, -2.5091, -1.2396, -3.1416], a=3.1416, v=0.0156, r=Zone001)
  movej([-1.245, -1.6413, -2.133, -2.5089, -1.245, -3.1416], a=3.1416, v=0.0168, r=Zone001)
  movej([-1.2507, -1.639, -2.1354, -2.5088, -1.2507, -3.1416], a=3.1416, v=0.0179, r=Zone001)
  movej([-1.2567, -1.6372, -2.1374, -2.5086, -1.2567, -3.1416], a=3.1416, v=0.0189, r=Zone001)
  movej([-1.2631, -1.6357, -2.1389, -2.5086, -1.2631, -3.1416], a=3.1416, v=0.0199, r=Zone001)
  movej([-1.2697, -1.6347, -2.14, -2.5085, -1.2697, -3.1416], a=3.1416, v=0.0207, r=Zone001)
  movej([-1.2765, -1.6341, -2.1406, -2.5085, -1.2765, -3.1416], a=3.1416, v=0.0214, r=Zone001)
  movej([-1.2835, -1.6339, -2.1407, -2.5085, -1.2835, -3.1416], a=3.1416, v=0.022, r=Zone001)
  movej([-1.2907, -1.6342, -2.1404, -2.5086, -1.2907, -3.1416], a=3.1416, v=0.0225, r=Zone001)
  movej([-1.298, -1.6348, -2.1397, -2.5087, -1.298, -3.1416], a=3.1416, v=0.0229, r=Zone001)
  movej([-1.3054, -1.6359, -2.1384, -2.5089, -1.3054, -3.1416], a=3.1416, v=0.0231, r=Zone001)
  movej([-1.3128, -1.6374, -2.1368, -2.509, -1.3128, -3.1416], a=3.1416, v=0.0232, r=Zone001)
  movej([-1.3201, -1.6393, -2.1346, -2.5093, -1.3201, -3.1416], a=3.1416, v=0.0232, r=Zone001)
  movej([-1.3275, -1.6416, -2.1321, -2.5095, -1.3275, -3.1416], a=3.1416, v=0.023, r=Zone001)
  movej([-1.3347, -1.6442, -2.1291, -2.5098, -1.3347, -3.1416], a=3.1416, v=0.0227, r=Zone001)
  movej([-1.3418, -1.6473, -2.1258, -2.5102, -1.3418, -3.1416], a=3.1416, v=0.0223, r=Zone001)
  movej([-1.3488, -1.6506, -2.122, -2.5106, -1.3488, -3.1416], a=3.1416, v=0.0218, r=Zone001)
  movej([-1.3556, -1.6543, -2.1179, -2.511, -1.3556, -3.1416], a=3.1416, v=0.0212, r=Zone001)
  movej([-1.3621, -1.6583, -2.1134, -2.5115, -1.3621, -3.1416], a=3.1416, v=0.0205, r=Zone001)
  movej([-1.3683, -1.6625, -2.1086, -2.5121, -1.3683, -3.1416], a=3.1416, v=0.0196, r=Zone001)
  movej([-1.3743, -1.667, -2.1034, -2.5127, -1.3743, -3.1416], a=3.1416, v=0.0187, r=Zone001)
  movej([-1.3799, -1.6718, -2.098, -2.5134, -1.3799, -3.1416], a=3.1416, v=0.0177, r=Zone001)
  movej([-1.3852, -1.6767, -2.0924, -2.5141, -1.3852, -3.1416], a=3.1416, v=0.0178, r=Zone001)
  movej([-1.3901, -1.6818, -2.0865, -2.5149, -1.3901, -3.1416], a=3.1416, v=0.0186, r=Zone001)
  movej([-1.3947, -1.6871, -2.0803, -2.5157, -1.3947, -3.1416], a=3.1416, v=0.0192, r=Zone001)
  movej([-1.3988, -1.6925, -2.074, -2.5166, -1.3988, -3.1416], a=3.1416, v=0.0198, r=Zone001)
  movej([-1.4026, -1.698, -2.0676, -2.5176, -1.4026, -3.1416], a=3.1416, v=0.0203, r=Zone001)
  movej([-1.4059, -1.7036, -2.061, -2.5186, -1.4059, -3.1416], a=3.1416, v=0.0207, r=Zone001)
  movej([-1.4088, -1.7092, -2.0543, -2.5197, -1.4088, -3.1416], a=3.1416, v=0.021, r=Zone001)
  movej([-1.4113, -1.7149, -2.0475, -2.5208, -1.4113, -3.1416], a=3.1416, v=0.0213, r=Zone001)
  movej([-1.4134, -1.7205, -2.0407, -2.5219, -1.4134, -3.1416], a=3.1416, v=0.0214, r=Zone001)
  movej([-1.415, -1.7262, -2.0339, -2.5231, -1.415, -3.1416], a=3.1416, v=0.0215, r=Zone001)
  movej([-1.4162, -1.7318, -2.0271, -2.5243, -1.4162, -3.1416], a=3.1416, v=0.0215, r=Zone001)
  movej([-1.417, -1.7373, -2.0203, -2.5256, -1.417, -3.1416], a=3.1416, v=0.0214, r=Zone001)
  movej([-1.4173, -1.7428, -2.0135, -2.5269, -1.4173, -3.1416], a=3.1416, v=0.0212, r=Zone001)
  movej([-1.4173, -1.7481, -2.0069, -2.5281, -1.4173, -3.1416], a=3.1416, v=0.0209, r=Zone001)
  movej([-1.4168, -1.7534, -2.0004, -2.5294, -1.4168, -3.1416], a=3.1416, v=0.0206, r=Zone001)
  movej([-1.4159, -1.7585, -1.994, -2.5307, -1.4159, -3.1416], a=3.1416, v=0.0201, r=Zone001)
  movej([-1.4147, -1.7634, -1.9877, -2.532, -1.4147, -3.1416], a=3.1416, v=0.0196, r=Zone001)
  movej([-1.4131, -1.7682, -1.9817, -2.5333, -1.4131, -3.1416], a=3.1416, v=0.0191, r=Zone001)
  movej([-1.4111, -1.7728, -1.9758, -2.5345, -1.4111, -3.1416], a=3.1416, v=0.0184, r=Zone001)
  movej([-1.4088, -1.7772, -1.9702, -2.5357, -1.4088, -3.1416], a=3.1416, v=0.0177, r=Zone001)
  movej([-1.4061, -1.7814, -1.9649, -2.5369, -1.4061, -3.1416], a=3.1416, v=0.0169, r=Zone001)
  movej([-1.4032, -1.7853, -1.9598, -2.5381, -1.4032, -3.1416], a=3.1416, v=0.0161, r=Zone001)
  movej([-1.3999, -1.7891, -1.955, -2.5392, -1.3999, -3.1416], a=3.1416, v=0.0152, r=Zone001)
  movej([-1.3963, -1.7925, -1.9504, -2.5402, -1.3963, -3.1416], a=3.1416, v=0.0142, r=Zone001)
  movej([-1.3925, -1.7957, -1.9463, -2.5412, -1.3925, -3.1416], a=3.1416, v=0.0132, r=Zone001)
  movej([-1.3884, -1.7987, -1.9424, -2.5421, -1.3884, -3.1416], a=3.1416, v=0.0129, r=Zone001)
  movej([-1.384, -1.8013, -1.9389, -2.5429, -1.384, -3.1416], a=3.1416, v=0.0137, r=Zone001)
  movej([-1.3795, -1.8037, -1.9358, -2.5437, -1.3795, -3.1416], a=3.1416, v=0.0144, r=Zone001)
  movej([-1.3747, -1.8058, -1.933, -2.5444, -1.3747, -3.1416], a=3.1416, v=0.0151, r=Zone001)
  movej([-1.3698, -1.8076, -1.9306, -2.545, -1.3698, -3.1416], a=3.1416, v=0.0157, r=Zone001)
  movej([-1.3646, -1.8091, -1.9286, -2.5455, -1.3646, -3.1416], a=3.1416, v=0.0162, r=Zone001)
  movej([-1.3593, -1.8103, -1.927, -2.5459, -1.3593, -3.1416], a=3.1416, v=0.0167, r=Zone001)
  movej([-1.3539, -1.8111, -1.9258, -2.5462, -1.3539, -3.1416], a=3.1416, v=0.0172, r=Zone001)
  movej([-1.3483, -1.8117, -1.925, -2.5464, -1.3483, -3.1416], a=3.1416, v=0.0176, r=Zone001)
  movej([-1.3426, -1.812, -1.9247, -2.5466, -1.3426, -3.1416], a=3.1416, v=0.0179, r=Zone001)
  movej([-1.3369, -1.8119, -1.9247, -2.5466, -1.3369, -3.1416], a=3.1416, v=0.0182, r=Zone001)
  movej([-1.331, -1.8115, -1.9251, -2.5465, -1.331, -3.1416], a=3.1416, v=0.0184, r=Zone001)
  movej([-1.3252, -1.8108, -1.926, -2.5464, -1.3252, -3.1416], a=3.1416, v=0.0186, r=Zone001)
  movej([-1.3192, -1.8098, -1.9273, -2.5461, -1.3192, -3.1416], a=3.1416, v=0.0187, r=Zone001)
  movej([-1.3133, -1.8085, -1.9289, -2.5457, -1.3133, -3.1416], a=3.1416, v=0.0188, r=Zone001)
  movej([-1.3073, -1.8069, -1.931, -2.5453, -1.3073, -3.1416], a=3.1416, v=0.0188, r=Zone001)
  movej([-1.3014, -1.805, -1.9334, -2.5448, -1.3014, -3.1416], a=3.1416, v=0.0188, r=Zone001)
  movej([-1.2955, -1.8028, -1.9362, -2.5441, -1.2955, -3.1416], a=3.1416, v=0.0187, r=Zone001)
  movej([-1.2896, -1.8003, -1.9394, -2.5434, -1.2896, -3.1416], a=3.1416, v=0.0185, r=Zone001)
  movej([-1.2838, -1.7976, -1.943, -2.5427, -1.2838, -3.1416], a=3.1416, v=0.0183, r=Zone001)
  movej([-1.2781, -1.7945, -1.9469, -2.5418, -1.2781, -3.1416], a=3.1416, v=0.018, r=Zone001)
  movej([-1.2725, -1.7912, -1.9511, -2.5409, -1.2725, -3.1416], a=3.1416, v=0.0177, r=Zone001)
  movej([-1.2671, -1.7876, -1.9556, -2.5399, -1.2671, -3.1416], a=3.1416, v=0.0173, r=Zone001)
  movej([-1.2617, -1.7838, -1.9604, -2.5389, -1.2617, -3.1416], a=3.1416, v=0.0169, r=Zone001)
  movej([-1.2565, -1.7798, -1.9655, -2.5379, -1.2565, -3.1416], a=3.1416, v=0.0164, r=Zone001)
  movej([-1.2516, -1.7755, -1.9709, -2.5367, -1.2516, -3.1416], a=3.1416, v=0.017, r=Zone001)
  movej([-1.2467, -1.7711, -1.9765, -2.5356, -1.2467, -3.1416], a=3.1416, v=0.0178, r=Zone001)
  movej([-1.2422, -1.7664, -1.9823, -2.5344, -1.2422, -3.1416], a=3.1416, v=0.0185, r=Zone001)
  movej([-1.2378, -1.7615, -1.9884, -2.5333, -1.2378, -3.1416], a=3.1416, v=0.0191, r=Zone001)
  movej([-1.2337, -1.7565, -1.9946, -2.5321, -1.2337, -3.1416], a=3.1416, v=0.0197, r=Zone001)
  movej([-1.2299, -1.7514, -2.0009, -2.5309, -1.2299, -3.1416], a=3.1416, v=0.0201, r=Zone001)
  movej([-1.2263, -1.7461, -2.0074, -2.5297, -1.2263, -3.1416], a=3.1416, v=0.0205, r=Zone001)
  movej([-1.2231, -1.7407, -2.014, -2.5285, -1.2231, -3.1416], a=3.1416, v=0.0209, r=Zone001)
  movej([-1.2201, -1.7352, -2.0206, -2.5273, -1.2201, -3.1416], a=3.1416, v=0.0211, r=Zone001)
  movej([-1.2175, -1.7296, -2.0273, -2.5262, -1.2175, -3.1416], a=3.1416, v=0.0213, r=Zone001)
  movej([-1.2153, -1.724, -2.0341, -2.5251, -1.2153, -3.1416], a=3.1416, v=0.0214, r=Zone001)
  movej([-1.2134, -1.7184, -2.0408, -2.524, -1.2134, -3.1416], a=3.1416, v=0.0214, r=Zone001)
  movej([-1.2119, -1.7127, -2.0475, -2.523, -1.2119, -3.1416], a=3.1416, v=0.0213, r=Zone001)
  movej([-1.2108, -1.707, -2.0542, -2.522, -1.2108, -3.1416], a=3.1416, v=0.0211, r=Zone001)
  movej([-1.2102, -1.7014, -2.0607, -2.521, -1.2102, -3.1416], a=3.1416, v=0.0208, r=Zone001)
  movej([-1.2099, -1.6959, -2.0672, -2.5201, -1.2099, -3.1416], a=3.1416, v=0.0205, r=Zone001)
  movej([-1.2101, -1.6904, -2.0735, -2.5193, -1.2101, -3.1416], a=3.1416, v=0.0201, r=Zone001)
  movej([-1.2107, -1.685, -2.0796, -2.5185, -1.2107, -3.1416], a=3.1416, v=0.0195, r=Zone001)
  movej([-1.2117, -1.6798, -2.0856, -2.5178, -1.2117, -3.1416], a=3.1416, v=0.0189, r=Zone001)
  movej([-1.2132, -1.6747, -2.0913, -2.5171, -1.2132, -3.1416], a=3.1416, v=0.0182, r=Zone001)
  movej([-1.2151, -1.6699, -2.0968, -2.5165, -1.2151, -3.1416], a=3.1416, v=0.0175, r=Zone001)
  movej([-1.2175, -1.6652, -2.1021, -2.5159, -1.2175, -3.1416], a=3.1416, v=0.0166, r=Zone001)
  movej([-1.2204, -1.6607, -2.107, -2.5154, -1.2204, -3.1416], a=3.1416, v=0.0157, r=Zone001)
  movej([-1.2236, -1.6565, -2.1116, -2.515, -1.2236, -3.1416], a=3.1416, v=0.0147, r=Zone001)
  movej([-1.2273, -1.6526, -2.1159, -2.5146, -1.2273, -3.1416], a=3.1416, v=0.0137, r=Zone001)
  movej([-1.2315, -1.649, -2.1199, -2.5143, -1.2315, -3.1416], a=3.1416, v=0.0131, r=Zone001)
  movej([-1.236, -1.6458, -2.1234, -2.514, -1.236, -3.1416], a=3.1416, v=0.0144, r=Zone001)
  movej([-1.2409, -1.6428, -2.1266, -2.5137, -1.2409, -3.1416], a=3.1416, v=0.0156, r=Zone001)
  movej([-1.2462, -1.6402, -2.1294, -2.5136, -1.2462, -3.1416], a=3.1416, v=0.0168, r=Zone001)
  movej([-1.2518, -1.638, -2.1318, -2.5134, -1.2518, -3.1416], a=3.1416, v=0.0179, r=Zone001)
  movej([-1.2578, -1.6362, -2.1337, -2.5133, -1.2578, -3.1416], a=3.1416, v=0.0189, r=Zone001)
  movej([-1.264, -1.6348, -2.1352, -2.5132, -1.264, -3.1416], a=3.1416, v=0.0198, r=Zone001)
  movej([-1.2705, -1.6338, -2.1363, -2.5132, -1.2705, -3.1416], a=3.1416, v=0.0207, r=Zone001)
  movej([-1.2772, -1.6332, -2.1369, -2.5132, -1.2772, -3.1416], a=3.1416, v=0.0214, r=Zone001)
  movej([-1.2841, -1.633, -2.137, -2.5132, -1.2841, -3.1416], a=3.1416, v=0.022, r=Zone001)
  movej([-1.2911, -1.6332, -2.1367, -2.5133, -1.2911, -3.1416], a=3.1416, v=0.0225, r=Zone001)
  movej([-1.2983, -1.6339, -2.136, -2.5134, -1.2983, -3.1416], a=3.1416, v=0.0228, r=Zone001)
  movej([-1.3055, -1.6349, -2.1348, -2.5135, -1.3055, -3.1416], a=3.1416, v=0.023, r=Zone001)
  movej([-1.3128, -1.6364, -2.1331, -2.5137, -1.3128, -3.1416], a=3.1416, v=0.0232, r=Zone001)
  movej([-1.3201, -1.6383, -2.131, -2.5139, -1.3201, -3.1416], a=3.1416, v=0.0231, r=Zone001)
  movej([-1.3273, -1.6405, -2.1285, -2.5141, -1.3273, -3.1416], a=3.1416, v=0.023, r=Zone001)
  movej([-1.3344, -1.6431, -2.1256, -2.5144, -1.3344, -3.1416], a=3.1416, v=0.0227, r=Zone001)
  movej([-1.3414, -1.6461, -2.1223, -2.5148, -1.3414, -3.1416], a=3.1416, v=0.0223, r=Zone001)
  movej([-1.3482, -1.6494, -2.1186, -2.5152, -1.3482, -3.1416], a=3.1416, v=0.0218, r=Zone001)
  movej([-1.3548, -1.653, -2.1146, -2.5156, -1.3548, -3.1416], a=3.1416, v=0.0212, r=Zone001)
  movej([-1.3612, -1.6569, -2.1102, -2.5161, -1.3612, -3.1416], a=3.1416, v=0.0204, r=Zone001)
  movej([-1.3674, -1.6611, -2.1054, -2.5166, -1.3674, -3.1416], a=3.1416, v=0.0196, r=Zone001)
  movej([-1.3732, -1.6656, -2.1004, -2.5172, -1.3732, -3.1416], a=3.1416, v=0.0187, r=Zone001)
  movej([-1.3788, -1.6702, -2.0951, -2.5179, -1.3788, -3.1416], a=3.1416, v=0.0177, r=Zone001)
  movej([-1.384, -1.6751, -2.0895, -2.5186, -1.384, -3.1416], a=3.1416, v=0.0178, r=Zone001)
  movej([-1.3888, -1.6801, -2.0837, -2.5194, -1.3888, -3.1416], a=3.1416, v=0.0185, r=Zone001)
  movej([-1.3933, -1.6853, -2.0777, -2.5202, -1.3933, -3.1416], a=3.1416, v=0.0192, r=Zone001)
  movej([-1.3974, -1.6906, -2.0715, -2.521, -1.3974, -3.1416], a=3.1416, v=0.0198, r=Zone001)
  movej([-1.4011, -1.696, -2.0652, -2.522, -1.4011, -3.1416], a=3.1416, v=0.0203, r=Zone001)
  movej([-1.4044, -1.7015, -2.0587, -2.523, -1.4044, -3.1416], a=3.1416, v=0.0207, r=Zone001)
  movej([-1.4073, -1.7071, -2.0521, -2.524, -1.4073, -3.1416], a=3.1416, v=0.021, r=Zone001)
  movej([-1.4097, -1.7127, -2.0455, -2.5251, -1.4097, -3.1416], a=3.1416, v=0.0213, r=Zone001)
  movej([-1.4118, -1.7182, -2.0388, -2.5262, -1.4118, -3.1416], a=3.1416, v=0.0214, r=Zone001)
  movej([-1.4134, -1.7238, -2.0321, -2.5273, -1.4134, -3.1416], a=3.1416, v=0.0215, r=Zone001)
  movej([-1.4145, -1.7293, -2.0253, -2.5285, -1.4145, -3.1416], a=3.1416, v=0.0215, r=Zone001)
  movej([-1.4153, -1.7348, -2.0187, -2.5297, -1.4153, -3.1416], a=3.1416, v=0.0214, r=Zone001)
  movej([-1.4157, -1.7402, -2.012, -2.5309, -1.4157, -3.1416], a=3.1416, v=0.0212, r=Zone001)
  movej([-1.4156, -1.7455, -2.0055, -2.5322, -1.4156, -3.1416], a=3.1416, v=0.0209, r=Zone001)
  movej([-1.4152, -1.7507, -1.9991, -2.5334, -1.4152, -3.1416], a=3.1416, v=0.0206, r=Zone001)
  movej([-1.4143, -1.7557, -1.9928, -2.5347, -1.4143, -3.1416], a=3.1416, v=0.0201, r=Zone001)
  movej([-1.4131, -1.7606, -1.9867, -2.5359, -1.4131, -3.1416], a=3.1416, v=0.0196, r=Zone001)
  movej([-1.4116, -1.7653, -1.9807, -2.5372, -1.4116, -3.1416], a=3.1416, v=0.0191, r=Zone001)
  movej([-1.4096, -1.7698, -1.975, -2.5384, -1.4096, -3.1416], a=3.1416, v=0.0184, r=Zone001)
  movej([-1.4073, -1.7742, -1.9694, -2.5396, -1.4073, -3.1416], a=3.1416, v=0.0177, r=Zone001)
  movej([-1.4047, -1.7783, -1.9642, -2.5407, -1.4047, -3.1416], a=3.1416, v=0.0169, r=Zone001)
  movej([-1.4018, -1.7822, -1.9592, -2.5418, -1.4018, -3.1416], a=3.1416, v=0.0161, r=Zone001)
  movej([-1.3986, -1.7859, -1.9544, -2.5429, -1.3986, -3.1416], a=3.1416, v=0.0152, r=Zone001)
  movej([-1.3951, -1.7893, -1.95, -2.5439, -1.3951, -3.1416], a=3.1416, v=0.0142, r=Zone001)
  movej([-1.3913, -1.7925, -1.9459, -2.5449, -1.3913, -3.1416], a=3.1416, v=0.0132, r=Zone001)
  movej([-1.3873, -1.7954, -1.9421, -2.5458, -1.3873, -3.1416], a=3.1416, v=0.0129, r=Zone001)
  movej([-1.383, -1.798, -1.9386, -2.5466, -1.383, -3.1416], a=3.1416, v=0.0137, r=Zone001)
  movej([-1.3785, -1.8003, -1.9355, -2.5473, -1.3785, -3.1416], a=3.1416, v=0.0144, r=Zone001)
  movej([-1.3738, -1.8024, -1.9328, -2.548, -1.3738, -3.1416], a=3.1416, v=0.0151, r=Zone001)
  movej([-1.3689, -1.8042, -1.9305, -2.5486, -1.3689, -3.1416], a=3.1416, v=0.0157, r=Zone001)
  movej([-1.3639, -1.8056, -1.9285, -2.549, -1.3639, -3.1416], a=3.1416, v=0.0162, r=Zone001)
  movej([-1.3587, -1.8068, -1.9269, -2.5494, -1.3587, -3.1416], a=3.1416, v=0.0167, r=Zone001)
  movej([-1.3533, -1.8077, -1.9258, -2.5498, -1.3533, -3.1416], a=3.1416, v=0.0172, r=Zone001)
  movej([-1.3478, -1.8082, -1.925, -2.55, -1.3478, -3.1416], a=3.1416, v=0.0176, r=Zone001)
  movej([-1.3422, -1.8085, -1.9246, -2.5501, -1.3422, -3.1416], a=3.1416, v=0.0179, r=Zone001)
  movej([-1.3366, -1.8084, -1.9246, -2.5501, -1.3366, -3.1416], a=3.1416, v=0.0182, r=Zone001)
  movej([-1.3308, -1.808, -1.9251, -2.5501, -1.3308, -3.1416], a=3.1416, v=0.0185, r=Zone001)
  movej([-1.325, -1.8074, -1.9259, -2.5499, -1.325, -3.1416], a=3.1416, v=0.0186, r=Zone001)
  movej([-1.3192, -1.8064, -1.9272, -2.5496, -1.3192, -3.1416], a=3.1416, v=0.0188, r=Zone001)
  movej([-1.3133, -1.8051, -1.9288, -2.5493, -1.3133, -3.1416], a=3.1416, v=0.0188, r=Zone001)
  movej([-1.3074, -1.8035, -1.9308, -2.5489, -1.3074, -3.1416], a=3.1416, v=0.0189, r=Zone001)
  movej([-1.3016, -1.8016, -1.9332, -2.5483, -1.3016, -3.1416], a=3.1416, v=0.0188, r=Zone001)
  movej([-1.2958, -1.7994, -1.936, -2.5477, -1.2958, -3.1416], a=3.1416, v=0.0187, r=Zone001)
  movej([-1.29, -1.797, -1.9391, -2.5471, -1.29, -3.1416], a=3.1416, v=0.0186, r=Zone001)
  movej([-1.2843, -1.7942, -1.9426, -2.5463, -1.2843, -3.1416], a=3.1416, v=0.0183, r=Zone001)
  movej([-1.2787, -1.7912, -1.9464, -2.5455, -1.2787, -3.1416], a=3.1416, v=0.0181, r=Zone001)
  movej([-1.2732, -1.788, -1.9506, -2.5446, -1.2732, -3.1416], a=3.1416, v=0.0177, r=Zone001)
  movej([-1.2678, -1.7845, -1.955, -2.5437, -1.2678, -3.1416], a=3.1416, v=0.0173, r=Zone001)
  movej([-1.2625, -1.7807, -1.9598, -2.5427, -1.2625, -3.1416], a=3.1416, v=0.0169, r=Zone001)
  movej([-1.2574, -1.7767, -1.9648, -2.5417, -1.2574, -3.1416], a=3.1416, v=0.0164, r=Zone001)
  movej([-1.2525, -1.7725, -1.9701, -2.5406, -1.2525, -3.1416], a=3.1416, v=0.017, r=Zone001)
  movej([-1.2478, -1.7681, -1.9756, -2.5395, -1.2478, -3.1416], a=3.1416, v=0.0178, r=Zone001)
  movej([-1.2433, -1.7635, -1.9813, -2.5384, -1.2433, -3.1416], a=3.1416, v=0.0185, r=Zone001)
  movej([-1.239, -1.7587, -1.9873, -2.5372, -1.239, -3.1416], a=3.1416, v=0.0191, r=Zone001)
  movej([-1.2349, -1.7538, -1.9934, -2.5361, -1.2349, -3.1416], a=3.1416, v=0.0196, r=Zone001)
  movej([-1.2312, -1.7487, -1.9996, -2.5349, -1.2312, -3.1416], a=3.1416, v=0.0201, r=Zone001)
  movej([-1.2277, -1.7435, -2.006, -2.5338, -1.2277, -3.1416], a=3.1416, v=0.0205, r=Zone001)
  movej([-1.2245, -1.7381, -2.0125, -2.5326, -1.2245, -3.1416], a=3.1416, v=0.0209, r=Zone001)
  movej([-1.2216, -1.7327, -2.019, -2.5315, -1.2216, -3.1416], a=3.1416, v=0.0211, r=Zone001)
  movej([-1.2191, -1.7272, -2.0256, -2.5304, -1.2191, -3.1416], a=3.1416, v=0.0213, r=Zone001)
  movej([-1.2169, -1.7217, -2.0322, -2.5293, -1.2169, -3.1416], a=3.1416, v=0.0213, r=Zone001)
  movej([-1.215, -1.7161, -2.0388, -2.5283, -1.215, -3.1416], a=3.1416, v=0.0213, r=Zone001)
  movej([-1.2136, -1.7105, -2.0454, -2.5273, -1.2136, -3.1416], a=3.1416, v=0.0212, r=Zone001)
  movej([-1.2125, -1.7049, -2.0519, -2.5263, -1.2125, -3.1416], a=3.1416, v=0.0211, r=Zone001)
  movej([-1.2119, -1.6994, -2.0584, -2.5254, -1.2119, -3.1416], a=3.1416, v=0.0208, r=Zone001)
  movej([-1.2116, -1.6939, -2.0647, -2.5245, -1.2116, -3.1416], a=3.1416, v=0.0205, r=Zone001)
  movej([-1.2118, -1.6885, -2.0709, -2.5237, -1.2118, -3.1416], a=3.1416, v=0.02, r=Zone001)
  movej([-1.2124, -1.6833, -2.077, -2.5229, -1.2124, -3.1416], a=3.1416, v=0.0195, r=Zone001)
  movej([-1.2134, -1.6781, -2.0828, -2.5222, -1.2134, -3.1416], a=3.1416, v=0.0189, r=Zone001)
  movej([-1.2149, -1.6731, -2.0885, -2.5216, -1.2149, -3.1416], a=3.1416, v=0.0182, r=Zone001)
  movej([-1.2168, -1.6683, -2.0939, -2.521, -1.2168, -3.1416], a=3.1416, v=0.0174, r=Zone001)
  movej([-1.2192, -1.6637, -2.099, -2.5205, -1.2192, -3.1416], a=3.1416, v=0.0166, r=Zone001)
  movej([-1.222, -1.6593, -2.1039, -2.52, -1.222, -3.1416], a=3.1416, v=0.0157, r=Zone001)
  movej([-1.2252, -1.6552, -2.1084, -2.5196, -1.2252, -3.1416], a=3.1416, v=0.0147, r=Zone001)
  movej([-1.2288, -1.6514, -2.1126, -2.5192, -1.2288, -3.1416], a=3.1416, v=0.0136, r=Zone001)
  movej([-1.2329, -1.6478, -2.1165, -2.5189, -1.2329, -3.1416], a=3.1416, v=0.0131, r=Zone001)
  movej([-1.2374, -1.6446, -2.12, -2.5186, -1.2374, -3.1416], a=3.1416, v=0.0144, r=Zone001)
  movej([-1.2422, -1.6417, -2.1231, -2.5184, -1.2422, -3.1416], a=3.1416, v=0.0156, r=Zone001)
  movej([-1.2474, -1.6392, -2.1258, -2.5182, -1.2474, -3.1416], a=3.1416, v=0.0168, r=Zone001)
  movej([-1.2529, -1.637, -2.1282, -2.518, -1.2529, -3.1416], a=3.1416, v=0.0179, r=Zone001)
  movej([-1.2588, -1.6352, -2.1301, -2.5179, -1.2588, -3.1416], a=3.1416, v=0.0189, r=Zone001)
  movej([-1.2649, -1.6338, -2.1315, -2.5178, -1.2649, -3.1416], a=3.1416, v=0.0198, r=Zone001)
  movej([-1.2713, -1.6328, -2.1326, -2.5178, -1.2713, -3.1416], a=3.1416, v=0.0206, r=Zone001)
  movej([-1.2779, -1.6322, -2.1332, -2.5178, -1.2779, -3.1416], a=3.1416, v=0.0213, r=Zone001)
  movej([-1.2846, -1.632, -2.1333, -2.5178, -1.2846, -3.1416], a=3.1416, v=0.0219, r=Zone001)
  movej([-1.2916, -1.6323, -2.133, -2.5179, -1.2916, -3.1416], a=3.1416, v=0.0224, r=Zone001)
  movej([-1.2986, -1.6329, -2.1323, -2.518, -1.2986, -3.1416], a=3.1416, v=0.0228, r=Zone001)
  movej([-1.3057, -1.634, -2.1311, -2.5181, -1.3057, -3.1416], a=3.1416, v=0.023, r=Zone001)
  movej([-1.3128, -1.6354, -2.1295, -2.5183, -1.3128, -3.1416], a=3.1416, v=0.0231, r=Zone001)
  movej([-1.32, -1.6372, -2.1274, -2.5185, -1.32, -3.1416], a=3.1416, v=0.0231, r=Zone001)
  movej([-1.327, -1.6394, -2.125, -2.5188, -1.327, -3.1416], a=3.1416, v=0.0229, r=Zone001)
  movej([-1.334, -1.642, -2.1221, -2.5191, -1.334, -3.1416], a=3.1416, v=0.0227, r=Zone001)
  movej([-1.3409, -1.6449, -2.1189, -2.5194, -1.3409, -3.1416], a=3.1416, v=0.0223, r=Zone001)
  movej([-1.3476, -1.6482, -2.1152, -2.5198, -1.3476, -3.1416], a=3.1416, v=0.0218, r=Zone001)
  movej([-1.3541, -1.6517, -2.1113, -2.5202, -1.3541, -3.1416], a=3.1416, v=0.0211, r=Zone001)
  movej([-1.3604, -1.6556, -2.1069, -2.5207, -1.3604, -3.1416], a=3.1416, v=0.0204, r=Zone001)
  movej([-1.3665, -1.6597, -2.1023, -2.5212, -1.3665, -3.1416], a=3.1416, v=0.0196, r=Zone001)
  movej([-1.3722, -1.6641, -2.0974, -2.5218, -1.3722, -3.1416], a=3.1416, v=0.0187, r=Zone001)
  movej([-1.3777, -1.6687, -2.0921, -2.5224, -1.3777, -3.1416], a=3.1416, v=0.0177, r=Zone001)
  movej([-1.3828, -1.6735, -2.0867, -2.5231, -1.3828, -3.1416], a=3.1416, v=0.0178, r=Zone001)
  movej([-1.3876, -1.6784, -2.081, -2.5238, -1.3876, -3.1416], a=3.1416, v=0.0185, r=Zone001)
  movej([-1.392, -1.6835, -2.0751, -2.5246, -1.392, -3.1416], a=3.1416, v=0.0192, r=Zone001)
  movej([-1.396, -1.6888, -2.069, -2.5254, -1.396, -3.1416], a=3.1416, v=0.0198, r=Zone001)
  movej([-1.3997, -1.6941, -2.0627, -2.5263, -1.3997, -3.1416], a=3.1416, v=0.0203, r=Zone001)
  movej([-1.4029, -1.6995, -2.0564, -2.5273, -1.4029, -3.1416], a=3.1416, v=0.0207, r=Zone001)
  movej([-1.4057, -1.705, -2.0499, -2.5283, -1.4057, -3.1416], a=3.1416, v=0.021, r=Zone001)
  movej([-1.4082, -1.7105, -2.0434, -2.5293, -1.4082, -3.1416], a=3.1416, v=0.0212, r=Zone001)
  movej([-1.4102, -1.716, -2.0368, -2.5304, -1.4102, -3.1416], a=3.1416, v=0.0214, r=Zone001)
  movej([-1.4118, -1.7215, -2.0302, -2.5315, -1.4118, -3.1416], a=3.1416, v=0.0215, r=Zone001)
  movej([-1.4129, -1.7269, -2.0236, -2.5327, -1.4129, -3.1416], a=3.1416, v=0.0214, r=Zone001)
  movej([-1.4137, -1.7323, -2.017, -2.5338, -1.4137, -3.1416], a=3.1416, v=0.0213, r=Zone001)
  movej([-1.4141, -1.7376, -2.0105, -2.535, -1.4141, -3.1416], a=3.1416, v=0.0212, r=Zone001)
  movej([-1.414, -1.7428, -2.0041, -2.5362, -1.414, -3.1416], a=3.1416, v=0.0209, r=Zone001)
  movej([-1.4136, -1.7479, -1.9978, -2.5375, -1.4136, -3.1416], a=3.1416, v=0.0205, r=Zone001)
  movej([-1.4128, -1.7529, -1.9916, -2.5387, -1.4128, -3.1416], a=3.1416, v=0.0201, r=Zone001)
  movej([-1.4116, -1.7577, -1.9856, -2.5399, -1.4116, -3.1416], a=3.1416, v=0.0196, r=Zone001)
  movej([-1.41, -1.7624, -1.9797, -2.5411, -1.41, -3.1416], a=3.1416, v=0.019, r=Zone001)
  movej([-1.4082, -1.7669, -1.9741, -2.5423, -1.4082, -3.1416], a=3.1416, v=0.0184, r=Zone001)
  movej([-1.4059, -1.7711, -1.9686, -2.5434, -1.4059, -3.1416], a=3.1416, v=0.0177, r=Zone001)
  movej([-1.4034, -1.7752, -1.9634, -2.5445, -1.4034, -3.1416], a=3.1416, v=0.0169, r=Zone001)
  movej([-1.4005, -1.7791, -1.9585, -2.5456, -1.4005, -3.1416], a=3.1416, v=0.0161, r=Zone001)
  movej([-1.3973, -1.7827, -1.9538, -2.5466, -1.3973, -3.1416], a=3.1416, v=0.0152, r=Zone001)
  movej([-1.3939, -1.7861, -1.9495, -2.5476, -1.3939, -3.1416], a=3.1416, v=0.0142, r=Zone001)
  movej([-1.3902, -1.7892, -1.9454, -2.5486, -1.3902, -3.1416], a=3.1416, v=0.0132, r=Zone001)
  movej([-1.3862, -1.7921, -1.9417, -2.5494, -1.3862, -3.1416], a=3.1416, v=0.0129, r=Zone001)
  movej([-1.382, -1.7947, -1.9383, -2.5502, -1.382, -3.1416], a=3.1416, v=0.0137, r=Zone001)
  movej([-1.3776, -1.797, -1.9353, -2.5509, -1.3776, -3.1416], a=3.1416, v=0.0144, r=Zone001)
  movej([-1.373, -1.799, -1.9326, -2.5516, -1.373, -3.1416], a=3.1416, v=0.0151, r=Zone001)
  movej([-1.3681, -1.8008, -1.9303, -2.5521, -1.3681, -3.1416], a=3.1416, v=0.0157, r=Zone001)
  movej([-1.3632, -1.8022, -1.9284, -2.5526, -1.3632, -3.1416], a=3.1416, v=0.0163, r=Zone001)
  movej([-1.358, -1.8034, -1.9268, -2.553, -1.358, -3.1416], a=3.1416, v=0.0168, r=Zone001)
  movej([-1.3527, -1.8042, -1.9257, -2.5533, -1.3527, -3.1416], a=3.1416, v=0.0172, r=Zone001)
  movej([-1.3473, -1.8048, -1.9249, -2.5535, -1.3473, -3.1416], a=3.1416, v=0.0176, r=Zone001)
  movej([-1.3418, -1.805, -1.9245, -2.5536, -1.3418, -3.1416], a=3.1416, v=0.018, r=Zone001)
  movej([-1.3362, -1.805, -1.9246, -2.5537, -1.3362, -3.1416], a=3.1416, v=0.0183, r=Zone001)
  movej([-1.3306, -1.8046, -1.925, -2.5536, -1.3306, -3.1416], a=3.1416, v=0.0185, r=Zone001)
  movej([-1.3248, -1.8039, -1.9258, -2.5535, -1.3248, -3.1416], a=3.1416, v=0.0187, r=Zone001)
  movej([-1.3191, -1.8029, -1.927, -2.5532, -1.3191, -3.1416], a=3.1416, v=0.0188, r=Zone001)
  movej([-1.3133, -1.8017, -1.9286, -2.5529, -1.3133, -3.1416], a=3.1416, v=0.0189, r=Zone001)
  movej([-1.3075, -1.8001, -1.9306, -2.5525, -1.3075, -3.1416], a=3.1416, v=0.0189, r=Zone001)
  movej([-1.3018, -1.7982, -1.933, -2.552, -1.3018, -3.1416], a=3.1416, v=0.0188, r=Zone001)
  movej([-1.296, -1.7961, -1.9357, -2.5514, -1.296, -3.1416], a=3.1416, v=0.0187, r=Zone001)
  movej([-1.2904, -1.7937, -1.9388, -2.5507, -1.2904, -3.1416], a=3.1416, v=0.0186, r=Zone001)
  movej([-1.2847, -1.791, -1.9422, -2.55, -1.2847, -3.1416], a=3.1416, v=0.0184, r=Zone001)
  movej([-1.2792, -1.788, -1.946, -2.5492, -1.2792, -3.1416], a=3.1416, v=0.0181, r=Zone001)
  movej([-1.2738, -1.7848, -1.9501, -2.5483, -1.2738, -3.1416], a=3.1416, v=0.0178, r=Zone001)
  movej([-1.2685, -1.7813, -1.9545, -2.5474, -1.2685, -3.1416], a=3.1416, v=0.0174, r=Zone001)
  movej([-1.2633, -1.7776, -1.9591, -2.5465, -1.2633, -3.1416], a=3.1416, v=0.0169, r=Zone001)
  movej([-1.2583, -1.7736, -1.9641, -2.5455, -1.2583, -3.1416], a=3.1416, v=0.0164, r=Zone001)
  movej([-1.2534, -1.7695, -1.9693, -2.5444, -1.2534, -3.1416], a=3.1416, v=0.017, r=Zone001)
  movej([-1.2488, -1.7651, -1.9747, -2.5434, -1.2488, -3.1416], a=3.1416, v=0.0178, r=Zone001)
  movej([-1.2443, -1.7606, -1.9803, -2.5423, -1.2443, -3.1416], a=3.1416, v=0.0184, r=Zone001)
  movej([-1.2401, -1.7559, -1.9861, -2.5412, -1.2401, -3.1416], a=3.1416, v=0.0191, r=Zone001)
  movej([-1.2362, -1.751, -1.9921, -2.54, -1.2362, -3.1416], a=3.1416, v=0.0196, r=Zone001)
  movej([-1.2325, -1.746, -1.9983, -2.5389, -1.2325, -3.1416], a=3.1416, v=0.0201, r=Zone001)
  movej([-1.229, -1.7408, -2.0045, -2.5378, -1.229, -3.1416], a=3.1416, v=0.0205, r=Zone001)
  movej([-1.2259, -1.7356, -2.0109, -2.5367, -1.2259, -3.1416], a=3.1416, v=0.0208, r=Zone001)
  movej([-1.2231, -1.7302, -2.0173, -2.5356, -1.2231, -3.1416], a=3.1416, v=0.0211, r=Zone001)
  movej([-1.2206, -1.7248, -2.0238, -2.5346, -1.2206, -3.1416], a=3.1416, v=0.0212, r=Zone001)
  movej([-1.2184, -1.7193, -2.0303, -2.5335, -1.2184, -3.1416], a=3.1416, v=0.0213, r=Zone001)
  movej([-1.2166, -1.7139, -2.0368, -2.5325, -1.2166, -3.1416], a=3.1416, v=0.0213, r=Zone001)
  movej([-1.2152, -1.7083, -2.0433, -2.5315, -1.2152, -3.1416], a=3.1416, v=0.0212, r=Zone001)
  movej([-1.2142, -1.7029, -2.0497, -2.5306, -1.2142, -3.1416], a=3.1416, v=0.021, r=Zone001)
  movej([-1.2135, -1.6974, -2.0561, -2.5297, -1.2135, -3.1416], a=3.1416, v=0.0208, r=Zone001)
  movej([-1.2133, -1.692, -2.0623, -2.5289, -1.2133, -3.1416], a=3.1416, v=0.0204, r=Zone001)
  movej([-1.2135, -1.6867, -2.0684, -2.5281, -1.2135, -3.1416], a=3.1416, v=0.02, r=Zone001)
  movej([-1.2141, -1.6815, -2.0743, -2.5274, -1.2141, -3.1416], a=3.1416, v=0.0195, r=Zone001)
  movej([-1.2151, -1.6764, -2.0801, -2.5267, -1.2151, -3.1416], a=3.1416, v=0.0189, r=Zone001)
  movej([-1.2166, -1.6715, -2.0856, -2.5261, -1.2166, -3.1416], a=3.1416, v=0.0182, r=Zone001)
  movej([-1.2185, -1.6668, -2.0909, -2.5255, -1.2185, -3.1416], a=3.1416, v=0.0174, r=Zone001)
  movej([-1.2208, -1.6623, -2.0959, -2.525, -1.2208, -3.1416], a=3.1416, v=0.0166, r=Zone001)
  movej([-1.2236, -1.658, -2.1007, -2.5245, -1.2236, -3.1416], a=3.1416, v=0.0157, r=Zone001)
  movej([-1.2267, -1.6539, -2.1052, -2.5241, -1.2267, -3.1416], a=3.1416, v=0.0147, r=Zone001)
  movej([-1.2303, -1.6501, -2.1093, -2.5238, -1.2303, -3.1416], a=3.1416, v=0.0136, r=Zone001)
  movej([-1.2343, -1.6466, -2.1131, -2.5234, -1.2343, -3.1416], a=3.1416, v=0.0131, r=Zone001)
  movej([-1.2387, -1.6435, -2.1166, -2.5232, -1.2387, -3.1416], a=3.1416, v=0.0144, r=Zone001)
  movej([-1.2435, -1.6406, -2.1196, -2.523, -1.2435, -3.1416], a=3.1416, v=0.0156, r=Zone001)
  movej([-1.2486, -1.6381, -2.1223, -2.5228, -1.2486, -3.1416], a=3.1416, v=0.0168, r=Zone001)
  movej([-1.254, -1.636, -2.1246, -2.5226, -1.254, -3.1416], a=3.1416, v=0.0179, r=Zone001)
  movej([-1.2598, -1.6342, -2.1264, -2.5225, -1.2598, -3.1416], a=3.1416, v=0.0189, r=Zone001)
  movej([-1.2658, -1.6328, -2.1279, -2.5225, -1.2658, -3.1416], a=3.1416, v=0.0198, r=Zone001)
  movej([-1.272, -1.6319, -2.1289, -2.5224, -1.272, -3.1416], a=3.1416, v=0.0206, r=Zone001)
  movej([-1.2785, -1.6313, -2.1295, -2.5224, -1.2785, -3.1416], a=3.1416, v=0.0213, r=Zone001)
  movej([-1.2852, -1.6311, -2.1296, -2.5225, -1.2852, -3.1416], a=3.1416, v=0.0219, r=Zone001)
  movej([-1.292, -1.6313, -2.1293, -2.5225, -1.292, -3.1416], a=3.1416, v=0.0224, r=Zone001)
  movej([-1.2989, -1.632, -2.1286, -2.5226, -1.2989, -3.1416], a=3.1416, v=0.0227, r=Zone001)
  movej([-1.3059, -1.633, -2.1274, -2.5228, -1.3059, -3.1416], a=3.1416, v=0.023, r=Zone001)
  movej([-1.3129, -1.6344, -2.1259, -2.5229, -1.3129, -3.1416], a=3.1416, v=0.0231, r=Zone001)
  movej([-1.3199, -1.6362, -2.1239, -2.5231, -1.3199, -3.1416], a=3.1416, v=0.023, r=Zone001)
  movej([-1.3268, -1.6384, -2.1214, -2.5234, -1.3268, -3.1416], a=3.1416, v=0.0229, r=Zone001)
  movej([-1.3337, -1.6409, -2.1186, -2.5236, -1.3337, -3.1416], a=3.1416, v=0.0226, r=Zone001)
  movej([-1.3404, -1.6438, -2.1154, -2.524, -1.3404, -3.1416], a=3.1416, v=0.0222, r=Zone001)
  movej([-1.347, -1.647, -2.1119, -2.5243, -1.347, -3.1416], a=3.1416, v=0.0217, r=Zone001)
  movej([-1.3534, -1.6505, -2.108, -2.5247, -1.3534, -3.1416], a=3.1416, v=0.0211, r=Zone001)
  movej([-1.3596, -1.6543, -2.1037, -2.5252, -1.3596, -3.1416], a=3.1416, v=0.0204, r=Zone001)
  movej([-1.3656, -1.6583, -2.0992, -2.5257, -1.3656, -3.1416], a=3.1416, v=0.0196, r=Zone001)
  movej([-1.3712, -1.6626, -2.0943, -2.5263, -1.3712, -3.1416], a=3.1416, v=0.0187, r=Zone001)
  movej([-1.3766, -1.6671, -2.0892, -2.5269, -1.3766, -3.1416], a=3.1416, v=0.0177, r=Zone001)
  movej([-1.3816, -1.6718, -2.0838, -2.5275, -1.3816, -3.1416], a=3.1416, v=0.0177, r=Zone001)
  movej([-1.3863, -1.6767, -2.0782, -2.5282, -1.3863, -3.1416], a=3.1416, v=0.0185, r=Zone001)
  movej([-1.3907, -1.6818, -2.0724, -2.529, -1.3907, -3.1416], a=3.1416, v=0.0191, r=Zone001)
  movej([-1.3946, -1.6869, -2.0664, -2.5298, -1.3946, -3.1416], a=3.1416, v=0.0197, r=Zone001)
  movej([-1.3982, -1.6922, -2.0603, -2.5307, -1.3982, -3.1416], a=3.1416, v=0.0202, r=Zone001)
  movej([-1.4014, -1.6975, -2.0541, -2.5316, -1.4014, -3.1416], a=3.1416, v=0.0206, r=Zone001)
  movej([-1.4042, -1.7029, -2.0477, -2.5326, -1.4042, -3.1416], a=3.1416, v=0.021, r=Zone001)
  movej([-1.4066, -1.7083, -2.0413, -2.5336, -1.4066, -3.1416], a=3.1416, v=0.0212, r=Zone001)
  movej([-1.4086, -1.7137, -2.0348, -2.5346, -1.4086, -3.1416], a=3.1416, v=0.0214, r=Zone001)
  movej([-1.4102, -1.7191, -2.0283, -2.5357, -1.4102, -3.1416], a=3.1416, v=0.0214, r=Zone001)
  movej([-1.4113, -1.7245, -2.0218, -2.5368, -1.4113, -3.1416], a=3.1416, v=0.0214, r=Zone001)
  movej([-1.4121, -1.7298, -2.0154, -2.538, -1.4121, -3.1416], a=3.1416, v=0.0213, r=Zone001)
  movej([-1.4125, -1.7351, -2.009, -2.5391, -1.4125, -3.1416], a=3.1416, v=0.0211, r=Zone001)
  movej([-1.4124, -1.7402, -2.0027, -2.5403, -1.4124, -3.1416], a=3.1416, v=0.0209, r=Zone001)
  movej([-1.412, -1.7453, -1.9965, -2.5415, -1.412, -3.1416], a=3.1416, v=0.0205, r=Zone001)
  movej([-1.4112, -1.7502, -1.9904, -2.5427, -1.4112, -3.1416], a=3.1416, v=0.0201, r=Zone001)
  movej([-1.4101, -1.7549, -1.9844, -2.5438, -1.4101, -3.1416], a=3.1416, v=0.0196, r=Zone001)
  movej([-1.4086, -1.7595, -1.9787, -2.545, -1.4086, -3.1416], a=3.1416, v=0.019, r=Zone001)
  movej([-1.4067, -1.7639, -1.9731, -2.5461, -1.4067, -3.1416], a=3.1416, v=0.0184, r=Zone001)
  movej([-1.4045, -1.7681, -1.9678, -2.5473, -1.4045, -3.1416], a=3.1416, v=0.0177, r=Zone001)
  movej([-1.402, -1.7722, -1.9627, -2.5483, -1.402, -3.1416], a=3.1416, v=0.0169, r=Zone001)
  movej([-1.3992, -1.776, -1.9578, -2.5494, -1.3992, -3.1416], a=3.1416, v=0.0161, r=Zone001)
  movej([-1.3961, -1.7795, -1.9532, -2.5504, -1.3961, -3.1416], a=3.1416, v=0.0152, r=Zone001)
  movej([-1.3927, -1.7829, -1.949, -2.5514, -1.3927, -3.1416], a=3.1416, v=0.0142, r=Zone001)
  movej([-1.389, -1.786, -1.945, -2.5523, -1.389, -3.1416], a=3.1416, v=0.0132, r=Zone001)
  movej([-1.3851, -1.7888, -1.9413, -2.5531, -1.3851, -3.1416], a=3.1416, v=0.0129, r=Zone001)
  movej([-1.381, -1.7914, -1.938, -2.5539, -1.381, -3.1416], a=3.1416, v=0.0137, r=Zone001)
  movej([-1.3766, -1.7937, -1.935, -2.5546, -1.3766, -3.1416], a=3.1416, v=0.0144, r=Zone001)
  movej([-1.3721, -1.7957, -1.9323, -2.5552, -1.3721, -3.1416], a=3.1416, v=0.0151, r=Zone001)
  movej([-1.3673, -1.7974, -1.9301, -2.5557, -1.3673, -3.1416], a=3.1416, v=0.0157, r=Zone001)
  movej([-1.3624, -1.7988, -1.9282, -2.5562, -1.3624, -3.1416], a=3.1416, v=0.0163, r=Zone001)
  movej([-1.3574, -1.8, -1.9266, -2.5566, -1.3574, -3.1416], a=3.1416, v=0.0168, r=Zone001)
  movej([-1.3522, -1.8008, -1.9255, -2.5569, -1.3522, -3.1416], a=3.1416, v=0.0172, r=Zone001)
  movej([-1.3469, -1.8013, -1.9248, -2.5571, -1.3469, -3.1416], a=3.1416, v=0.0176, r=Zone001)
  movej([-1.3414, -1.8016, -1.9244, -2.5572, -1.3414, -3.1416], a=3.1416, v=0.018, r=Zone001)
  movej([-1.3359, -1.8015, -1.9244, -2.5572, -1.3359, -3.1416], a=3.1416, v=0.0183, r=Zone001)
  movej([-1.3303, -1.8012, -1.9248, -2.5572, -1.3303, -3.1416], a=3.1416, v=0.0185, r=Zone001)
  movej([-1.3247, -1.8005, -1.9257, -2.557, -1.3247, -3.1416], a=3.1416, v=0.0187, r=Zone001)
  movej([-1.319, -1.7995, -1.9269, -2.5568, -1.319, -3.1416], a=3.1416, v=0.0188, r=Zone001)
  movej([-1.3133, -1.7983, -1.9284, -2.5565, -1.3133, -3.1416], a=3.1416, v=0.0189, r=Zone001)
  movej([-1.3076, -1.7967, -1.9304, -2.5561, -1.3076, -3.1416], a=3.1416, v=0.0189, r=Zone001)
  movej([-1.302, -1.7949, -1.9327, -2.5556, -1.302, -3.1416], a=3.1416, v=0.0189, r=Zone001)
  movej([-1.2963, -1.7928, -1.9354, -2.555, -1.2963, -3.1416], a=3.1416, v=0.0188, r=Zone001)
  movej([-1.2907, -1.7904, -1.9384, -2.5544, -1.2907, -3.1416], a=3.1416, v=0.0186, r=Zone001)
  movej([-1.2852, -1.7877, -1.9418, -2.5537, -1.2852, -3.1416], a=3.1416, v=0.0184, r=Zone001)
  movej([-1.2797, -1.7848, -1.9455, -2.5529, -1.2797, -3.1416], a=3.1416, v=0.0181, r=Zone001)
  movej([-1.2744, -1.7816, -1.9495, -2.5521, -1.2744, -3.1416], a=3.1416, v=0.0178, r=Zone001)
  movej([-1.2692, -1.7782, -1.9538, -2.5512, -1.2692, -3.1416], a=3.1416, v=0.0174, r=Zone001)
  movej([-1.2641, -1.7745, -1.9584, -2.5503, -1.2641, -3.1416], a=3.1416, v=0.0169, r=Zone001)
  movej([-1.2591, -1.7706, -1.9633, -2.5493, -1.2591, -3.1416], a=3.1416, v=0.0164, r=Zone001)
