def Program():
  Clay_extruderTcp = p[0, 0.1765, 0.058, -1.5708, -0, 0]
  Clay_extruderWeight = 1.78
  Clay_extruderCog = [0, 0.1765, 0.058]
  Speed000 = 0.008
  Zone000 = 0
  Zone001 = 0.01
  set_tcp(Clay_extruderTcp)
  set_payload(Clay_extruderWeight, Clay_extruderCog)
  movej([-1.2797, -1.556, -1.761, -2.9662, -1.2797, -3.1416], a=3.1416, v=0.0251, r=Zone000)
  movej([-1.282, -1.5559, -1.7611, -2.9662, -1.282, -3.1416], a=3.1416, v=0.0197, r=Zone001)
  movej([-1.2844, -1.5557, -1.7612, -2.9662, -1.2844, -3.1416], a=3.1416, v=0.0199, r=Zone001)
  movej([-1.2868, -1.5556, -1.7613, -2.9662, -1.2868, -3.1416], a=3.1416, v=0.02, r=Zone001)
  movej([-1.2892, -1.5556, -1.7614, -2.9662, -1.2892, -3.1416], a=3.1416, v=0.0201, r=Zone001)
  movej([-1.2916, -1.5556, -1.7614, -2.9663, -1.2916, -3.1416], a=3.1416, v=0.0202, r=Zone001)
  movej([-1.294, -1.5556, -1.7613, -2.9663, -1.294, -3.1416], a=3.1416, v=0.0203, r=Zone001)
  movej([-1.2964, -1.5557, -1.7613, -2.9663, -1.2964, -3.1416], a=3.1416, v=0.0204, r=Zone001)
  movej([-1.2988, -1.5558, -1.7611, -2.9663, -1.2988, -3.1416], a=3.1416, v=0.0205, r=Zone001)
  movej([-1.3013, -1.5559, -1.761, -2.9663, -1.3013, -3.1416], a=3.1416, v=0.0206, r=Zone001)
  movej([-1.3037, -1.5561, -1.7608, -2.9663, -1.3037, -3.1416], a=3.1416, v=0.0207, r=Zone001)
  movej([-1.3062, -1.5564, -1.7605, -2.9663, -1.3062, -3.1416], a=3.1416, v=0.0207, r=Zone001)
  movej([-1.3086, -1.5567, -1.7602, -2.9663, -1.3086, -3.1416], a=3.1416, v=0.0208, r=Zone001)
  movej([-1.3111, -1.557, -1.7599, -2.9663, -1.3111, -3.1416], a=3.1416, v=0.0208, r=Zone001)
  movej([-1.3136, -1.5574, -1.7595, -2.9663, -1.3136, -3.1416], a=3.1416, v=0.0209, r=Zone001)
  movej([-1.3161, -1.5578, -1.7591, -2.9663, -1.3161, -3.1416], a=3.1416, v=0.0209, r=Zone001)
  movej([-1.3186, -1.5582, -1.7586, -2.9663, -1.3186, -3.1416], a=3.1416, v=0.0209, r=Zone001)
  movej([-1.321, -1.5587, -1.7582, -2.9663, -1.321, -3.1416], a=3.1416, v=0.0209, r=Zone001)
  movej([-1.3235, -1.5592, -1.7576, -2.9663, -1.3235, -3.1416], a=3.1416, v=0.021, r=Zone001)
  movej([-1.326, -1.5598, -1.757, -2.9663, -1.326, -3.1416], a=3.1416, v=0.021, r=Zone001)
  movej([-1.3285, -1.5604, -1.7564, -2.9663, -1.3285, -3.1416], a=3.1416, v=0.0209, r=Zone001)
  movej([-1.331, -1.5611, -1.7558, -2.9663, -1.331, -3.1416], a=3.1416, v=0.0209, r=Zone001)
  movej([-1.3335, -1.5618, -1.7551, -2.9663, -1.3335, -3.1416], a=3.1416, v=0.0209, r=Zone001)
  movej([-1.3359, -1.5625, -1.7543, -2.9663, -1.3359, -3.1416], a=3.1416, v=0.0209, r=Zone001)
  movej([-1.3384, -1.5633, -1.7536, -2.9663, -1.3384, -3.1416], a=3.1416, v=0.0208, r=Zone001)
  movej([-1.3409, -1.5641, -1.7527, -2.9663, -1.3409, -3.1416], a=3.1416, v=0.0208, r=Zone001)
  movej([-1.3433, -1.5649, -1.7519, -2.9663, -1.3433, -3.1416], a=3.1416, v=0.0207, r=Zone001)
  movej([-1.3458, -1.5658, -1.751, -2.9664, -1.3458, -3.1416], a=3.1416, v=0.0207, r=Zone001)
  movej([-1.3482, -1.5668, -1.7501, -2.9664, -1.3482, -3.1416], a=3.1416, v=0.0206, r=Zone001)
  movej([-1.3507, -1.5677, -1.7491, -2.9664, -1.3507, -3.1416], a=3.1416, v=0.0205, r=Zone001)
  movej([-1.3531, -1.5687, -1.7481, -2.9664, -1.3531, -3.1416], a=3.1416, v=0.0205, r=Zone001)
  movej([-1.3555, -1.5698, -1.747, -2.9664, -1.3555, -3.1416], a=3.1416, v=0.0204, r=Zone001)
  movej([-1.3579, -1.5708, -1.746, -2.9664, -1.3579, -3.1416], a=3.1416, v=0.0203, r=Zone001)
  movej([-1.3603, -1.572, -1.7448, -2.9664, -1.3603, -3.1416], a=3.1416, v=0.0202, r=Zone001)
  movej([-1.3627, -1.5731, -1.7437, -2.9664, -1.3627, -3.1416], a=3.1416, v=0.02, r=Zone001)
  movej([-1.365, -1.5743, -1.7425, -2.9664, -1.365, -3.1416], a=3.1416, v=0.0199, r=Zone001)
  movej([-1.3674, -1.5755, -1.7412, -2.9664, -1.3674, -3.1416], a=3.1416, v=0.0198, r=Zone001)
  movej([-1.3697, -1.5768, -1.74, -2.9665, -1.3697, -3.1416], a=3.1416, v=0.0197, r=Zone001)
  movej([-1.372, -1.578, -1.7387, -2.9665, -1.372, -3.1416], a=3.1416, v=0.0195, r=Zone001)
  movej([-1.3743, -1.5794, -1.7373, -2.9665, -1.3743, -3.1416], a=3.1416, v=0.0194, r=Zone001)
  movej([-1.3766, -1.5807, -1.736, -2.9665, -1.3766, -3.1416], a=3.1416, v=0.0192, r=Zone001)
  movej([-1.3789, -1.5821, -1.7345, -2.9665, -1.3789, -3.1416], a=3.1416, v=0.0191, r=Zone001)
  movej([-1.3811, -1.5835, -1.7331, -2.9666, -1.3811, -3.1416], a=3.1416, v=0.0189, r=Zone001)
  movej([-1.3833, -1.585, -1.7316, -2.9666, -1.3833, -3.1416], a=3.1416, v=0.0187, r=Zone001)
  movej([-1.3855, -1.5864, -1.7301, -2.9666, -1.3855, -3.1416], a=3.1416, v=0.0186, r=Zone001)
  movej([-1.3877, -1.5879, -1.7286, -2.9667, -1.3877, -3.1416], a=3.1416, v=0.0184, r=Zone001)
  movej([-1.3898, -1.5895, -1.727, -2.9667, -1.3898, -3.1416], a=3.1416, v=0.0182, r=Zone001)
  movej([-1.392, -1.591, -1.7254, -2.9668, -1.392, -3.1416], a=3.1416, v=0.018, r=Zone001)
  movej([-1.3941, -1.5926, -1.7237, -2.9668, -1.3941, -3.1416], a=3.1416, v=0.0178, r=Zone001)
  movej([-1.3962, -1.5943, -1.7221, -2.9669, -1.3962, -3.1416], a=3.1416, v=0.0176, r=Zone001)
  movej([-1.3982, -1.5959, -1.7204, -2.9669, -1.3982, -3.1416], a=3.1416, v=0.0174, r=Zone001)
  movej([-1.4002, -1.5976, -1.7186, -2.967, -1.4002, -3.1416], a=3.1416, v=0.0172, r=Zone001)
  movej([-1.4022, -1.5993, -1.7169, -2.967, -1.4022, -3.1416], a=3.1416, v=0.0169, r=Zone001)
  movej([-1.4042, -1.601, -1.7151, -2.9671, -1.4042, -3.1416], a=3.1416, v=0.0167, r=Zone001)
  movej([-1.4062, -1.6028, -1.7132, -2.9672, -1.4062, -3.1416], a=3.1416, v=0.0165, r=Zone001)
  movej([-1.4081, -1.6046, -1.7114, -2.9672, -1.4081, -3.1416], a=3.1416, v=0.0162, r=Zone001)
  movej([-1.41, -1.6064, -1.7095, -2.9673, -1.41, -3.1416], a=3.1416, v=0.016, r=Zone001)
  movej([-1.4119, -1.6082, -1.7076, -2.9674, -1.4119, -3.1416], a=3.1416, v=0.0161, r=Zone001)
  movej([-1.4137, -1.61, -1.7057, -2.9675, -1.4137, -3.1416], a=3.1416, v=0.0164, r=Zone001)
  movej([-1.4155, -1.6119, -1.7037, -2.9676, -1.4155, -3.1416], a=3.1416, v=0.0166, r=Zone001)
  movej([-1.4173, -1.6138, -1.7017, -2.9677, -1.4173, -3.1416], a=3.1416, v=0.0168, r=Zone001)
  movej([-1.419, -1.6157, -1.6997, -2.9678, -1.419, -3.1416], a=3.1416, v=0.017, r=Zone001)
  movej([-1.4207, -1.6176, -1.6977, -2.9679, -1.4207, -3.1416], a=3.1416, v=0.0172, r=Zone001)
  movej([-1.4224, -1.6196, -1.6956, -2.968, -1.4224, -3.1416], a=3.1416, v=0.0175, r=Zone001)
  movej([-1.4241, -1.6216, -1.6935, -2.9681, -1.4241, -3.1416], a=3.1416, v=0.0177, r=Zone001)
  movej([-1.4257, -1.6235, -1.6914, -2.9682, -1.4257, -3.1416], a=3.1416, v=0.0179, r=Zone001)
  movej([-1.4273, -1.6256, -1.6893, -2.9684, -1.4273, -3.1416], a=3.1416, v=0.0181, r=Zone001)
  movej([-1.4288, -1.6276, -1.6871, -2.9685, -1.4288, -3.1416], a=3.1416, v=0.0182, r=Zone001)
  movej([-1.4304, -1.6296, -1.6849, -2.9686, -1.4304, -3.1416], a=3.1416, v=0.0184, r=Zone001)
  movej([-1.4319, -1.6317, -1.6827, -2.9688, -1.4319, -3.1416], a=3.1416, v=0.0186, r=Zone001)
  movej([-1.4333, -1.6338, -1.6805, -2.9689, -1.4333, -3.1416], a=3.1416, v=0.0188, r=Zone001)
  movej([-1.4347, -1.6358, -1.6783, -2.9691, -1.4347, -3.1416], a=3.1416, v=0.019, r=Zone001)
  movej([-1.4361, -1.6379, -1.676, -2.9693, -1.4361, -3.1416], a=3.1416, v=0.0191, r=Zone001)
  movej([-1.4375, -1.6401, -1.6737, -2.9694, -1.4375, -3.1416], a=3.1416, v=0.0193, r=Zone001)
  movej([-1.4388, -1.6422, -1.6714, -2.9696, -1.4388, -3.1416], a=3.1416, v=0.0195, r=Zone001)
  movej([-1.4401, -1.6443, -1.6691, -2.9698, -1.4401, -3.1416], a=3.1416, v=0.0196, r=Zone001)
  movej([-1.4413, -1.6465, -1.6668, -2.97, -1.4413, -3.1416], a=3.1416, v=0.0198, r=Zone001)
  movej([-1.4425, -1.6486, -1.6644, -2.9702, -1.4425, -3.1416], a=3.1416, v=0.0199, r=Zone001)
  movej([-1.4437, -1.6508, -1.662, -2.9704, -1.4437, -3.1416], a=3.1416, v=0.0201, r=Zone001)
  movej([-1.4449, -1.653, -1.6596, -2.9706, -1.4449, -3.1416], a=3.1416, v=0.0202, r=Zone001)
  movej([-1.446, -1.6552, -1.6572, -2.9708, -1.446, -3.1416], a=3.1416, v=0.0203, r=Zone001)
  movej([-1.447, -1.6574, -1.6548, -2.971, -1.447, -3.1416], a=3.1416, v=0.0204, r=Zone001)
  movej([-1.4481, -1.6596, -1.6524, -2.9712, -1.4481, -3.1416], a=3.1416, v=0.0206, r=Zone001)
  movej([-1.4491, -1.6618, -1.65, -2.9714, -1.4491, -3.1416], a=3.1416, v=0.0207, r=Zone001)
  movej([-1.4501, -1.664, -1.6475, -2.9717, -1.4501, -3.1416], a=3.1416, v=0.0208, r=Zone001)
  movej([-1.451, -1.6663, -1.645, -2.9719, -1.451, -3.1416], a=3.1416, v=0.0209, r=Zone001)
  movej([-1.4519, -1.6685, -1.6425, -2.9722, -1.4519, -3.1416], a=3.1416, v=0.021, r=Zone001)
  movej([-1.4527, -1.6707, -1.6401, -2.9724, -1.4527, -3.1416], a=3.1416, v=0.0211, r=Zone001)
  movej([-1.4536, -1.673, -1.6376, -2.9727, -1.4536, -3.1416], a=3.1416, v=0.0212, r=Zone001)
  movej([-1.4544, -1.6752, -1.635, -2.9729, -1.4544, -3.1416], a=3.1416, v=0.0213, r=Zone001)
  movej([-1.4551, -1.6775, -1.6325, -2.9732, -1.4551, -3.1416], a=3.1416, v=0.0213, r=Zone001)
  movej([-1.4558, -1.6797, -1.63, -2.9735, -1.4558, -3.1416], a=3.1416, v=0.0214, r=Zone001)
  movej([-1.4565, -1.682, -1.6275, -2.9738, -1.4565, -3.1416], a=3.1416, v=0.0215, r=Zone001)
  movej([-1.4572, -1.6842, -1.6249, -2.974, -1.4572, -3.1416], a=3.1416, v=0.0216, r=Zone001)
  movej([-1.4578, -1.6865, -1.6224, -2.9743, -1.4578, -3.1416], a=3.1416, v=0.0216, r=Zone001)
  movej([-1.4583, -1.6888, -1.6198, -2.9746, -1.4583, -3.1416], a=3.1416, v=0.0217, r=Zone001)
  movej([-1.4589, -1.691, -1.6172, -2.9749, -1.4589, -3.1416], a=3.1416, v=0.0217, r=Zone001)
  movej([-1.4594, -1.6933, -1.6147, -2.9753, -1.4594, -3.1416], a=3.1416, v=0.0218, r=Zone001)
  movej([-1.4599, -1.6955, -1.6121, -2.9756, -1.4599, -3.1416], a=3.1416, v=0.0218, r=Zone001)
  movej([-1.4603, -1.6978, -1.6095, -2.9759, -1.4603, -3.1416], a=3.1416, v=0.0218, r=Zone001)
  movej([-1.4607, -1.7, -1.6069, -2.9762, -1.4607, -3.1416], a=3.1416, v=0.0219, r=Zone001)
  movej([-1.4611, -1.7023, -1.6044, -2.9765, -1.4611, -3.1416], a=3.1416, v=0.0219, r=Zone001)
  movej([-1.4614, -1.7045, -1.6018, -2.9769, -1.4614, -3.1416], a=3.1416, v=0.0219, r=Zone001)
  movej([-1.4617, -1.7068, -1.5992, -2.9772, -1.4617, -3.1416], a=3.1416, v=0.0219, r=Zone001)
  movej([-1.4619, -1.709, -1.5966, -2.9776, -1.4619, -3.1416], a=3.1416, v=0.0219, r=Zone001)
  movej([-1.4622, -1.7113, -1.594, -2.9779, -1.4622, -3.1416], a=3.1416, v=0.0219, r=Zone001)
  movej([-1.4624, -1.7135, -1.5914, -2.9783, -1.4624, -3.1416], a=3.1416, v=0.0219, r=Zone001)
  movej([-1.4625, -1.7157, -1.5888, -2.9786, -1.4625, -3.1416], a=3.1416, v=0.0219, r=Zone001)
  movej([-1.4626, -1.7179, -1.5863, -2.979, -1.4626, -3.1416], a=3.1416, v=0.0219, r=Zone001)
  movej([-1.4627, -1.7201, -1.5837, -2.9794, -1.4627, -3.1416], a=3.1416, v=0.0219, r=Zone001)
  movej([-1.4628, -1.7223, -1.5811, -2.9797, -1.4628, -3.1416], a=3.1416, v=0.0218, r=Zone001)
  movej([-1.4628, -1.7245, -1.5785, -2.9801, -1.4628, -3.1416], a=3.1416, v=0.0218, r=Zone001)
  movej([-1.4628, -1.7267, -1.576, -2.9805, -1.4628, -3.1416], a=3.1416, v=0.0218, r=Zone001)
  movej([-1.4628, -1.7289, -1.5734, -2.9809, -1.4628, -3.1416], a=3.1416, v=0.0217, r=Zone001)
  movej([-1.4627, -1.7311, -1.5709, -2.9813, -1.4627, -3.1416], a=3.1416, v=0.0217, r=Zone001)
  movej([-1.4626, -1.7332, -1.5683, -2.9817, -1.4626, -3.1416], a=3.1416, v=0.0216, r=Zone001)
  movej([-1.4625, -1.7354, -1.5658, -2.982, -1.4625, -3.1416], a=3.1416, v=0.0216, r=Zone001)
  movej([-1.4623, -1.7375, -1.5632, -2.9824, -1.4623, -3.1416], a=3.1416, v=0.0215, r=Zone001)
  movej([-1.4621, -1.7397, -1.5607, -2.9828, -1.4621, -3.1416], a=3.1416, v=0.0214, r=Zone001)
  movej([-1.4619, -1.7418, -1.5582, -2.9832, -1.4619, -3.1416], a=3.1416, v=0.0214, r=Zone001)
  movej([-1.4616, -1.7439, -1.5557, -2.9836, -1.4616, -3.1416], a=3.1416, v=0.0213, r=Zone001)
  movej([-1.4613, -1.746, -1.5532, -2.9841, -1.4613, -3.1416], a=3.1416, v=0.0212, r=Zone001)
  movej([-1.461, -1.748, -1.5507, -2.9845, -1.461, -3.1416], a=3.1416, v=0.0211, r=Zone001)
  movej([-1.4606, -1.7501, -1.5482, -2.9849, -1.4606, -3.1416], a=3.1416, v=0.021, r=Zone001)
  movej([-1.4603, -1.7522, -1.5457, -2.9853, -1.4603, -3.1416], a=3.1416, v=0.0209, r=Zone001)
  movej([-1.4598, -1.7542, -1.5433, -2.9857, -1.4598, -3.1416], a=3.1416, v=0.0208, r=Zone001)
  movej([-1.4594, -1.7562, -1.5408, -2.9861, -1.4594, -3.1416], a=3.1416, v=0.0207, r=Zone001)
  movej([-1.4589, -1.7582, -1.5384, -2.9865, -1.4589, -3.1416], a=3.1416, v=0.0206, r=Zone001)
  movej([-1.4584, -1.7602, -1.536, -2.987, -1.4584, -3.1416], a=3.1416, v=0.0205, r=Zone001)
  movej([-1.4579, -1.7622, -1.5336, -2.9874, -1.4579, -3.1416], a=3.1416, v=0.0204, r=Zone001)
  movej([-1.4573, -1.7642, -1.5312, -2.9878, -1.4573, -3.1416], a=3.1416, v=0.0202, r=Zone001)
  movej([-1.4567, -1.7661, -1.5288, -2.9882, -1.4567, -3.1416], a=3.1416, v=0.0201, r=Zone001)
  movej([-1.4561, -1.7681, -1.5265, -2.9886, -1.4561, -3.1416], a=3.1416, v=0.02, r=Zone001)
  movej([-1.4555, -1.77, -1.5241, -2.9891, -1.4555, -3.1416], a=3.1416, v=0.0198, r=Zone001)
  movej([-1.4548, -1.7719, -1.5218, -2.9895, -1.4548, -3.1416], a=3.1416, v=0.0197, r=Zone001)
  movej([-1.4541, -1.7737, -1.5195, -2.9899, -1.4541, -3.1416], a=3.1416, v=0.0195, r=Zone001)
  movej([-1.4534, -1.7756, -1.5172, -2.9903, -1.4534, -3.1416], a=3.1416, v=0.0194, r=Zone001)
  movej([-1.4527, -1.7774, -1.515, -2.9908, -1.4527, -3.1416], a=3.1416, v=0.0192, r=Zone001)
  movej([-1.4519, -1.7793, -1.5127, -2.9912, -1.4519, -3.1416], a=3.1416, v=0.019, r=Zone001)
  movej([-1.4511, -1.7811, -1.5105, -2.9916, -1.4511, -3.1416], a=3.1416, v=0.0189, r=Zone001)
  movej([-1.4503, -1.7828, -1.5083, -2.992, -1.4503, -3.1416], a=3.1416, v=0.0187, r=Zone001)
  movej([-1.4494, -1.7846, -1.5061, -2.9924, -1.4494, -3.1416], a=3.1416, v=0.0185, r=Zone001)
  movej([-1.4485, -1.7863, -1.504, -2.9929, -1.4485, -3.1416], a=3.1416, v=0.0183, r=Zone001)
  movej([-1.4476, -1.7881, -1.5019, -2.9933, -1.4476, -3.1416], a=3.1416, v=0.0181, r=Zone001)
  movej([-1.4467, -1.7898, -1.4997, -2.9937, -1.4467, -3.1416], a=3.1416, v=0.0179, r=Zone001)
  movej([-1.4457, -1.7914, -1.4977, -2.9941, -1.4457, -3.1416], a=3.1416, v=0.0177, r=Zone001)
  movej([-1.4448, -1.7931, -1.4956, -2.9945, -1.4448, -3.1416], a=3.1416, v=0.0175, r=Zone001)
  movej([-1.4438, -1.7947, -1.4935, -2.9949, -1.4438, -3.1416], a=3.1416, v=0.0173, r=Zone001)
  movej([-1.4428, -1.7963, -1.4915, -2.9953, -1.4428, -3.1416], a=3.1416, v=0.0171, r=Zone001)
  movej([-1.4417, -1.7979, -1.4895, -2.9957, -1.4417, -3.1416], a=3.1416, v=0.0169, r=Zone001)
  movej([-1.4407, -1.7995, -1.4876, -2.9961, -1.4407, -3.1416], a=3.1416, v=0.0167, r=Zone001)
  movej([-1.4396, -1.801, -1.4856, -2.9965, -1.4396, -3.1416], a=3.1416, v=0.0165, r=Zone001)
  movej([-1.4385, -1.8026, -1.4837, -2.9969, -1.4385, -3.1416], a=3.1416, v=0.0162, r=Zone001)
  movej([-1.4373, -1.8041, -1.4819, -2.9973, -1.4373, -3.1416], a=3.1416, v=0.016, r=Zone001)
  movej([-1.4362, -1.8055, -1.48, -2.9977, -1.4362, -3.1416], a=3.1416, v=0.0158, r=Zone001)
  movej([-1.435, -1.807, -1.4782, -2.998, -1.435, -3.1416], a=3.1416, v=0.0155, r=Zone001)
  movej([-1.4338, -1.8084, -1.4764, -2.9984, -1.4338, -3.1416], a=3.1416, v=0.0153, r=Zone001)
  movej([-1.4326, -1.8098, -1.4746, -2.9988, -1.4326, -3.1416], a=3.1416, v=0.015, r=Zone001)
  movej([-1.4314, -1.8112, -1.4729, -2.9991, -1.4314, -3.1416], a=3.1416, v=0.0148, r=Zone001)
  movej([-1.4301, -1.8125, -1.4712, -2.9995, -1.4301, -3.1416], a=3.1416, v=0.0145, r=Zone001)
  movej([-1.4288, -1.8138, -1.4695, -2.9999, -1.4288, -3.1416], a=3.1416, v=0.0143, r=Zone001)
  movej([-1.4275, -1.8151, -1.4678, -3.0002, -1.4275, -3.1416], a=3.1416, v=0.014, r=Zone001)
  movej([-1.4262, -1.8164, -1.4662, -3.0006, -1.4262, -3.1416], a=3.1416, v=0.0137, r=Zone001)
  movej([-1.4249, -1.8176, -1.4646, -3.0009, -1.4249, -3.1416], a=3.1416, v=0.0135, r=Zone001)
  movej([-1.4236, -1.8189, -1.4631, -3.0012, -1.4236, -3.1416], a=3.1416, v=0.0132, r=Zone001)
  movej([-1.4222, -1.82, -1.4616, -3.0016, -1.4222, -3.1416], a=3.1416, v=0.0129, r=Zone001)
  movej([-1.4208, -1.8212, -1.4601, -3.0019, -1.4208, -3.1416], a=3.1416, v=0.0126, r=Zone001)
  movej([-1.4194, -1.8223, -1.4586, -3.0022, -1.4194, -3.1416], a=3.1416, v=0.0124, r=Zone001)
  movej([-1.418, -1.8234, -1.4572, -3.0025, -1.418, -3.1416], a=3.1416, v=0.0121, r=Zone001)
  movej([-1.4166, -1.8245, -1.4558, -3.0028, -1.4166, -3.1416], a=3.1416, v=0.0122, r=Zone001)
  movej([-1.4151, -1.8256, -1.4545, -3.0031, -1.4151, -3.1416], a=3.1416, v=0.0123, r=Zone001)
  movej([-1.4136, -1.8266, -1.4532, -3.0034, -1.4136, -3.1416], a=3.1416, v=0.0125, r=Zone001)
  movej([-1.4122, -1.8276, -1.4519, -3.0037, -1.4122, -3.1416], a=3.1416, v=0.0126, r=Zone001)
  movej([-1.4107, -1.8286, -1.4506, -3.004, -1.4107, -3.1416], a=3.1416, v=0.0127, r=Zone001)
  movej([-1.4092, -1.8295, -1.4494, -3.0042, -1.4092, -3.1416], a=3.1416, v=0.0129, r=Zone001)
  movej([-1.4076, -1.8304, -1.4483, -3.0045, -1.4076, -3.1416], a=3.1416, v=0.013, r=Zone001)
  movej([-1.4061, -1.8313, -1.4471, -3.0048, -1.4061, -3.1416], a=3.1416, v=0.0131, r=Zone001)
  movej([-1.4045, -1.8321, -1.446, -3.005, -1.4045, -3.1416], a=3.1416, v=0.0132, r=Zone001)
  movej([-1.403, -1.833, -1.445, -3.0053, -1.403, -3.1416], a=3.1416, v=0.0134, r=Zone001)
  movej([-1.4014, -1.8337, -1.4439, -3.0055, -1.4014, -3.1416], a=3.1416, v=0.0135, r=Zone001)
  movej([-1.3998, -1.8345, -1.443, -3.0057, -1.3998, -3.1416], a=3.1416, v=0.0136, r=Zone001)
  movej([-1.3982, -1.8352, -1.442, -3.0059, -1.3982, -3.1416], a=3.1416, v=0.0137, r=Zone001)
  movej([-1.3966, -1.8359, -1.4411, -3.0061, -1.3966, -3.1416], a=3.1416, v=0.0138, r=Zone001)
  movej([-1.3949, -1.8366, -1.4402, -3.0064, -1.3949, -3.1416], a=3.1416, v=0.0139, r=Zone001)
  movej([-1.3933, -1.8372, -1.4394, -3.0065, -1.3933, -3.1416], a=3.1416, v=0.014, r=Zone001)
  movej([-1.3916, -1.8379, -1.4386, -3.0067, -1.3916, -3.1416], a=3.1416, v=0.0141, r=Zone001)
  movej([-1.39, -1.8384, -1.4378, -3.0069, -1.39, -3.1416], a=3.1416, v=0.0142, r=Zone001)
  movej([-1.3883, -1.839, -1.4371, -3.0071, -1.3883, -3.1416], a=3.1416, v=0.0143, r=Zone001)
  movej([-1.3866, -1.8395, -1.4364, -3.0072, -1.3866, -3.1416], a=3.1416, v=0.0144, r=Zone001)
  movej([-1.3849, -1.84, -1.4358, -3.0074, -1.3849, -3.1416], a=3.1416, v=0.0145, r=Zone001)
  movej([-1.3832, -1.8405, -1.4352, -3.0075, -1.3832, -3.1416], a=3.1416, v=0.0146, r=Zone001)
  movej([-1.3815, -1.8409, -1.4346, -3.0077, -1.3815, -3.1416], a=3.1416, v=0.0146, r=Zone001)
  movej([-1.3797, -1.8413, -1.4341, -3.0078, -1.3797, -3.1416], a=3.1416, v=0.0147, r=Zone001)
  movej([-1.378, -1.8416, -1.4336, -3.0079, -1.378, -3.1416], a=3.1416, v=0.0148, r=Zone001)
  movej([-1.3763, -1.842, -1.4332, -3.008, -1.3763, -3.1416], a=3.1416, v=0.0149, r=Zone001)
  movej([-1.3745, -1.8423, -1.4328, -3.0081, -1.3745, -3.1416], a=3.1416, v=0.015, r=Zone001)
  movej([-1.3727, -1.8425, -1.4324, -3.0082, -1.3727, -3.1416], a=3.1416, v=0.015, r=Zone001)
  movej([-1.371, -1.8428, -1.4321, -3.0083, -1.371, -3.1416], a=3.1416, v=0.0151, r=Zone001)
  movej([-1.3692, -1.843, -1.4318, -3.0084, -1.3692, -3.1416], a=3.1416, v=0.0152, r=Zone001)
  movej([-1.3674, -1.8432, -1.4316, -3.0084, -1.3674, -3.1416], a=3.1416, v=0.0152, r=Zone001)
  movej([-1.3656, -1.8433, -1.4314, -3.0085, -1.3656, -3.1416], a=3.1416, v=0.0153, r=Zone001)
  movej([-1.3638, -1.8434, -1.4313, -3.0085, -1.3638, -3.1416], a=3.1416, v=0.0153, r=Zone001)
  movej([-1.362, -1.8435, -1.4311, -3.0085, -1.362, -3.1416], a=3.1416, v=0.0154, r=Zone001)
  movej([-1.3602, -1.8436, -1.4311, -3.0086, -1.3602, -3.1416], a=3.1416, v=0.0154, r=Zone001)
  movej([-1.3584, -1.8436, -1.431, -3.0086, -1.3584, -3.1416], a=3.1416, v=0.0155, r=Zone001)
  movej([-1.3566, -1.8436, -1.431, -3.0086, -1.3566, -3.1416], a=3.1416, v=0.0155, r=Zone001)
  movej([-1.3547, -1.8435, -1.4311, -3.0086, -1.3547, -3.1416], a=3.1416, v=0.0156, r=Zone001)
  movej([-1.3529, -1.8434, -1.4312, -3.0086, -1.3529, -3.1416], a=3.1416, v=0.0156, r=Zone001)
  movej([-1.3511, -1.8433, -1.4313, -3.0085, -1.3511, -3.1416], a=3.1416, v=0.0157, r=Zone001)
  movej([-1.3492, -1.8432, -1.4315, -3.0085, -1.3492, -3.1416], a=3.1416, v=0.0157, r=Zone001)
  movej([-1.3474, -1.843, -1.4317, -3.0085, -1.3474, -3.1416], a=3.1416, v=0.0157, r=Zone001)
  movej([-1.3455, -1.8428, -1.4319, -3.0084, -1.3455, -3.1416], a=3.1416, v=0.0158, r=Zone001)
  movej([-1.3437, -1.8426, -1.4322, -3.0084, -1.3437, -3.1416], a=3.1416, v=0.0158, r=Zone001)
  movej([-1.3418, -1.8423, -1.4325, -3.0083, -1.3418, -3.1416], a=3.1416, v=0.0158, r=Zone001)
  movej([-1.34, -1.842, -1.4329, -3.0082, -1.34, -3.1416], a=3.1416, v=0.0159, r=Zone001)
  movej([-1.3381, -1.8417, -1.4333, -3.0081, -1.3381, -3.1416], a=3.1416, v=0.0159, r=Zone001)
  movej([-1.3363, -1.8414, -1.4338, -3.008, -1.3363, -3.1416], a=3.1416, v=0.0159, r=Zone001)
  movej([-1.3344, -1.841, -1.4343, -3.0079, -1.3344, -3.1416], a=3.1416, v=0.0159, r=Zone001)
  movej([-1.3325, -1.8406, -1.4348, -3.0078, -1.3325, -3.1416], a=3.1416, v=0.0159, r=Zone001)
  movej([-1.3307, -1.8401, -1.4354, -3.0077, -1.3307, -3.1416], a=3.1416, v=0.0159, r=Zone001)
  movej([-1.3288, -1.8396, -1.436, -3.0076, -1.3288, -3.1416], a=3.1416, v=0.0159, r=Zone001)
  movej([-1.3269, -1.8391, -1.4366, -3.0074, -1.3269, -3.1416], a=3.1416, v=0.0159, r=Zone001)
  movej([-1.3251, -1.8386, -1.4373, -3.0073, -1.3251, -3.1416], a=3.1416, v=0.0159, r=Zone001)
  movej([-1.3232, -1.838, -1.4381, -3.0071, -1.3232, -3.1416], a=3.1416, v=0.0159, r=Zone001)
  movej([-1.3213, -1.8374, -1.4388, -3.007, -1.3213, -3.1416], a=3.1416, v=0.0159, r=Zone001)
  movej([-1.3195, -1.8368, -1.4396, -3.0068, -1.3195, -3.1416], a=3.1416, v=0.0159, r=Zone001)
  movej([-1.3176, -1.8361, -1.4405, -3.0066, -1.3176, -3.1416], a=3.1416, v=0.0159, r=Zone001)
  movej([-1.3157, -1.8354, -1.4413, -3.0064, -1.3157, -3.1416], a=3.1416, v=0.0159, r=Zone001)
  movej([-1.3139, -1.8347, -1.4423, -3.0062, -1.3139, -3.1416], a=3.1416, v=0.0159, r=Zone001)
  movej([-1.312, -1.8339, -1.4432, -3.006, -1.312, -3.1416], a=3.1416, v=0.0159, r=Zone001)
  movej([-1.3101, -1.8331, -1.4442, -3.0058, -1.3101, -3.1416], a=3.1416, v=0.0159, r=Zone001)
  movej([-1.3083, -1.8323, -1.4452, -3.0056, -1.3083, -3.1416], a=3.1416, v=0.0158, r=Zone001)
  movej([-1.3064, -1.8315, -1.4463, -3.0054, -1.3064, -3.1416], a=3.1416, v=0.0158, r=Zone001)
  movej([-1.3046, -1.8306, -1.4474, -3.0051, -1.3046, -3.1416], a=3.1416, v=0.0158, r=Zone001)
  movej([-1.3028, -1.8297, -1.4486, -3.0049, -1.3028, -3.1416], a=3.1416, v=0.0158, r=Zone001)
  movej([-1.3009, -1.8288, -1.4497, -3.0046, -1.3009, -3.1416], a=3.1416, v=0.0157, r=Zone001)
  movej([-1.2991, -1.8278, -1.451, -3.0044, -1.2991, -3.1416], a=3.1416, v=0.0157, r=Zone001)
  movej([-1.2972, -1.8269, -1.4522, -3.0041, -1.2972, -3.1416], a=3.1416, v=0.0157, r=Zone001)
  movej([-1.2954, -1.8258, -1.4535, -3.0039, -1.2954, -3.1416], a=3.1416, v=0.0156, r=Zone001)
  movej([-1.2936, -1.8248, -1.4548, -3.0036, -1.2936, -3.1416], a=3.1416, v=0.0156, r=Zone001)
  movej([-1.2918, -1.8237, -1.4561, -3.0033, -1.2918, -3.1416], a=3.1416, v=0.0155, r=Zone001)
  movej([-1.29, -1.8226, -1.4575, -3.003, -1.29, -3.1416], a=3.1416, v=0.0155, r=Zone001)
  movej([-1.2882, -1.8215, -1.459, -3.0027, -1.2882, -3.1416], a=3.1416, v=0.0154, r=Zone001)
  movej([-1.2864, -1.8204, -1.4604, -3.0024, -1.2864, -3.1416], a=3.1416, v=0.0154, r=Zone001)
  movej([-1.2846, -1.8192, -1.4619, -3.0021, -1.2846, -3.1416], a=3.1416, v=0.0153, r=Zone001)
  movej([-1.2828, -1.818, -1.4634, -3.0018, -1.2828, -3.1416], a=3.1416, v=0.0153, r=Zone001)
  movej([-1.281, -1.8168, -1.465, -3.0015, -1.281, -3.1416], a=3.1416, v=0.0152, r=Zone001)
  movej([-1.2792, -1.8155, -1.4665, -3.0011, -1.2792, -3.1416], a=3.1416, v=0.0151, r=Zone001)
  movej([-1.2775, -1.8142, -1.4682, -3.0008, -1.2775, -3.1416], a=3.1416, v=0.0151, r=Zone001)
  movej([-1.2757, -1.8129, -1.4698, -3.0005, -1.2757, -3.1416], a=3.1416, v=0.015, r=Zone001)
  movej([-1.274, -1.8116, -1.4715, -3.0001, -1.274, -3.1416], a=3.1416, v=0.0149, r=Zone001)
  movej([-1.2722, -1.8102, -1.4732, -2.9998, -1.2722, -3.1416], a=3.1416, v=0.0148, r=Zone001)
  movej([-1.2705, -1.8088, -1.4749, -2.9994, -1.2705, -3.1416], a=3.1416, v=0.0148, r=Zone001)
  movej([-1.2688, -1.8074, -1.4767, -2.9991, -1.2688, -3.1416], a=3.1416, v=0.0151, r=Zone001)
  movej([-1.2671, -1.806, -1.4785, -2.9987, -1.2671, -3.1416], a=3.1416, v=0.0153, r=Zone001)
  movej([-1.2654, -1.8045, -1.4803, -2.9984, -1.2654, -3.1416], a=3.1416, v=0.0156, r=Zone001)
  movej([-1.2637, -1.803, -1.4821, -2.998, -1.2637, -3.1416], a=3.1416, v=0.0158, r=Zone001)
  movej([-1.2621, -1.8015, -1.484, -2.9976, -1.2621, -3.1416], a=3.1416, v=0.016, r=Zone001)
  movej([-1.2604, -1.8, -1.4859, -2.9973, -1.2604, -3.1416], a=3.1416, v=0.0163, r=Zone001)
  movej([-1.2587, -1.7985, -1.4878, -2.9969, -1.2587, -3.1416], a=3.1416, v=0.0165, r=Zone001)
  movej([-1.2571, -1.7969, -1.4898, -2.9965, -1.2571, -3.1416], a=3.1416, v=0.0167, r=Zone001)
  movej([-1.2555, -1.7953, -1.4918, -2.9961, -1.2555, -3.1416], a=3.1416, v=0.0169, r=Zone001)
  movej([-1.2539, -1.7937, -1.4938, -2.9958, -1.2539, -3.1416], a=3.1416, v=0.0171, r=Zone001)
  movej([-1.2523, -1.792, -1.4958, -2.9954, -1.2523, -3.1416], a=3.1416, v=0.0174, r=Zone001)
  movej([-1.2507, -1.7904, -1.4978, -2.995, -1.2507, -3.1416], a=3.1416, v=0.0176, r=Zone001)
  movej([-1.2491, -1.7887, -1.4999, -2.9946, -1.2491, -3.1416], a=3.1416, v=0.0178, r=Zone001)
  movej([-1.2475, -1.787, -1.502, -2.9942, -1.2475, -3.1416], a=3.1416, v=0.018, r=Zone001)
  movej([-1.246, -1.7853, -1.5041, -2.9938, -1.246, -3.1416], a=3.1416, v=0.0181, r=Zone001)
  movej([-1.2445, -1.7835, -1.5063, -2.9934, -1.2445, -3.1416], a=3.1416, v=0.0183, r=Zone001)
  movej([-1.243, -1.7817, -1.5084, -2.993, -1.243, -3.1416], a=3.1416, v=0.0185, r=Zone001)
  movej([-1.2415, -1.78, -1.5106, -2.9926, -1.2415, -3.1416], a=3.1416, v=0.0187, r=Zone001)
  movej([-1.24, -1.7782, -1.5128, -2.9922, -1.24, -3.1416], a=3.1416, v=0.0189, r=Zone001)
  movej([-1.2385, -1.7763, -1.515, -2.9918, -1.2385, -3.1416], a=3.1416, v=0.019, r=Zone001)
  movej([-1.2371, -1.7745, -1.5173, -2.9914, -1.2371, -3.1416], a=3.1416, v=0.0192, r=Zone001)
  movej([-1.2356, -1.7726, -1.5195, -2.991, -1.2356, -3.1416], a=3.1416, v=0.0194, r=Zone001)
  movej([-1.2342, -1.7708, -1.5218, -2.9906, -1.2342, -3.1416], a=3.1416, v=0.0195, r=Zone001)
  movej([-1.2328, -1.7689, -1.5241, -2.9902, -1.2328, -3.1416], a=3.1416, v=0.0197, r=Zone001)
  movej([-1.2314, -1.767, -1.5264, -2.9898, -1.2314, -3.1416], a=3.1416, v=0.0198, r=Zone001)
  movej([-1.2301, -1.765, -1.5287, -2.9894, -1.2301, -3.1416], a=3.1416, v=0.0199, r=Zone001)
  movej([-1.2287, -1.7631, -1.5311, -2.989, -1.2287, -3.1416], a=3.1416, v=0.0201, r=Zone001)
  movej([-1.2274, -1.7611, -1.5334, -2.9886, -1.2274, -3.1416], a=3.1416, v=0.0202, r=Zone001)
  movej([-1.2261, -1.7591, -1.5358, -2.9882, -1.2261, -3.1416], a=3.1416, v=0.0203, r=Zone001)
  movej([-1.2248, -1.7572, -1.5382, -2.9878, -1.2248, -3.1416], a=3.1416, v=0.0205, r=Zone001)
  movej([-1.2236, -1.7552, -1.5406, -2.9874, -1.2236, -3.1416], a=3.1416, v=0.0206, r=Zone001)
  movej([-1.2223, -1.7531, -1.543, -2.987, -1.2223, -3.1416], a=3.1416, v=0.0207, r=Zone001)
  movej([-1.2211, -1.7511, -1.5454, -2.9866, -1.2211, -3.1416], a=3.1416, v=0.0208, r=Zone001)
  movej([-1.2199, -1.7491, -1.5479, -2.9863, -1.2199, -3.1416], a=3.1416, v=0.0209, r=Zone001)
  movej([-1.2187, -1.747, -1.5503, -2.9859, -1.2187, -3.1416], a=3.1416, v=0.021, r=Zone001)
  movej([-1.2175, -1.7449, -1.5528, -2.9855, -1.2175, -3.1416], a=3.1416, v=0.0211, r=Zone001)
  movej([-1.2164, -1.7428, -1.5552, -2.9851, -1.2164, -3.1416], a=3.1416, v=0.0212, r=Zone001)
  movej([-1.2153, -1.7407, -1.5577, -2.9847, -1.2153, -3.1416], a=3.1416, v=0.0212, r=Zone001)
  movej([-1.2142, -1.7386, -1.5602, -2.9843, -1.2142, -3.1416], a=3.1416, v=0.0213, r=Zone001)
  movej([-1.2131, -1.7365, -1.5627, -2.984, -1.2131, -3.1416], a=3.1416, v=0.0214, r=Zone001)
  movej([-1.2121, -1.7344, -1.5652, -2.9836, -1.2121, -3.1416], a=3.1416, v=0.0214, r=Zone001)
  movej([-1.2111, -1.7323, -1.5677, -2.9832, -1.2111, -3.1416], a=3.1416, v=0.0215, r=Zone001)
  movej([-1.2101, -1.7301, -1.5702, -2.9829, -1.2101, -3.1416], a=3.1416, v=0.0216, r=Zone001)
  movej([-1.2091, -1.728, -1.5727, -2.9825, -1.2091, -3.1416], a=3.1416, v=0.0216, r=Zone001)
  movej([-1.2081, -1.7258, -1.5753, -2.9821, -1.2081, -3.1416], a=3.1416, v=0.0216, r=Zone001)
  movej([-1.2072, -1.7236, -1.5778, -2.9818, -1.2072, -3.1416], a=3.1416, v=0.0217, r=Zone001)
  movej([-1.2063, -1.7215, -1.5803, -2.9814, -1.2063, -3.1416], a=3.1416, v=0.0217, r=Zone001)
  movej([-1.2055, -1.7193, -1.5828, -2.9811, -1.2055, -3.1416], a=3.1416, v=0.0217, r=Zone001)
  movej([-1.2046, -1.7171, -1.5854, -2.9807, -1.2046, -3.1416], a=3.1416, v=0.0218, r=Zone001)
  movej([-1.2038, -1.7149, -1.5879, -2.9804, -1.2038, -3.1416], a=3.1416, v=0.0218, r=Zone001)
  movej([-1.203, -1.7127, -1.5905, -2.9801, -1.203, -3.1416], a=3.1416, v=0.0218, r=Zone001)
  movej([-1.2022, -1.7105, -1.593, -2.9797, -1.2022, -3.1416], a=3.1416, v=0.0218, r=Zone001)
  movej([-1.2015, -1.7083, -1.5955, -2.9794, -1.2015, -3.1416], a=3.1416, v=0.0218, r=Zone001)
  movej([-1.2008, -1.706, -1.5981, -2.9791, -1.2008, -3.1416], a=3.1416, v=0.0218, r=Zone001)
  movej([-1.2001, -1.7038, -1.6006, -2.9788, -1.2001, -3.1416], a=3.1416, v=0.0218, r=Zone001)
  movej([-1.1995, -1.7016, -1.6031, -2.9785, -1.1995, -3.1416], a=3.1416, v=0.0218, r=Zone001)
  movej([-1.1988, -1.6994, -1.6057, -2.9781, -1.1988, -3.1416], a=3.1416, v=0.0218, r=Zone001)
  movej([-1.1982, -1.6971, -1.6082, -2.9778, -1.1982, -3.1416], a=3.1416, v=0.0217, r=Zone001)
  movej([-1.1977, -1.6949, -1.6107, -2.9775, -1.1977, -3.1416], a=3.1416, v=0.0217, r=Zone001)
  movej([-1.1972, -1.6927, -1.6133, -2.9773, -1.1972, -3.1416], a=3.1416, v=0.0217, r=Zone001)
  movej([-1.1967, -1.6904, -1.6158, -2.977, -1.1967, -3.1416], a=3.1416, v=0.0216, r=Zone001)
  movej([-1.1962, -1.6882, -1.6183, -2.9767, -1.1962, -3.1416], a=3.1416, v=0.0216, r=Zone001)
  movej([-1.1957, -1.686, -1.6208, -2.9764, -1.1957, -3.1416], a=3.1416, v=0.0215, r=Zone001)
  movej([-1.1953, -1.6838, -1.6233, -2.9762, -1.1953, -3.1416], a=3.1416, v=0.0215, r=Zone001)
  movej([-1.1949, -1.6815, -1.6258, -2.9759, -1.1949, -3.1416], a=3.1416, v=0.0214, r=Zone001)
  movej([-1.1946, -1.6793, -1.6283, -2.9756, -1.1946, -3.1416], a=3.1416, v=0.0213, r=Zone001)
  movej([-1.1943, -1.6771, -1.6307, -2.9754, -1.1943, -3.1416], a=3.1416, v=0.0213, r=Zone001)
  movej([-1.194, -1.6749, -1.6332, -2.9751, -1.194, -3.1416], a=3.1416, v=0.0212, r=Zone001)
  movej([-1.1938, -1.6726, -1.6356, -2.9749, -1.1938, -3.1416], a=3.1416, v=0.0211, r=Zone001)
  movej([-1.1935, -1.6704, -1.6381, -2.9747, -1.1935, -3.1416], a=3.1416, v=0.021, r=Zone001)
  movej([-1.1934, -1.6682, -1.6405, -2.9744, -1.1934, -3.1416], a=3.1416, v=0.0209, r=Zone001)
  movej([-1.1932, -1.666, -1.6429, -2.9742, -1.1932, -3.1416], a=3.1416, v=0.0208, r=Zone001)
  movej([-1.1931, -1.6638, -1.6454, -2.974, -1.1931, -3.1416], a=3.1416, v=0.0207, r=Zone001)
  movej([-1.193, -1.6617, -1.6478, -2.9738, -1.193, -3.1416], a=3.1416, v=0.0206, r=Zone001)
  movej([-1.193, -1.6595, -1.6501, -2.9736, -1.193, -3.1416], a=3.1416, v=0.0205, r=Zone001)
  movej([-1.1929, -1.6573, -1.6525, -2.9734, -1.1929, -3.1416], a=3.1416, v=0.0204, r=Zone001)
  movej([-1.193, -1.6551, -1.6549, -2.9732, -1.193, -3.1416], a=3.1416, v=0.0202, r=Zone001)
  movej([-1.193, -1.653, -1.6572, -2.973, -1.193, -3.1416], a=3.1416, v=0.0201, r=Zone001)
  movej([-1.1931, -1.6508, -1.6595, -2.9728, -1.1931, -3.1416], a=3.1416, v=0.02, r=Zone001)
  movej([-1.1932, -1.6487, -1.6618, -2.9726, -1.1932, -3.1416], a=3.1416, v=0.0198, r=Zone001)
  movej([-1.1934, -1.6466, -1.6641, -2.9725, -1.1934, -3.1416], a=3.1416, v=0.0197, r=Zone001)
  movej([-1.1936, -1.6445, -1.6664, -2.9723, -1.1936, -3.1416], a=3.1416, v=0.0196, r=Zone001)
  movej([-1.1938, -1.6424, -1.6686, -2.9721, -1.1938, -3.1416], a=3.1416, v=0.0194, r=Zone001)
  movej([-1.1941, -1.6403, -1.6709, -2.972, -1.1941, -3.1416], a=3.1416, v=0.0192, r=Zone001)
  movej([-1.1944, -1.6382, -1.6731, -2.9719, -1.1944, -3.1416], a=3.1416, v=0.0191, r=Zone001)
  movej([-1.1947, -1.6362, -1.6753, -2.9717, -1.1947, -3.1416], a=3.1416, v=0.0189, r=Zone001)
  movej([-1.1951, -1.6341, -1.6775, -2.9716, -1.1951, -3.1416], a=3.1416, v=0.0187, r=Zone001)
  movej([-1.1955, -1.6321, -1.6796, -2.9714, -1.1955, -3.1416], a=3.1416, v=0.0186, r=Zone001)
  movej([-1.196, -1.6301, -1.6818, -2.9713, -1.196, -3.1416], a=3.1416, v=0.0184, r=Zone001)
  movej([-1.1965, -1.6281, -1.6839, -2.9712, -1.1965, -3.1416], a=3.1416, v=0.0182, r=Zone001)
  movej([-1.197, -1.6261, -1.686, -2.9711, -1.197, -3.1416], a=3.1416, v=0.018, r=Zone001)
  movej([-1.1975, -1.6242, -1.688, -2.971, -1.1975, -3.1416], a=3.1416, v=0.0178, r=Zone001)
  movej([-1.1981, -1.6222, -1.6901, -2.9709, -1.1981, -3.1416], a=3.1416, v=0.0176, r=Zone001)
  movej([-1.1988, -1.6203, -1.6921, -2.9708, -1.1988, -3.1416], a=3.1416, v=0.0174, r=Zone001)
  movej([-1.1994, -1.6184, -1.6941, -2.9707, -1.1994, -3.1416], a=3.1416, v=0.0172, r=Zone001)
  movej([-1.2001, -1.6165, -1.6961, -2.9706, -1.2001, -3.1416], a=3.1416, v=0.017, r=Zone001)
  movej([-1.2009, -1.6146, -1.698, -2.9705, -1.2009, -3.1416], a=3.1416, v=0.0168, r=Zone001)
  movej([-1.2017, -1.6128, -1.6999, -2.9704, -1.2017, -3.1416], a=3.1416, v=0.0165, r=Zone001)
  movej([-1.2025, -1.611, -1.7018, -2.9704, -1.2025, -3.1416], a=3.1416, v=0.0163, r=Zone001)
  movej([-1.2034, -1.6092, -1.7037, -2.9703, -1.2034, -3.1416], a=3.1416, v=0.0161, r=Zone001)
  movej([-1.2042, -1.6074, -1.7056, -2.9702, -1.2042, -3.1416], a=3.1416, v=0.0158, r=Zone001)
  movej([-1.2052, -1.6056, -1.7074, -2.9702, -1.2052, -3.1416], a=3.1416, v=0.0156, r=Zone001)
  movej([-1.2061, -1.6039, -1.7091, -2.9701, -1.2061, -3.1416], a=3.1416, v=0.0154, r=Zone001)
  movej([-1.2071, -1.6022, -1.7109, -2.9701, -1.2071, -3.1416], a=3.1416, v=0.0151, r=Zone001)
  movej([-1.2082, -1.6005, -1.7126, -2.97, -1.2082, -3.1416], a=3.1416, v=0.0149, r=Zone001)
  movej([-1.2093, -1.5989, -1.7143, -2.97, -1.2093, -3.1416], a=3.1416, v=0.0146, r=Zone001)
  movej([-1.2104, -1.5972, -1.716, -2.97, -1.2104, -3.1416], a=3.1416, v=0.0144, r=Zone001)
  movej([-1.2115, -1.5956, -1.7176, -2.9699, -1.2115, -3.1416], a=3.1416, v=0.0141, r=Zone001)
  movej([-1.2127, -1.5941, -1.7192, -2.9699, -1.2127, -3.1416], a=3.1416, v=0.0138, r=Zone001)
  movej([-1.2139, -1.5925, -1.7208, -2.9699, -1.2139, -3.1416], a=3.1416, v=0.0136, r=Zone001)
  movej([-1.2152, -1.591, -1.7223, -2.9698, -1.2152, -3.1416], a=3.1416, v=0.0133, r=Zone001)
  movej([-1.2165, -1.5895, -1.7239, -2.9698, -1.2165, -3.1416], a=3.1416, v=0.013, r=Zone001)
  movej([-1.2178, -1.5881, -1.7253, -2.9698, -1.2178, -3.1416], a=3.1416, v=0.0127, r=Zone001)
  movej([-1.2192, -1.5866, -1.7268, -2.9698, -1.2192, -3.1416], a=3.1416, v=0.0125, r=Zone001)
  movej([-1.2206, -1.5852, -1.7282, -2.9698, -1.2206, -3.1416], a=3.1416, v=0.0122, r=Zone001)
  movej([-1.222, -1.5839, -1.7296, -2.9697, -1.222, -3.1416], a=3.1416, v=0.0124, r=Zone001)
  movej([-1.2235, -1.5825, -1.7309, -2.9697, -1.2235, -3.1416], a=3.1416, v=0.0127, r=Zone001)
  movej([-1.225, -1.5812, -1.7322, -2.9697, -1.225, -3.1416], a=3.1416, v=0.0129, r=Zone001)
  movej([-1.2265, -1.58, -1.7335, -2.9697, -1.2265, -3.1416], a=3.1416, v=0.0132, r=Zone001)
  movej([-1.2281, -1.5787, -1.7347, -2.9697, -1.2281, -3.1416], a=3.1416, v=0.0135, r=Zone001)
  movej([-1.2297, -1.5775, -1.7359, -2.9697, -1.2297, -3.1416], a=3.1416, v=0.0138, r=Zone001)
  movej([-1.2313, -1.5763, -1.7371, -2.9697, -1.2313, -3.1416], a=3.1416, v=0.0141, r=Zone001)
  movej([-1.233, -1.5752, -1.7382, -2.9697, -1.233, -3.1416], a=3.1416, v=0.0144, r=Zone001)
  movej([-1.2347, -1.5741, -1.7393, -2.9697, -1.2347, -3.1416], a=3.1416, v=0.0146, r=Zone001)
  movej([-1.2364, -1.573, -1.7404, -2.9697, -1.2364, -3.1416], a=3.1416, v=0.0149, r=Zone001)
  movej([-1.2382, -1.572, -1.7414, -2.9698, -1.2382, -3.1416], a=3.1416, v=0.0152, r=Zone001)
  movej([-1.24, -1.571, -1.7424, -2.9698, -1.24, -3.1416], a=3.1416, v=0.0154, r=Zone001)
  movej([-1.2418, -1.5701, -1.7434, -2.9698, -1.2418, -3.1416], a=3.1416, v=0.0157, r=Zone001)
  movej([-1.2436, -1.5691, -1.7443, -2.9698, -1.2436, -3.1416], a=3.1416, v=0.0159, r=Zone001)
  movej([-1.2455, -1.5683, -1.7451, -2.9698, -1.2455, -3.1416], a=3.1416, v=0.0162, r=Zone001)
  movej([-1.2474, -1.5674, -1.746, -2.9698, -1.2474, -3.1416], a=3.1416, v=0.0164, r=Zone001)
  movej([-1.2493, -1.5666, -1.7468, -2.9698, -1.2493, -3.1416], a=3.1416, v=0.0167, r=Zone001)
  movej([-1.2513, -1.5658, -1.7475, -2.9698, -1.2513, -3.1416], a=3.1416, v=0.0169, r=Zone001)
  movej([-1.2533, -1.5651, -1.7482, -2.9698, -1.2533, -3.1416], a=3.1416, v=0.0171, r=Zone001)
  movej([-1.2553, -1.5644, -1.7489, -2.9699, -1.2553, -3.1416], a=3.1416, v=0.0173, r=Zone001)
  movej([-1.2573, -1.5637, -1.7496, -2.9699, -1.2573, -3.1416], a=3.1416, v=0.0176, r=Zone001)
  movej([-1.2594, -1.5631, -1.7502, -2.9699, -1.2594, -3.1416], a=3.1416, v=0.0178, r=Zone001)
  movej([-1.2615, -1.5625, -1.7507, -2.9699, -1.2615, -3.1416], a=3.1416, v=0.018, r=Zone001)
  movej([-1.2636, -1.562, -1.7513, -2.9699, -1.2636, -3.1416], a=3.1416, v=0.0182, r=Zone001)
  movej([-1.2657, -1.5615, -1.7517, -2.9699, -1.2657, -3.1416], a=3.1416, v=0.0184, r=Zone001)
  movej([-1.2678, -1.561, -1.7522, -2.97, -1.2678, -3.1416], a=3.1416, v=0.0185, r=Zone001)
  movej([-1.27, -1.5606, -1.7526, -2.97, -1.27, -3.1416], a=3.1416, v=0.0187, r=Zone001)
  movej([-1.2722, -1.5603, -1.753, -2.97, -1.2722, -3.1416], a=3.1416, v=0.0189, r=Zone001)
  movej([-1.2744, -1.5599, -1.7533, -2.97, -1.2744, -3.1416], a=3.1416, v=0.0191, r=Zone001)
  movej([-1.2766, -1.5596, -1.7536, -2.97, -1.2766, -3.1416], a=3.1416, v=0.0192, r=Zone001)
  movej([-1.2789, -1.5594, -1.7538, -2.97, -1.2789, -3.1416], a=3.1416, v=0.0194, r=Zone001)
  movej([-1.2811, -1.5591, -1.754, -2.97, -1.2811, -3.1416], a=3.1416, v=0.0195, r=Zone001)
  movej([-1.2834, -1.559, -1.7542, -2.97, -1.2834, -3.1416], a=3.1416, v=0.0197, r=Zone001)
  movej([-1.2857, -1.5588, -1.7543, -2.9701, -1.2857, -3.1416], a=3.1416, v=0.0198, r=Zone001)
  movej([-1.288, -1.5587, -1.7544, -2.9701, -1.288, -3.1416], a=3.1416, v=0.0199, r=Zone001)
  movej([-1.2903, -1.5587, -1.7544, -2.9701, -1.2903, -3.1416], a=3.1416, v=0.02, r=Zone001)
  movej([-1.2927, -1.5587, -1.7544, -2.9701, -1.2927, -3.1416], a=3.1416, v=0.0201, r=Zone001)
  movej([-1.295, -1.5587, -1.7544, -2.9701, -1.295, -3.1416], a=3.1416, v=0.0202, r=Zone001)
  movej([-1.2973, -1.5588, -1.7543, -2.9701, -1.2973, -3.1416], a=3.1416, v=0.0203, r=Zone001)
  movej([-1.2997, -1.5589, -1.7542, -2.9701, -1.2997, -3.1416], a=3.1416, v=0.0204, r=Zone001)
  movej([-1.3021, -1.5591, -1.754, -2.9701, -1.3021, -3.1416], a=3.1416, v=0.0205, r=Zone001)
  movej([-1.3045, -1.5592, -1.7538, -2.9701, -1.3045, -3.1416], a=3.1416, v=0.0206, r=Zone001)
  movej([-1.3068, -1.5595, -1.7536, -2.9701, -1.3068, -3.1416], a=3.1416, v=0.0206, r=Zone001)
  movej([-1.3092, -1.5598, -1.7533, -2.9701, -1.3092, -3.1416], a=3.1416, v=0.0207, r=Zone001)
  movej([-1.3116, -1.5601, -1.753, -2.9701, -1.3116, -3.1416], a=3.1416, v=0.0207, r=Zone001)
  movej([-1.314, -1.5604, -1.7526, -2.9702, -1.314, -3.1416], a=3.1416, v=0.0208, r=Zone001)
  movej([-1.3165, -1.5608, -1.7522, -2.9702, -1.3165, -3.1416], a=3.1416, v=0.0208, r=Zone001)
  movej([-1.3189, -1.5613, -1.7518, -2.9702, -1.3189, -3.1416], a=3.1416, v=0.0208, r=Zone001)
  movej([-1.3213, -1.5617, -1.7513, -2.9702, -1.3213, -3.1416], a=3.1416, v=0.0209, r=Zone001)
  movej([-1.3237, -1.5623, -1.7508, -2.9702, -1.3237, -3.1416], a=3.1416, v=0.0209, r=Zone001)
  movej([-1.3261, -1.5628, -1.7502, -2.9702, -1.3261, -3.1416], a=3.1416, v=0.0209, r=Zone001)
  movej([-1.3285, -1.5634, -1.7496, -2.9702, -1.3285, -3.1416], a=3.1416, v=0.0209, r=Zone001)
  movej([-1.3309, -1.5641, -1.7489, -2.9702, -1.3309, -3.1416], a=3.1416, v=0.0208, r=Zone001)
  movej([-1.3333, -1.5647, -1.7483, -2.9702, -1.3333, -3.1416], a=3.1416, v=0.0208, r=Zone001)
  movej([-1.3357, -1.5654, -1.7476, -2.9702, -1.3357, -3.1416], a=3.1416, v=0.0208, r=Zone001)
  movej([-1.3381, -1.5662, -1.7468, -2.9702, -1.3381, -3.1416], a=3.1416, v=0.0208, r=Zone001)
  movej([-1.3405, -1.567, -1.746, -2.9702, -1.3405, -3.1416], a=3.1416, v=0.0207, r=Zone001)
  movej([-1.3429, -1.5678, -1.7452, -2.9702, -1.3429, -3.1416], a=3.1416, v=0.0207, r=Zone001)
  movej([-1.3453, -1.5687, -1.7443, -2.9702, -1.3453, -3.1416], a=3.1416, v=0.0206, r=Zone001)
  movej([-1.3477, -1.5696, -1.7434, -2.9702, -1.3477, -3.1416], a=3.1416, v=0.0205, r=Zone001)
  movej([-1.35, -1.5705, -1.7424, -2.9702, -1.35, -3.1416], a=3.1416, v=0.0205, r=Zone001)
  movej([-1.3524, -1.5715, -1.7415, -2.9702, -1.3524, -3.1416], a=3.1416, v=0.0204, r=Zone001)
  movej([-1.3547, -1.5725, -1.7404, -2.9703, -1.3547, -3.1416], a=3.1416, v=0.0203, r=Zone001)
  movej([-1.3571, -1.5735, -1.7394, -2.9703, -1.3571, -3.1416], a=3.1416, v=0.0202, r=Zone001)
  movej([-1.3594, -1.5746, -1.7383, -2.9703, -1.3594, -3.1416], a=3.1416, v=0.0201, r=Zone001)
  movej([-1.3617, -1.5757, -1.7372, -2.9703, -1.3617, -3.1416], a=3.1416, v=0.02, r=Zone001)
  movej([-1.364, -1.5769, -1.736, -2.9703, -1.364, -3.1416], a=3.1416, v=0.0199, r=Zone001)
  movej([-1.3663, -1.5781, -1.7348, -2.9703, -1.3663, -3.1416], a=3.1416, v=0.0197, r=Zone001)
  movej([-1.3685, -1.5793, -1.7336, -2.9704, -1.3685, -3.1416], a=3.1416, v=0.0196, r=Zone001)
  movej([-1.3708, -1.5805, -1.7323, -2.9704, -1.3708, -3.1416], a=3.1416, v=0.0195, r=Zone001)
  movej([-1.373, -1.5818, -1.731, -2.9704, -1.373, -3.1416], a=3.1416, v=0.0193, r=Zone001)
  movej([-1.3752, -1.5831, -1.7296, -2.9704, -1.3752, -3.1416], a=3.1416, v=0.0192, r=Zone001)
  movej([-1.3774, -1.5845, -1.7283, -2.9705, -1.3774, -3.1416], a=3.1416, v=0.019, r=Zone001)
  movej([-1.3796, -1.5858, -1.7269, -2.9705, -1.3796, -3.1416], a=3.1416, v=0.0189, r=Zone001)
  movej([-1.3818, -1.5872, -1.7254, -2.9705, -1.3818, -3.1416], a=3.1416, v=0.0187, r=Zone001)
  movej([-1.3839, -1.5887, -1.724, -2.9706, -1.3839, -3.1416], a=3.1416, v=0.0185, r=Zone001)
  movej([-1.386, -1.5901, -1.7225, -2.9706, -1.386, -3.1416], a=3.1416, v=0.0183, r=Zone001)
  movej([-1.3881, -1.5916, -1.7209, -2.9706, -1.3881, -3.1416], a=3.1416, v=0.0181, r=Zone001)
  movej([-1.3902, -1.5931, -1.7194, -2.9707, -1.3902, -3.1416], a=3.1416, v=0.018, r=Zone001)
  movej([-1.3922, -1.5947, -1.7178, -2.9707, -1.3922, -3.1416], a=3.1416, v=0.0178, r=Zone001)
  movej([-1.3942, -1.5963, -1.7161, -2.9708, -1.3942, -3.1416], a=3.1416, v=0.0176, r=Zone001)
  movej([-1.3963, -1.5979, -1.7145, -2.9708, -1.3963, -3.1416], a=3.1416, v=0.0173, r=Zone001)
  movej([-1.3982, -1.5995, -1.7128, -2.9709, -1.3982, -3.1416], a=3.1416, v=0.0171, r=Zone001)
  movej([-1.4002, -1.6012, -1.7111, -2.971, -1.4002, -3.1416], a=3.1416, v=0.0169, r=Zone001)
  movej([-1.4021, -1.6028, -1.7093, -2.971, -1.4021, -3.1416], a=3.1416, v=0.0167, r=Zone001)
  movej([-1.404, -1.6045, -1.7075, -2.9711, -1.404, -3.1416], a=3.1416, v=0.0165, r=Zone001)
  movej([-1.4059, -1.6063, -1.7057, -2.9712, -1.4059, -3.1416], a=3.1416, v=0.0162, r=Zone001)
  movej([-1.4077, -1.608, -1.7039, -2.9713, -1.4077, -3.1416], a=3.1416, v=0.016, r=Zone001)
  movej([-1.4095, -1.6098, -1.702, -2.9713, -1.4095, -3.1416], a=3.1416, v=0.0161, r=Zone001)
  movej([-1.4113, -1.6116, -1.7002, -2.9714, -1.4113, -3.1416], a=3.1416, v=0.0163, r=Zone001)
  movej([-1.4131, -1.6134, -1.6982, -2.9715, -1.4131, -3.1416], a=3.1416, v=0.0166, r=Zone001)
  movej([-1.4148, -1.6153, -1.6963, -2.9716, -1.4148, -3.1416], a=3.1416, v=0.0168, r=Zone001)
  movej([-1.4165, -1.6171, -1.6943, -2.9717, -1.4165, -3.1416], a=3.1416, v=0.017, r=Zone001)
  movej([-1.4182, -1.619, -1.6924, -2.9718, -1.4182, -3.1416], a=3.1416, v=0.0172, r=Zone001)
  movej([-1.4198, -1.6209, -1.6903, -2.9719, -1.4198, -3.1416], a=3.1416, v=0.0174, r=Zone001)
  movej([-1.4214, -1.6228, -1.6883, -2.9721, -1.4214, -3.1416], a=3.1416, v=0.0177, r=Zone001)
  movej([-1.423, -1.6247, -1.6863, -2.9722, -1.423, -3.1416], a=3.1416, v=0.0179, r=Zone001)
  movej([-1.4246, -1.6267, -1.6842, -2.9723, -1.4246, -3.1416], a=3.1416, v=0.018, r=Zone001)
  movej([-1.4261, -1.6287, -1.6821, -2.9724, -1.4261, -3.1416], a=3.1416, v=0.0182, r=Zone001)
  movej([-1.4276, -1.6307, -1.6799, -2.9726, -1.4276, -3.1416], a=3.1416, v=0.0184, r=Zone001)
  movej([-1.429, -1.6327, -1.6778, -2.9727, -1.429, -3.1416], a=3.1416, v=0.0186, r=Zone001)
  movej([-1.4305, -1.6347, -1.6756, -2.9729, -1.4305, -3.1416], a=3.1416, v=0.0188, r=Zone001)
  movej([-1.4318, -1.6367, -1.6734, -2.973, -1.4318, -3.1416], a=3.1416, v=0.019, r=Zone001)
  movej([-1.4332, -1.6388, -1.6712, -2.9732, -1.4332, -3.1416], a=3.1416, v=0.0191, r=Zone001)
  movej([-1.4345, -1.6408, -1.669, -2.9734, -1.4345, -3.1416], a=3.1416, v=0.0193, r=Zone001)
  movej([-1.4358, -1.6429, -1.6668, -2.9735, -1.4358, -3.1416], a=3.1416, v=0.0195, r=Zone001)
  movej([-1.4371, -1.645, -1.6645, -2.9737, -1.4371, -3.1416], a=3.1416, v=0.0196, r=Zone001)
  movej([-1.4383, -1.6471, -1.6622, -2.9739, -1.4383, -3.1416], a=3.1416, v=0.0198, r=Zone001)
  movej([-1.4395, -1.6492, -1.6599, -2.9741, -1.4395, -3.1416], a=3.1416, v=0.0199, r=Zone001)
  movej([-1.4406, -1.6513, -1.6576, -2.9743, -1.4406, -3.1416], a=3.1416, v=0.0201, r=Zone001)
  movej([-1.4417, -1.6534, -1.6553, -2.9745, -1.4417, -3.1416], a=3.1416, v=0.0202, r=Zone001)
  movej([-1.4428, -1.6555, -1.653, -2.9747, -1.4428, -3.1416], a=3.1416, v=0.0203, r=Zone001)
  movej([-1.4439, -1.6577, -1.6506, -2.9749, -1.4439, -3.1416], a=3.1416, v=0.0204, r=Zone001)
  movej([-1.4449, -1.6598, -1.6483, -2.9751, -1.4449, -3.1416], a=3.1416, v=0.0206, r=Zone001)
  movej([-1.4459, -1.662, -1.6459, -2.9753, -1.4459, -3.1416], a=3.1416, v=0.0207, r=Zone001)
  movej([-1.4468, -1.6642, -1.6435, -2.9756, -1.4468, -3.1416], a=3.1416, v=0.0208, r=Zone001)
  movej([-1.4477, -1.6663, -1.6411, -2.9758, -1.4477, -3.1416], a=3.1416, v=0.0209, r=Zone001)
  movej([-1.4486, -1.6685, -1.6387, -2.976, -1.4486, -3.1416], a=3.1416, v=0.021, r=Zone001)
  movej([-1.4495, -1.6707, -1.6362, -2.9763, -1.4495, -3.1416], a=3.1416, v=0.0211, r=Zone001)
  movej([-1.4503, -1.6729, -1.6338, -2.9765, -1.4503, -3.1416], a=3.1416, v=0.0212, r=Zone001)
  movej([-1.451, -1.6751, -1.6313, -2.9768, -1.451, -3.1416], a=3.1416, v=0.0213, r=Zone001)
  movej([-1.4518, -1.6773, -1.6289, -2.977, -1.4518, -3.1416], a=3.1416, v=0.0213, r=Zone001)
  movej([-1.4525, -1.6794, -1.6264, -2.9773, -1.4525, -3.1416], a=3.1416, v=0.0214, r=Zone001)
  movej([-1.4532, -1.6816, -1.6239, -2.9776, -1.4532, -3.1416], a=3.1416, v=0.0215, r=Zone001)
  movej([-1.4538, -1.6838, -1.6215, -2.9779, -1.4538, -3.1416], a=3.1416, v=0.0216, r=Zone001)
  movej([-1.4544, -1.6861, -1.619, -2.9782, -1.4544, -3.1416], a=3.1416, v=0.0216, r=Zone001)
  movej([-1.455, -1.6883, -1.6165, -2.9784, -1.455, -3.1416], a=3.1416, v=0.0217, r=Zone001)
  movej([-1.4555, -1.6905, -1.614, -2.9787, -1.4555, -3.1416], a=3.1416, v=0.0217, r=Zone001)
  movej([-1.456, -1.6927, -1.6115, -2.979, -1.456, -3.1416], a=3.1416, v=0.0218, r=Zone001)
  movej([-1.4565, -1.6949, -1.609, -2.9793, -1.4565, -3.1416], a=3.1416, v=0.0218, r=Zone001)
  movej([-1.4569, -1.6971, -1.6065, -2.9797, -1.4569, -3.1416], a=3.1416, v=0.0218, r=Zone001)
  movej([-1.4573, -1.6993, -1.604, -2.98, -1.4573, -3.1416], a=3.1416, v=0.0219, r=Zone001)
  movej([-1.4577, -1.7015, -1.6014, -2.9803, -1.4577, -3.1416], a=3.1416, v=0.0219, r=Zone001)
  movej([-1.458, -1.7036, -1.5989, -2.9806, -1.458, -3.1416], a=3.1416, v=0.0219, r=Zone001)
  movej([-1.4583, -1.7058, -1.5964, -2.981, -1.4583, -3.1416], a=3.1416, v=0.0219, r=Zone001)
  movej([-1.4585, -1.708, -1.5939, -2.9813, -1.4585, -3.1416], a=3.1416, v=0.0219, r=Zone001)
  movej([-1.4588, -1.7102, -1.5914, -2.9816, -1.4588, -3.1416], a=3.1416, v=0.0219, r=Zone001)
  movej([-1.459, -1.7124, -1.5888, -2.982, -1.459, -3.1416], a=3.1416, v=0.0219, r=Zone001)
  movej([-1.4591, -1.7145, -1.5863, -2.9823, -1.4591, -3.1416], a=3.1416, v=0.0219, r=Zone001)
  movej([-1.4593, -1.7167, -1.5838, -2.9827, -1.4593, -3.1416], a=3.1416, v=0.0219, r=Zone001)
  movej([-1.4594, -1.7189, -1.5813, -2.983, -1.4594, -3.1416], a=3.1416, v=0.0219, r=Zone001)
  movej([-1.4594, -1.721, -1.5788, -2.9834, -1.4594, -3.1416], a=3.1416, v=0.0218, r=Zone001)
  movej([-1.4594, -1.7232, -1.5763, -2.9838, -1.4594, -3.1416], a=3.1416, v=0.0218, r=Zone001)
  movej([-1.4594, -1.7253, -1.5738, -2.9841, -1.4594, -3.1416], a=3.1416, v=0.0218, r=Zone001)
  movej([-1.4594, -1.7274, -1.5713, -2.9845, -1.4594, -3.1416], a=3.1416, v=0.0217, r=Zone001)
  movej([-1.4594, -1.7295, -1.5688, -2.9849, -1.4594, -3.1416], a=3.1416, v=0.0217, r=Zone001)
  movej([-1.4593, -1.7316, -1.5663, -2.9852, -1.4593, -3.1416], a=3.1416, v=0.0216, r=Zone001)
  movej([-1.4591, -1.7337, -1.5638, -2.9856, -1.4591, -3.1416], a=3.1416, v=0.0216, r=Zone001)
  movej([-1.459, -1.7358, -1.5613, -2.986, -1.459, -3.1416], a=3.1416, v=0.0215, r=Zone001)
  movej([-1.4588, -1.7379, -1.5589, -2.9864, -1.4588, -3.1416], a=3.1416, v=0.0215, r=Zone001)
  movej([-1.4586, -1.74, -1.5564, -2.9868, -1.4586, -3.1416], a=3.1416, v=0.0214, r=Zone001)
  movej([-1.4583, -1.742, -1.554, -2.9872, -1.4583, -3.1416], a=3.1416, v=0.0213, r=Zone001)
  movej([-1.458, -1.7441, -1.5515, -2.9876, -1.458, -3.1416], a=3.1416, v=0.0212, r=Zone001)
  movej([-1.4577, -1.7461, -1.5491, -2.988, -1.4577, -3.1416], a=3.1416, v=0.0211, r=Zone001)
  movej([-1.4574, -1.7481, -1.5467, -2.9884, -1.4574, -3.1416], a=3.1416, v=0.021, r=Zone001)
  movej([-1.457, -1.7501, -1.5443, -2.9888, -1.457, -3.1416], a=3.1416, v=0.0209, r=Zone001)
  movej([-1.4566, -1.7521, -1.5419, -2.9892, -1.4566, -3.1416], a=3.1416, v=0.0208, r=Zone001)
  movej([-1.4562, -1.7541, -1.5395, -2.9896, -1.4562, -3.1416], a=3.1416, v=0.0207, r=Zone001)
  movej([-1.4557, -1.7561, -1.5372, -2.99, -1.4557, -3.1416], a=3.1416, v=0.0206, r=Zone001)
  movej([-1.4553, -1.758, -1.5348, -2.9904, -1.4553, -3.1416], a=3.1416, v=0.0205, r=Zone001)
  movej([-1.4547, -1.7599, -1.5325, -2.9908, -1.4547, -3.1416], a=3.1416, v=0.0204, r=Zone001)
  movej([-1.4542, -1.7619, -1.5301, -2.9912, -1.4542, -3.1416], a=3.1416, v=0.0202, r=Zone001)
  movej([-1.4536, -1.7638, -1.5278, -2.9916, -1.4536, -3.1416], a=3.1416, v=0.0201, r=Zone001)
  movej([-1.453, -1.7656, -1.5255, -2.992, -1.453, -3.1416], a=3.1416, v=0.02, r=Zone001)
  movej([-1.4524, -1.7675, -1.5233, -2.9924, -1.4524, -3.1416], a=3.1416, v=0.0198, r=Zone001)
  movej([-1.4518, -1.7694, -1.521, -2.9928, -1.4518, -3.1416], a=3.1416, v=0.0197, r=Zone001)
  movej([-1.4511, -1.7712, -1.5188, -2.9932, -1.4511, -3.1416], a=3.1416, v=0.0195, r=Zone001)
  movej([-1.4504, -1.773, -1.5165, -2.9936, -1.4504, -3.1416], a=3.1416, v=0.0194, r=Zone001)
  movej([-1.4497, -1.7748, -1.5143, -2.994, -1.4497, -3.1416], a=3.1416, v=0.0192, r=Zone001)
  movej([-1.4489, -1.7766, -1.5122, -2.9944, -1.4489, -3.1416], a=3.1416, v=0.019, r=Zone001)
  movej([-1.4482, -1.7783, -1.51, -2.9948, -1.4482, -3.1416], a=3.1416, v=0.0189, r=Zone001)
  movej([-1.4473, -1.7801, -1.5078, -2.9953, -1.4473, -3.1416], a=3.1416, v=0.0187, r=Zone001)
  movej([-1.4465, -1.7818, -1.5057, -2.9957, -1.4465, -3.1416], a=3.1416, v=0.0185, r=Zone001)
  movej([-1.4457, -1.7835, -1.5036, -2.9961, -1.4457, -3.1416], a=3.1416, v=0.0183, r=Zone001)
  movej([-1.4448, -1.7852, -1.5015, -2.9965, -1.4448, -3.1416], a=3.1416, v=0.0181, r=Zone001)
  movej([-1.4439, -1.7869, -1.4995, -2.9969, -1.4439, -3.1416], a=3.1416, v=0.0179, r=Zone001)
  movej([-1.443, -1.7885, -1.4974, -2.9972, -1.443, -3.1416], a=3.1416, v=0.0177, r=Zone001)
  movej([-1.442, -1.7901, -1.4954, -2.9976, -1.442, -3.1416], a=3.1416, v=0.0175, r=Zone001)
  movej([-1.4411, -1.7917, -1.4934, -2.998, -1.4411, -3.1416], a=3.1416, v=0.0173, r=Zone001)
  movej([-1.4401, -1.7933, -1.4915, -2.9984, -1.4401, -3.1416], a=3.1416, v=0.0171, r=Zone001)
  movej([-1.4391, -1.7948, -1.4895, -2.9988, -1.4391, -3.1416], a=3.1416, v=0.0169, r=Zone001)
  movej([-1.438, -1.7964, -1.4876, -2.9992, -1.438, -3.1416], a=3.1416, v=0.0167, r=Zone001)
  movej([-1.437, -1.7979, -1.4857, -2.9996, -1.437, -3.1416], a=3.1416, v=0.0165, r=Zone001)
  movej([-1.4359, -1.7994, -1.4839, -2.9999, -1.4359, -3.1416], a=3.1416, v=0.0162, r=Zone001)
  movej([-1.4348, -1.8008, -1.482, -3.0003, -1.4348, -3.1416], a=3.1416, v=0.016, r=Zone001)
  movej([-1.4337, -1.8023, -1.4802, -3.0007, -1.4337, -3.1416], a=3.1416, v=0.0158, r=Zone001)
  movej([-1.4325, -1.8037, -1.4785, -3.0011, -1.4325, -3.1416], a=3.1416, v=0.0155, r=Zone001)
  movej([-1.4314, -1.8051, -1.4767, -3.0014, -1.4314, -3.1416], a=3.1416, v=0.0153, r=Zone001)
  movej([-1.4302, -1.8064, -1.475, -3.0018, -1.4302, -3.1416], a=3.1416, v=0.015, r=Zone001)
  movej([-1.429, -1.8078, -1.4733, -3.0021, -1.429, -3.1416], a=3.1416, v=0.0148, r=Zone001)
  movej([-1.4277, -1.8091, -1.4716, -3.0025, -1.4277, -3.1416], a=3.1416, v=0.0145, r=Zone001)
  movej([-1.4265, -1.8104, -1.47, -3.0028, -1.4265, -3.1416], a=3.1416, v=0.0143, r=Zone001)
  movej([-1.4252, -1.8116, -1.4684, -3.0032, -1.4252, -3.1416], a=3.1416, v=0.014, r=Zone001)
  movej([-1.424, -1.8129, -1.4668, -3.0035, -1.424, -3.1416], a=3.1416, v=0.0137, r=Zone001)
  movej([-1.4227, -1.8141, -1.4653, -3.0038, -1.4227, -3.1416], a=3.1416, v=0.0135, r=Zone001)
  movej([-1.4214, -1.8153, -1.4638, -3.0041, -1.4214, -3.1416], a=3.1416, v=0.0132, r=Zone001)
  movej([-1.42, -1.8164, -1.4623, -3.0045, -1.42, -3.1416], a=3.1416, v=0.0129, r=Zone001)
  movej([-1.4187, -1.8176, -1.4608, -3.0048, -1.4187, -3.1416], a=3.1416, v=0.0126, r=Zone001)
  movej([-1.4173, -1.8187, -1.4594, -3.0051, -1.4173, -3.1416], a=3.1416, v=0.0124, r=Zone001)
  movej([-1.4159, -1.8198, -1.458, -3.0054, -1.4159, -3.1416], a=3.1416, v=0.0121, r=Zone001)
  movej([-1.4145, -1.8208, -1.4567, -3.0057, -1.4145, -3.1416], a=3.1416, v=0.0122, r=Zone001)
  movej([-1.4131, -1.8218, -1.4554, -3.006, -1.4131, -3.1416], a=3.1416, v=0.0123, r=Zone001)
  movej([-1.4117, -1.8228, -1.4541, -3.0062, -1.4117, -3.1416], a=3.1416, v=0.0125, r=Zone001)
  movej([-1.4103, -1.8238, -1.4529, -3.0065, -1.4103, -3.1416], a=3.1416, v=0.0126, r=Zone001)
  movej([-1.4088, -1.8248, -1.4516, -3.0068, -1.4088, -3.1416], a=3.1416, v=0.0128, r=Zone001)
  movej([-1.4073, -1.8257, -1.4505, -3.007, -1.4073, -3.1416], a=3.1416, v=0.0129, r=Zone001)
  movej([-1.4058, -1.8266, -1.4493, -3.0073, -1.4058, -3.1416], a=3.1416, v=0.013, r=Zone001)
  movej([-1.4043, -1.8274, -1.4482, -3.0075, -1.4043, -3.1416], a=3.1416, v=0.0131, r=Zone001)
  movej([-1.4028, -1.8283, -1.4471, -3.0078, -1.4028, -3.1416], a=3.1416, v=0.0133, r=Zone001)
  movej([-1.4013, -1.8291, -1.4461, -3.008, -1.4013, -3.1416], a=3.1416, v=0.0134, r=Zone001)
  movej([-1.3997, -1.8298, -1.4451, -3.0082, -1.3997, -3.1416], a=3.1416, v=0.0135, r=Zone001)
  movej([-1.3982, -1.8306, -1.4442, -3.0085, -1.3982, -3.1416], a=3.1416, v=0.0136, r=Zone001)
  movej([-1.3966, -1.8313, -1.4432, -3.0087, -1.3966, -3.1416], a=3.1416, v=0.0137, r=Zone001)
  movej([-1.395, -1.832, -1.4423, -3.0089, -1.395, -3.1416], a=3.1416, v=0.0138, r=Zone001)
  movej([-1.3934, -1.8326, -1.4415, -3.0091, -1.3934, -3.1416], a=3.1416, v=0.0139, r=Zone001)
  movej([-1.3918, -1.8333, -1.4407, -3.0093, -1.3918, -3.1416], a=3.1416, v=0.014, r=Zone001)
  movej([-1.3902, -1.8338, -1.4399, -3.0094, -1.3902, -3.1416], a=3.1416, v=0.0141, r=Zone001)
  movej([-1.3886, -1.8344, -1.4392, -3.0096, -1.3886, -3.1416], a=3.1416, v=0.0142, r=Zone001)
  movej([-1.3869, -1.835, -1.4385, -3.0098, -1.3869, -3.1416], a=3.1416, v=0.0143, r=Zone001)
  movej([-1.3853, -1.8355, -1.4378, -3.0099, -1.3853, -3.1416], a=3.1416, v=0.0144, r=Zone001)
  movej([-1.3836, -1.8359, -1.4372, -3.0101, -1.3836, -3.1416], a=3.1416, v=0.0145, r=Zone001)
  movej([-1.382, -1.8364, -1.4366, -3.0102, -1.382, -3.1416], a=3.1416, v=0.0146, r=Zone001)
  movej([-1.3803, -1.8368, -1.436, -3.0103, -1.3803, -3.1416], a=3.1416, v=0.0147, r=Zone001)
  movej([-1.3786, -1.8372, -1.4355, -3.0105, -1.3786, -3.1416], a=3.1416, v=0.0148, r=Zone001)
  movej([-1.3769, -1.8375, -1.4351, -3.0106, -1.3769, -3.1416], a=3.1416, v=0.0148, r=Zone001)
  movej([-1.3752, -1.8379, -1.4346, -3.0107, -1.3752, -3.1416], a=3.1416, v=0.0149, r=Zone001)
  movej([-1.3735, -1.8382, -1.4343, -3.0108, -1.3735, -3.1416], a=3.1416, v=0.015, r=Zone001)
  movej([-1.3718, -1.8384, -1.4339, -3.0109, -1.3718, -3.1416], a=3.1416, v=0.0151, r=Zone001)
  movej([-1.37, -1.8387, -1.4336, -3.0109, -1.37, -3.1416], a=3.1416, v=0.0151, r=Zone001)
  movej([-1.3683, -1.8389, -1.4333, -3.011, -1.3683, -3.1416], a=3.1416, v=0.0152, r=Zone001)
  movej([-1.3665, -1.839, -1.4331, -3.0111, -1.3665, -3.1416], a=3.1416, v=0.0153, r=Zone001)
  movej([-1.3648, -1.8392, -1.4329, -3.0111, -1.3648, -3.1416], a=3.1416, v=0.0153, r=Zone001)
  movej([-1.363, -1.8393, -1.4327, -3.0112, -1.363, -3.1416], a=3.1416, v=0.0154, r=Zone001)
  movej([-1.3613, -1.8394, -1.4326, -3.0112, -1.3613, -3.1416], a=3.1416, v=0.0154, r=Zone001)
  movej([-1.3595, -1.8394, -1.4326, -3.0112, -1.3595, -3.1416], a=3.1416, v=0.0155, r=Zone001)
  movej([-1.3577, -1.8394, -1.4325, -3.0112, -1.3577, -3.1416], a=3.1416, v=0.0155, r=Zone001)
  movej([-1.3559, -1.8394, -1.4325, -3.0112, -1.3559, -3.1416], a=3.1416, v=0.0156, r=Zone001)
  movej([-1.3542, -1.8394, -1.4326, -3.0112, -1.3542, -3.1416], a=3.1416, v=0.0156, r=Zone001)
  movej([-1.3524, -1.8393, -1.4327, -3.0112, -1.3524, -3.1416], a=3.1416, v=0.0157, r=Zone001)
  movej([-1.3506, -1.8392, -1.4328, -3.0112, -1.3506, -3.1416], a=3.1416, v=0.0157, r=Zone001)
  movej([-1.3488, -1.8391, -1.433, -3.0112, -1.3488, -3.1416], a=3.1416, v=0.0158, r=Zone001)
  movej([-1.347, -1.8389, -1.4332, -3.0111, -1.347, -3.1416], a=3.1416, v=0.0158, r=Zone001)
  movej([-1.3452, -1.8387, -1.4334, -3.0111, -1.3452, -3.1416], a=3.1416, v=0.0158, r=Zone001)
  movej([-1.3434, -1.8385, -1.4337, -3.011, -1.3434, -3.1416], a=3.1416, v=0.0159, r=Zone001)
  movej([-1.3415, -1.8382, -1.434, -3.011, -1.3415, -3.1416], a=3.1416, v=0.0159, r=Zone001)
  movej([-1.3397, -1.8379, -1.4344, -3.0109, -1.3397, -3.1416], a=3.1416, v=0.0159, r=Zone001)
  movej([-1.3379, -1.8376, -1.4348, -3.0108, -1.3379, -3.1416], a=3.1416, v=0.0159, r=Zone001)
  movej([-1.3361, -1.8373, -1.4352, -3.0107, -1.3361, -3.1416], a=3.1416, v=0.0159, r=Zone001)
  movej([-1.3343, -1.8369, -1.4357, -3.0106, -1.3343, -3.1416], a=3.1416, v=0.016, r=Zone001)
  movej([-1.3324, -1.8365, -1.4362, -3.0105, -1.3324, -3.1416], a=3.1416, v=0.016, r=Zone001)
  movej([-1.3306, -1.836, -1.4368, -3.0104, -1.3306, -3.1416], a=3.1416, v=0.016, r=Zone001)
  movej([-1.3288, -1.8356, -1.4374, -3.0103, -1.3288, -3.1416], a=3.1416, v=0.016, r=Zone001)
  movej([-1.327, -1.8351, -1.438, -3.0101, -1.327, -3.1416], a=3.1416, v=0.016, r=Zone001)
  movej([-1.3252, -1.8345, -1.4387, -3.01, -1.3252, -3.1416], a=3.1416, v=0.016, r=Zone001)
  movej([-1.3233, -1.834, -1.4394, -3.0098, -1.3233, -3.1416], a=3.1416, v=0.016, r=Zone001)
  movej([-1.3215, -1.8334, -1.4401, -3.0097, -1.3215, -3.1416], a=3.1416, v=0.016, r=Zone001)
  movej([-1.3197, -1.8328, -1.4409, -3.0095, -1.3197, -3.1416], a=3.1416, v=0.016, r=Zone001)
  movej([-1.3179, -1.8321, -1.4417, -3.0093, -1.3179, -3.1416], a=3.1416, v=0.016, r=Zone001)
  movej([-1.316, -1.8314, -1.4426, -3.0092, -1.316, -3.1416], a=3.1416, v=0.016, r=Zone001)
  movej([-1.3142, -1.8307, -1.4435, -3.009, -1.3142, -3.1416], a=3.1416, v=0.016, r=Zone001)
  movej([-1.3124, -1.83, -1.4444, -3.0088, -1.3124, -3.1416], a=3.1416, v=0.0159, r=Zone001)
  movej([-1.3106, -1.8292, -1.4454, -3.0086, -1.3106, -3.1416], a=3.1416, v=0.0159, r=Zone001)
  movej([-1.3088, -1.8284, -1.4464, -3.0084, -1.3088, -3.1416], a=3.1416, v=0.0159, r=Zone001)
  movej([-1.307, -1.8276, -1.4474, -3.0081, -1.307, -3.1416], a=3.1416, v=0.0159, r=Zone001)
  movej([-1.3052, -1.8268, -1.4485, -3.0079, -1.3052, -3.1416], a=3.1416, v=0.0158, r=Zone001)
  movej([-1.3034, -1.8259, -1.4496, -3.0077, -1.3034, -3.1416], a=3.1416, v=0.0158, r=Zone001)
  movej([-1.3016, -1.825, -1.4508, -3.0074, -1.3016, -3.1416], a=3.1416, v=0.0158, r=Zone001)
  movej([-1.2998, -1.8241, -1.4519, -3.0072, -1.2998, -3.1416], a=3.1416, v=0.0157, r=Zone001)
  movej([-1.298, -1.8231, -1.4531, -3.0069, -1.298, -3.1416], a=3.1416, v=0.0157, r=Zone001)
  movej([-1.2962, -1.8221, -1.4544, -3.0067, -1.2962, -3.1416], a=3.1416, v=0.0157, r=Zone001)
  movej([-1.2944, -1.8211, -1.4557, -3.0064, -1.2944, -3.1416], a=3.1416, v=0.0156, r=Zone001)
  movej([-1.2926, -1.82, -1.457, -3.0061, -1.2926, -3.1416], a=3.1416, v=0.0156, r=Zone001)
  movej([-1.2909, -1.819, -1.4583, -3.0059, -1.2909, -3.1416], a=3.1416, v=0.0155, r=Zone001)
  movej([-1.2891, -1.8179, -1.4597, -3.0056, -1.2891, -3.1416], a=3.1416, v=0.0155, r=Zone001)
  movej([-1.2873, -1.8167, -1.4611, -3.0053, -1.2873, -3.1416], a=3.1416, v=0.0154, r=Zone001)
  movej([-1.2856, -1.8156, -1.4626, -3.005, -1.2856, -3.1416], a=3.1416, v=0.0154, r=Zone001)
  movej([-1.2839, -1.8144, -1.4641, -3.0047, -1.2839, -3.1416], a=3.1416, v=0.0153, r=Zone001)
  movej([-1.2821, -1.8132, -1.4656, -3.0044, -1.2821, -3.1416], a=3.1416, v=0.0152, r=Zone001)
  movej([-1.2804, -1.812, -1.4671, -3.0041, -1.2804, -3.1416], a=3.1416, v=0.0152, r=Zone001)
  movej([-1.2787, -1.8107, -1.4687, -3.0038, -1.2787, -3.1416], a=3.1416, v=0.0151, r=Zone001)
  movej([-1.277, -1.8095, -1.4703, -3.0034, -1.277, -3.1416], a=3.1416, v=0.015, r=Zone001)
  movej([-1.2753, -1.8081, -1.4719, -3.0031, -1.2753, -3.1416], a=3.1416, v=0.0149, r=Zone001)
  movej([-1.2736, -1.8068, -1.4736, -3.0028, -1.2736, -3.1416], a=3.1416, v=0.0149, r=Zone001)
  movej([-1.2719, -1.8055, -1.4753, -3.0024, -1.2719, -3.1416], a=3.1416, v=0.0148, r=Zone001)
  movej([-1.2702, -1.8041, -1.477, -3.0021, -1.2702, -3.1416], a=3.1416, v=0.0151, r=Zone001)
  movej([-1.2685, -1.8027, -1.4787, -3.0018, -1.2685, -3.1416], a=3.1416, v=0.0153, r=Zone001)
  movej([-1.2669, -1.8013, -1.4805, -3.0014, -1.2669, -3.1416], a=3.1416, v=0.0156, r=Zone001)
  movej([-1.2652, -1.7998, -1.4823, -3.0011, -1.2652, -3.1416], a=3.1416, v=0.0158, r=Zone001)
  movej([-1.2636, -1.7983, -1.4841, -3.0007, -1.2636, -3.1416], a=3.1416, v=0.016, r=Zone001)
  movej([-1.262, -1.7969, -1.486, -3.0004, -1.262, -3.1416], a=3.1416, v=0.0163, r=Zone001)
  movej([-1.2604, -1.7953, -1.4879, -3, -1.2604, -3.1416], a=3.1416, v=0.0165, r=Zone001)
  movej([-1.2588, -1.7938, -1.4898, -2.9996, -1.2588, -3.1416], a=3.1416, v=0.0167, r=Zone001)
  movej([-1.2572, -1.7922, -1.4917, -2.9993, -1.2572, -3.1416], a=3.1416, v=0.0169, r=Zone001)
  movej([-1.2556, -1.7907, -1.4936, -2.9989, -1.2556, -3.1416], a=3.1416, v=0.0171, r=Zone001)
  movej([-1.2541, -1.789, -1.4956, -2.9985, -1.2541, -3.1416], a=3.1416, v=0.0174, r=Zone001)
  movej([-1.2525, -1.7874, -1.4976, -2.9981, -1.2525, -3.1416], a=3.1416, v=0.0176, r=Zone001)
  movej([-1.251, -1.7858, -1.4996, -2.9978, -1.251, -3.1416], a=3.1416, v=0.0178, r=Zone001)
  movej([-1.2495, -1.7841, -1.5017, -2.9974, -1.2495, -3.1416], a=3.1416, v=0.018, r=Zone001)
  movej([-1.248, -1.7824, -1.5037, -2.997, -1.248, -3.1416], a=3.1416, v=0.0181, r=Zone001)
  movej([-1.2465, -1.7807, -1.5058, -2.9966, -1.2465, -3.1416], a=3.1416, v=0.0183, r=Zone001)
  movej([-1.245, -1.779, -1.5079, -2.9963, -1.245, -3.1416], a=3.1416, v=0.0185, r=Zone001)
  movej([-1.2435, -1.7773, -1.5101, -2.9959, -1.2435, -3.1416], a=3.1416, v=0.0187, r=Zone001)
  movej([-1.2421, -1.7755, -1.5122, -2.9955, -1.2421, -3.1416], a=3.1416, v=0.0189, r=Zone001)
  movej([-1.2407, -1.7737, -1.5144, -2.9951, -1.2407, -3.1416], a=3.1416, v=0.019, r=Zone001)
  movej([-1.2393, -1.7719, -1.5166, -2.9947, -1.2393, -3.1416], a=3.1416, v=0.0192, r=Zone001)
  movej([-1.2379, -1.7701, -1.5188, -2.9943, -1.2379, -3.1416], a=3.1416, v=0.0194, r=Zone001)
  movej([-1.2365, -1.7683, -1.521, -2.9939, -1.2365, -3.1416], a=3.1416, v=0.0195, r=Zone001)
  movej([-1.2351, -1.7664, -1.5232, -2.9936, -1.2351, -3.1416], a=3.1416, v=0.0197, r=Zone001)
  movej([-1.2338, -1.7646, -1.5255, -2.9932, -1.2338, -3.1416], a=3.1416, v=0.0198, r=Zone001)
  movej([-1.2324, -1.7627, -1.5277, -2.9928, -1.2324, -3.1416], a=3.1416, v=0.0199, r=Zone001)
  movej([-1.2311, -1.7608, -1.53, -2.9924, -1.2311, -3.1416], a=3.1416, v=0.0201, r=Zone001)
  movej([-1.2299, -1.7589, -1.5323, -2.992, -1.2299, -3.1416], a=3.1416, v=0.0202, r=Zone001)
  movej([-1.2286, -1.7569, -1.5346, -2.9916, -1.2286, -3.1416], a=3.1416, v=0.0203, r=Zone001)
  movej([-1.2273, -1.755, -1.5369, -2.9913, -1.2273, -3.1416], a=3.1416, v=0.0205, r=Zone001)
  movej([-1.2261, -1.753, -1.5393, -2.9909, -1.2261, -3.1416], a=3.1416, v=0.0206, r=Zone001)
  movej([-1.2249, -1.7511, -1.5416, -2.9905, -1.2249, -3.1416], a=3.1416, v=0.0207, r=Zone001)
  movej([-1.2237, -1.7491, -1.544, -2.9901, -1.2237, -3.1416], a=3.1416, v=0.0208, r=Zone001)
  movej([-1.2225, -1.7471, -1.5464, -2.9897, -1.2225, -3.1416], a=3.1416, v=0.0209, r=Zone001)
  movej([-1.2214, -1.7451, -1.5487, -2.9894, -1.2214, -3.1416], a=3.1416, v=0.021, r=Zone001)
  movej([-1.2203, -1.7431, -1.5511, -2.989, -1.2203, -3.1416], a=3.1416, v=0.0211, r=Zone001)
  movej([-1.2192, -1.741, -1.5535, -2.9886, -1.2192, -3.1416], a=3.1416, v=0.0212, r=Zone001)
  movej([-1.2181, -1.739, -1.556, -2.9883, -1.2181, -3.1416], a=3.1416, v=0.0212, r=Zone001)
  movej([-1.217, -1.7369, -1.5584, -2.9879, -1.217, -3.1416], a=3.1416, v=0.0213, r=Zone001)
  movej([-1.216, -1.7349, -1.5608, -2.9875, -1.216, -3.1416], a=3.1416, v=0.0214, r=Zone001)
  movej([-1.215, -1.7328, -1.5632, -2.9872, -1.215, -3.1416], a=3.1416, v=0.0214, r=Zone001)
  movej([-1.214, -1.7307, -1.5657, -2.9868, -1.214, -3.1416], a=3.1416, v=0.0215, r=Zone001)
  movej([-1.213, -1.7286, -1.5681, -2.9865, -1.213, -3.1416], a=3.1416, v=0.0216, r=Zone001)
  movej([-1.2121, -1.7265, -1.5706, -2.9861, -1.2121, -3.1416], a=3.1416, v=0.0216, r=Zone001)
  movej([-1.2111, -1.7244, -1.573, -2.9858, -1.2111, -3.1416], a=3.1416, v=0.0216, r=Zone001)
  movej([-1.2102, -1.7223, -1.5755, -2.9854, -1.2102, -3.1416], a=3.1416, v=0.0217, r=Zone001)
  movej([-1.2094, -1.7201, -1.578, -2.9851, -1.2094, -3.1416], a=3.1416, v=0.0217, r=Zone001)
  movej([-1.2085, -1.718, -1.5804, -2.9847, -1.2085, -3.1416], a=3.1416, v=0.0217, r=Zone001)
  movej([-1.2077, -1.7159, -1.5829, -2.9844, -1.2077, -3.1416], a=3.1416, v=0.0218, r=Zone001)
  movej([-1.2069, -1.7137, -1.5854, -2.9841, -1.2069, -3.1416], a=3.1416, v=0.0218, r=Zone001)
  movej([-1.2062, -1.7116, -1.5878, -2.9838, -1.2062, -3.1416], a=3.1416, v=0.0218, r=Zone001)
  movej([-1.2054, -1.7094, -1.5903, -2.9834, -1.2054, -3.1416], a=3.1416, v=0.0218, r=Zone001)
  movej([-1.2047, -1.7073, -1.5928, -2.9831, -1.2047, -3.1416], a=3.1416, v=0.0218, r=Zone001)
  movej([-1.204, -1.7051, -1.5953, -2.9828, -1.204, -3.1416], a=3.1416, v=0.0218, r=Zone001)
  movej([-1.2034, -1.7029, -1.5977, -2.9825, -1.2034, -3.1416], a=3.1416, v=0.0218, r=Zone001)
  movej([-1.2027, -1.7008, -1.6002, -2.9822, -1.2027, -3.1416], a=3.1416, v=0.0218, r=Zone001)
  movej([-1.2021, -1.6986, -1.6027, -2.9819, -1.2021, -3.1416], a=3.1416, v=0.0217, r=Zone001)
  movej([-1.2016, -1.6964, -1.6051, -2.9816, -1.2016, -3.1416], a=3.1416, v=0.0217, r=Zone001)
  movej([-1.201, -1.6943, -1.6076, -2.9813, -1.201, -3.1416], a=3.1416, v=0.0217, r=Zone001)
  movej([-1.2005, -1.6921, -1.61, -2.9811, -1.2005, -3.1416], a=3.1416, v=0.0217, r=Zone001)
  movej([-1.2, -1.6899, -1.6125, -2.9808, -1.2, -3.1416], a=3.1416, v=0.0216, r=Zone001)
  movej([-1.1996, -1.6877, -1.6149, -2.9805, -1.1996, -3.1416], a=3.1416, v=0.0216, r=Zone001)
  movej([-1.1992, -1.6856, -1.6174, -2.9802, -1.1992, -3.1416], a=3.1416, v=0.0215, r=Zone001)
  movej([-1.1988, -1.6834, -1.6198, -2.98, -1.1988, -3.1416], a=3.1416, v=0.0215, r=Zone001)
  movej([-1.1984, -1.6812, -1.6222, -2.9797, -1.1984, -3.1416], a=3.1416, v=0.0214, r=Zone001)
  movej([-1.1981, -1.6791, -1.6247, -2.9795, -1.1981, -3.1416], a=3.1416, v=0.0213, r=Zone001)
  movej([-1.1978, -1.6769, -1.6271, -2.9792, -1.1978, -3.1416], a=3.1416, v=0.0213, r=Zone001)
  movej([-1.1975, -1.6747, -1.6295, -2.979, -1.1975, -3.1416], a=3.1416, v=0.0212, r=Zone001)
  movej([-1.1973, -1.6726, -1.6319, -2.9788, -1.1973, -3.1416], a=3.1416, v=0.0211, r=Zone001)
  movej([-1.1971, -1.6704, -1.6342, -2.9785, -1.1971, -3.1416], a=3.1416, v=0.021, r=Zone001)
  movej([-1.1969, -1.6683, -1.6366, -2.9783, -1.1969, -3.1416], a=3.1416, v=0.0209, r=Zone001)
  movej([-1.1968, -1.6661, -1.639, -2.9781, -1.1968, -3.1416], a=3.1416, v=0.0208, r=Zone001)
  movej([-1.1967, -1.664, -1.6413, -2.9779, -1.1967, -3.1416], a=3.1416, v=0.0207, r=Zone001)
  movej([-1.1966, -1.6619, -1.6436, -2.9777, -1.1966, -3.1416], a=3.1416, v=0.0206, r=Zone001)
  movej([-1.1965, -1.6597, -1.646, -2.9775, -1.1965, -3.1416], a=3.1416, v=0.0205, r=Zone001)
  movej([-1.1965, -1.6576, -1.6483, -2.9773, -1.1965, -3.1416], a=3.1416, v=0.0204, r=Zone001)
  movej([-1.1966, -1.6555, -1.6506, -2.9771, -1.1966, -3.1416], a=3.1416, v=0.0202, r=Zone001)
  movej([-1.1966, -1.6534, -1.6528, -2.9769, -1.1966, -3.1416], a=3.1416, v=0.0201, r=Zone001)
  movej([-1.1967, -1.6513, -1.6551, -2.9767, -1.1967, -3.1416], a=3.1416, v=0.02, r=Zone001)
  movej([-1.1968, -1.6493, -1.6574, -2.9766, -1.1968, -3.1416], a=3.1416, v=0.0198, r=Zone001)
  movej([-1.197, -1.6472, -1.6596, -2.9764, -1.197, -3.1416], a=3.1416, v=0.0197, r=Zone001)
  movej([-1.1972, -1.6451, -1.6618, -2.9762, -1.1972, -3.1416], a=3.1416, v=0.0195, r=Zone001)
  movej([-1.1974, -1.6431, -1.664, -2.9761, -1.1974, -3.1416], a=3.1416, v=0.0194, r=Zone001)
  movej([-1.1977, -1.6411, -1.6662, -2.9759, -1.1977, -3.1416], a=3.1416, v=0.0192, r=Zone001)
  movej([-1.198, -1.6391, -1.6683, -2.9758, -1.198, -3.1416], a=3.1416, v=0.0191, r=Zone001)
  movej([-1.1984, -1.6371, -1.6705, -2.9757, -1.1984, -3.1416], a=3.1416, v=0.0189, r=Zone001)
  movej([-1.1987, -1.6351, -1.6726, -2.9755, -1.1987, -3.1416], a=3.1416, v=0.0187, r=Zone001)
  movej([-1.1991, -1.6331, -1.6747, -2.9754, -1.1991, -3.1416], a=3.1416, v=0.0185, r=Zone001)
  movej([-1.1996, -1.6311, -1.6768, -2.9753, -1.1996, -3.1416], a=3.1416, v=0.0184, r=Zone001)
  movej([-1.2001, -1.6292, -1.6788, -2.9752, -1.2001, -3.1416], a=3.1416, v=0.0182, r=Zone001)
  movej([-1.2006, -1.6273, -1.6809, -2.975, -1.2006, -3.1416], a=3.1416, v=0.018, r=Zone001)
  movej([-1.2011, -1.6254, -1.6829, -2.9749, -1.2011, -3.1416], a=3.1416, v=0.0178, r=Zone001)
  movej([-1.2017, -1.6235, -1.6849, -2.9748, -1.2017, -3.1416], a=3.1416, v=0.0176, r=Zone001)
  movej([-1.2023, -1.6216, -1.6868, -2.9747, -1.2023, -3.1416], a=3.1416, v=0.0174, r=Zone001)
  movej([-1.203, -1.6198, -1.6888, -2.9746, -1.203, -3.1416], a=3.1416, v=0.0172, r=Zone001)
  movej([-1.2037, -1.6179, -1.6907, -2.9746, -1.2037, -3.1416], a=3.1416, v=0.017, r=Zone001)
  movej([-1.2044, -1.6161, -1.6926, -2.9745, -1.2044, -3.1416], a=3.1416, v=0.0167, r=Zone001)
  movej([-1.2052, -1.6143, -1.6945, -2.9744, -1.2052, -3.1416], a=3.1416, v=0.0165, r=Zone001)
  movej([-1.206, -1.6126, -1.6963, -2.9743, -1.206, -3.1416], a=3.1416, v=0.0163, r=Zone001)
  movej([-1.2068, -1.6108, -1.6981, -2.9743, -1.2068, -3.1416], a=3.1416, v=0.0161, r=Zone001)
  movej([-1.2077, -1.6091, -1.6999, -2.9742, -1.2077, -3.1416], a=3.1416, v=0.0158, r=Zone001)
  movej([-1.2086, -1.6074, -1.7017, -2.9741, -1.2086, -3.1416], a=3.1416, v=0.0156, r=Zone001)
  movej([-1.2096, -1.6057, -1.7034, -2.9741, -1.2096, -3.1416], a=3.1416, v=0.0154, r=Zone001)
  movej([-1.2106, -1.604, -1.7051, -2.974, -1.2106, -3.1416], a=3.1416, v=0.0151, r=Zone001)
  movej([-1.2116, -1.6024, -1.7068, -2.974, -1.2116, -3.1416], a=3.1416, v=0.0149, r=Zone001)
  movej([-1.2126, -1.6008, -1.7085, -2.9739, -1.2126, -3.1416], a=3.1416, v=0.0146, r=Zone001)
  movej([-1.2137, -1.5992, -1.7101, -2.9739, -1.2137, -3.1416], a=3.1416, v=0.0143, r=Zone001)
  movej([-1.2149, -1.5977, -1.7117, -2.9739, -1.2149, -3.1416], a=3.1416, v=0.0141, r=Zone001)
  movej([-1.216, -1.5961, -1.7132, -2.9738, -1.216, -3.1416], a=3.1416, v=0.0138, r=Zone001)
  movej([-1.2172, -1.5946, -1.7148, -2.9738, -1.2172, -3.1416], a=3.1416, v=0.0135, r=Zone001)
  movej([-1.2184, -1.5932, -1.7163, -2.9738, -1.2184, -3.1416], a=3.1416, v=0.0133, r=Zone001)
  movej([-1.2197, -1.5917, -1.7177, -2.9737, -1.2197, -3.1416], a=3.1416, v=0.013, r=Zone001)
  movej([-1.221, -1.5903, -1.7192, -2.9737, -1.221, -3.1416], a=3.1416, v=0.0127, r=Zone001)
  movej([-1.2223, -1.5889, -1.7206, -2.9737, -1.2223, -3.1416], a=3.1416, v=0.0124, r=Zone001)
  movej([-1.2237, -1.5876, -1.7219, -2.9737, -1.2237, -3.1416], a=3.1416, v=0.0122, r=Zone001)
  movej([-1.2251, -1.5862, -1.7233, -2.9737, -1.2251, -3.1416], a=3.1416, v=0.0124, r=Zone001)
  movej([-1.2265, -1.5849, -1.7246, -2.9737, -1.2265, -3.1416], a=3.1416, v=0.0127, r=Zone001)
  movej([-1.228, -1.5837, -1.7259, -2.9736, -1.228, -3.1416], a=3.1416, v=0.013, r=Zone001)
  movej([-1.2295, -1.5824, -1.7271, -2.9736, -1.2295, -3.1416], a=3.1416, v=0.0132, r=Zone001)
  movej([-1.231, -1.5812, -1.7283, -2.9736, -1.231, -3.1416], a=3.1416, v=0.0135, r=Zone001)
  movej([-1.2326, -1.5801, -1.7295, -2.9736, -1.2326, -3.1416], a=3.1416, v=0.0138, r=Zone001)
  movej([-1.2342, -1.5789, -1.7306, -2.9736, -1.2342, -3.1416], a=3.1416, v=0.0141, r=Zone001)
  movej([-1.2358, -1.5778, -1.7317, -2.9736, -1.2358, -3.1416], a=3.1416, v=0.0144, r=Zone001)
  movej([-1.2374, -1.5768, -1.7328, -2.9736, -1.2374, -3.1416], a=3.1416, v=0.0146, r=Zone001)
  movej([-1.2391, -1.5757, -1.7338, -2.9736, -1.2391, -3.1416], a=3.1416, v=0.0149, r=Zone001)
  movej([-1.2408, -1.5747, -1.7348, -2.9736, -1.2408, -3.1416], a=3.1416, v=0.0152, r=Zone001)
  movej([-1.2426, -1.5738, -1.7358, -2.9736, -1.2426, -3.1416], a=3.1416, v=0.0154, r=Zone001)
  movej([-1.2443, -1.5728, -1.7367, -2.9737, -1.2443, -3.1416], a=3.1416, v=0.0157, r=Zone001)
  movej([-1.2461, -1.5719, -1.7376, -2.9737, -1.2461, -3.1416], a=3.1416, v=0.0159, r=Zone001)
  movej([-1.248, -1.5711, -1.7384, -2.9737, -1.248, -3.1416], a=3.1416, v=0.0162, r=Zone001)
  movej([-1.2498, -1.5703, -1.7392, -2.9737, -1.2498, -3.1416], a=3.1416, v=0.0164, r=Zone001)
  movej([-1.2517, -1.5695, -1.74, -2.9737, -1.2517, -3.1416], a=3.1416, v=0.0166, r=Zone001)
  movej([-1.2536, -1.5687, -1.7408, -2.9737, -1.2536, -3.1416], a=3.1416, v=0.0169, r=Zone001)
  movej([-1.2555, -1.568, -1.7415, -2.9737, -1.2555, -3.1416], a=3.1416, v=0.0171, r=Zone001)
  movej([-1.2575, -1.5673, -1.7421, -2.9737, -1.2575, -3.1416], a=3.1416, v=0.0173, r=Zone001)
  movej([-1.2594, -1.5667, -1.7427, -2.9737, -1.2594, -3.1416], a=3.1416, v=0.0175, r=Zone001)
  movej([-1.2614, -1.5661, -1.7433, -2.9737, -1.2614, -3.1416], a=3.1416, v=0.0177, r=Zone001)
  movej([-1.2635, -1.5655, -1.7439, -2.9738, -1.2635, -3.1416], a=3.1416, v=0.0179, r=Zone001)
  movej([-1.2655, -1.565, -1.7444, -2.9738, -1.2655, -3.1416], a=3.1416, v=0.0181, r=Zone001)
  movej([-1.2676, -1.5645, -1.7449, -2.9738, -1.2676, -3.1416], a=3.1416, v=0.0183, r=Zone001)
  movej([-1.2697, -1.5641, -1.7453, -2.9738, -1.2697, -3.1416], a=3.1416, v=0.0185, r=Zone001)
  movej([-1.2718, -1.5637, -1.7457, -2.9738, -1.2718, -3.1416], a=3.1416, v=0.0187, r=Zone001)
  movej([-1.2739, -1.5633, -1.746, -2.9738, -1.2739, -3.1416], a=3.1416, v=0.0188, r=Zone001)
  movej([-1.276, -1.563, -1.7463, -2.9738, -1.276, -3.1416], a=3.1416, v=0.019, r=Zone001)
  movej([-1.2782, -1.5627, -1.7466, -2.9739, -1.2782, -3.1416], a=3.1416, v=0.0192, r=Zone001)
  movej([-1.2804, -1.5625, -1.7469, -2.9739, -1.2804, -3.1416], a=3.1416, v=0.0193, r=Zone001)
  movej([-1.2826, -1.5623, -1.7471, -2.9739, -1.2826, -3.1416], a=3.1416, v=0.0195, r=Zone001)
  movej([-1.2848, -1.5621, -1.7472, -2.9739, -1.2848, -3.1416], a=3.1416, v=0.0196, r=Zone001)
  movej([-1.287, -1.562, -1.7473, -2.9739, -1.287, -3.1416], a=3.1416, v=0.0197, r=Zone001)
  movej([-1.2892, -1.5619, -1.7474, -2.9739, -1.2892, -3.1416], a=3.1416, v=0.0198, r=Zone001)
  movej([-1.2915, -1.5618, -1.7474, -2.9739, -1.2915, -3.1416], a=3.1416, v=0.02, r=Zone001)
  movej([-1.2937, -1.5618, -1.7474, -2.9739, -1.2937, -3.1416], a=3.1416, v=0.0201, r=Zone001)
  movej([-1.296, -1.5618, -1.7474, -2.9739, -1.296, -3.1416], a=3.1416, v=0.0202, r=Zone001)
  movej([-1.2983, -1.5619, -1.7473, -2.9739, -1.2983, -3.1416], a=3.1416, v=0.0203, r=Zone001)
  movej([-1.3006, -1.562, -1.7472, -2.974, -1.3006, -3.1416], a=3.1416, v=0.0203, r=Zone001)
  movej([-1.3029, -1.5622, -1.7471, -2.974, -1.3029, -3.1416], a=3.1416, v=0.0204, r=Zone001)
  movej([-1.3052, -1.5624, -1.7469, -2.974, -1.3052, -3.1416], a=3.1416, v=0.0205, r=Zone001)
  movej([-1.3075, -1.5626, -1.7466, -2.974, -1.3075, -3.1416], a=3.1416, v=0.0206, r=Zone001)
  movej([-1.3098, -1.5629, -1.7463, -2.974, -1.3098, -3.1416], a=3.1416, v=0.0206, r=Zone001)
  movej([-1.3122, -1.5632, -1.746, -2.974, -1.3122, -3.1416], a=3.1416, v=0.0207, r=Zone001)
  movej([-1.3145, -1.5635, -1.7457, -2.974, -1.3145, -3.1416], a=3.1416, v=0.0207, r=Zone001)
  movej([-1.3168, -1.5639, -1.7453, -2.974, -1.3168, -3.1416], a=3.1416, v=0.0207, r=Zone001)
  movej([-1.3192, -1.5643, -1.7449, -2.974, -1.3192, -3.1416], a=3.1416, v=0.0208, r=Zone001)
  movej([-1.3215, -1.5648, -1.7444, -2.974, -1.3215, -3.1416], a=3.1416, v=0.0208, r=Zone001)
  movej([-1.3239, -1.5653, -1.7439, -2.974, -1.3239, -3.1416], a=3.1416, v=0.0208, r=Zone001)
  movej([-1.3262, -1.5658, -1.7433, -2.974, -1.3262, -3.1416], a=3.1416, v=0.0208, r=Zone001)
  movej([-1.3285, -1.5664, -1.7427, -2.974, -1.3285, -3.1416], a=3.1416, v=0.0208, r=Zone001)
  movej([-1.3309, -1.567, -1.7421, -2.974, -1.3309, -3.1416], a=3.1416, v=0.0208, r=Zone001)
  movej([-1.3332, -1.5677, -1.7415, -2.9741, -1.3332, -3.1416], a=3.1416, v=0.0207, r=Zone001)
  movej([-1.3355, -1.5684, -1.7408, -2.9741, -1.3355, -3.1416], a=3.1416, v=0.0207, r=Zone001)
  movej([-1.3379, -1.5691, -1.74, -2.9741, -1.3379, -3.1416], a=3.1416, v=0.0207, r=Zone001)
  movej([-1.3402, -1.5699, -1.7393, -2.9741, -1.3402, -3.1416], a=3.1416, v=0.0206, r=Zone001)
  movej([-1.3425, -1.5707, -1.7384, -2.9741, -1.3425, -3.1416], a=3.1416, v=0.0206, r=Zone001)
  movej([-1.3448, -1.5715, -1.7376, -2.9741, -1.3448, -3.1416], a=3.1416, v=0.0205, r=Zone001)
  movej([-1.3471, -1.5724, -1.7367, -2.9741, -1.3471, -3.1416], a=3.1416, v=0.0205, r=Zone001)
  movej([-1.3494, -1.5733, -1.7358, -2.9741, -1.3494, -3.1416], a=3.1416, v=0.0204, r=Zone001)
  movej([-1.3517, -1.5742, -1.7348, -2.9741, -1.3517, -3.1416], a=3.1416, v=0.0203, r=Zone001)
  movej([-1.354, -1.5752, -1.7338, -2.9741, -1.354, -3.1416], a=3.1416, v=0.0202, r=Zone001)
  movej([-1.3562, -1.5762, -1.7328, -2.9742, -1.3562, -3.1416], a=3.1416, v=0.0201, r=Zone001)
  movej([-1.3585, -1.5773, -1.7317, -2.9742, -1.3585, -3.1416], a=3.1416, v=0.02, r=Zone001)
  movej([-1.3607, -1.5783, -1.7306, -2.9742, -1.3607, -3.1416], a=3.1416, v=0.0199, r=Zone001)
  movej([-1.363, -1.5795, -1.7295, -2.9742, -1.363, -3.1416], a=3.1416, v=0.0198, r=Zone001)
  movej([-1.3652, -1.5806, -1.7283, -2.9742, -1.3652, -3.1416], a=3.1416, v=0.0197, r=Zone001)
  movej([-1.3674, -1.5818, -1.7271, -2.9743, -1.3674, -3.1416], a=3.1416, v=0.0195, r=Zone001)
  movej([-1.3696, -1.583, -1.7259, -2.9743, -1.3696, -3.1416], a=3.1416, v=0.0194, r=Zone001)
  movej([-1.3717, -1.5842, -1.7246, -2.9743, -1.3717, -3.1416], a=3.1416, v=0.0193, r=Zone001)
  movej([-1.3739, -1.5855, -1.7233, -2.9743, -1.3739, -3.1416], a=3.1416, v=0.0191, r=Zone001)
  movej([-1.376, -1.5868, -1.722, -2.9744, -1.376, -3.1416], a=3.1416, v=0.019, r=Zone001)
  movej([-1.3781, -1.5881, -1.7206, -2.9744, -1.3781, -3.1416], a=3.1416, v=0.0188, r=Zone001)
  movej([-1.3802, -1.5895, -1.7192, -2.9744, -1.3802, -3.1416], a=3.1416, v=0.0186, r=Zone001)
  movej([-1.3823, -1.5909, -1.7178, -2.9745, -1.3823, -3.1416], a=3.1416, v=0.0185, r=Zone001)
  movej([-1.3844, -1.5923, -1.7163, -2.9745, -1.3844, -3.1416], a=3.1416, v=0.0183, r=Zone001)
  movej([-1.3864, -1.5938, -1.7148, -2.9746, -1.3864, -3.1416], a=3.1416, v=0.0181, r=Zone001)
  movej([-1.3884, -1.5953, -1.7133, -2.9746, -1.3884, -3.1416], a=3.1416, v=0.0179, r=Zone001)
  movej([-1.3904, -1.5968, -1.7118, -2.9747, -1.3904, -3.1416], a=3.1416, v=0.0177, r=Zone001)
  movej([-1.3924, -1.5983, -1.7102, -2.9747, -1.3924, -3.1416], a=3.1416, v=0.0175, r=Zone001)
  movej([-1.3943, -1.5998, -1.7086, -2.9748, -1.3943, -3.1416], a=3.1416, v=0.0173, r=Zone001)
  movej([-1.3962, -1.6014, -1.7069, -2.9748, -1.3962, -3.1416], a=3.1416, v=0.0171, r=Zone001)
  movej([-1.3981, -1.603, -1.7052, -2.9749, -1.3981, -3.1416], a=3.1416, v=0.0169, r=Zone001)
  movej([-1.4, -1.6047, -1.7035, -2.975, -1.4, -3.1416], a=3.1416, v=0.0167, r=Zone001)
  movej([-1.4019, -1.6063, -1.7018, -2.9751, -1.4019, -3.1416], a=3.1416, v=0.0164, r=Zone001)
  movej([-1.4037, -1.608, -1.7, -2.9751, -1.4037, -3.1416], a=3.1416, v=0.0162, r=Zone001)
  movej([-1.4055, -1.6097, -1.6983, -2.9752, -1.4055, -3.1416], a=3.1416, v=0.016, r=Zone001)
  movej([-1.4072, -1.6114, -1.6965, -2.9753, -1.4072, -3.1416], a=3.1416, v=0.0161, r=Zone001)
  movej([-1.409, -1.6132, -1.6946, -2.9754, -1.409, -3.1416], a=3.1416, v=0.0163, r=Zone001)
  movej([-1.4107, -1.6149, -1.6928, -2.9755, -1.4107, -3.1416], a=3.1416, v=0.0166, r=Zone001)
  movej([-1.4124, -1.6167, -1.6909, -2.9756, -1.4124, -3.1416], a=3.1416, v=0.0168, r=Zone001)
  movej([-1.414, -1.6185, -1.689, -2.9757, -1.414, -3.1416], a=3.1416, v=0.017, r=Zone001)
  movej([-1.4157, -1.6204, -1.687, -2.9758, -1.4157, -3.1416], a=3.1416, v=0.0172, r=Zone001)
  movej([-1.4173, -1.6222, -1.6851, -2.9759, -1.4173, -3.1416], a=3.1416, v=0.0174, r=Zone001)
  movej([-1.4188, -1.6241, -1.6831, -2.976, -1.4188, -3.1416], a=3.1416, v=0.0176, r=Zone001)
  movej([-1.4204, -1.626, -1.6811, -2.9761, -1.4204, -3.1416], a=3.1416, v=0.0178, r=Zone001)
  movej([-1.4219, -1.6279, -1.6791, -2.9763, -1.4219, -3.1416], a=3.1416, v=0.018, r=Zone001)
  movej([-1.4234, -1.6298, -1.677, -2.9764, -1.4234, -3.1416], a=3.1416, v=0.0182, r=Zone001)
  movej([-1.4248, -1.6317, -1.6749, -2.9765, -1.4248, -3.1416], a=3.1416, v=0.0184, r=Zone001)
  movej([-1.4262, -1.6337, -1.6729, -2.9767, -1.4262, -3.1416], a=3.1416, v=0.0186, r=Zone001)
  movej([-1.4276, -1.6356, -1.6707, -2.9768, -1.4276, -3.1416], a=3.1416, v=0.0188, r=Zone001)
  movej([-1.429, -1.6376, -1.6686, -2.977, -1.429, -3.1416], a=3.1416, v=0.019, r=Zone001)
  movej([-1.4303, -1.6396, -1.6665, -2.9771, -1.4303, -3.1416], a=3.1416, v=0.0191, r=Zone001)
  movej([-1.4316, -1.6416, -1.6643, -2.9773, -1.4316, -3.1416], a=3.1416, v=0.0193, r=Zone001)
  movej([-1.4328, -1.6436, -1.6621, -2.9775, -1.4328, -3.1416], a=3.1416, v=0.0195, r=Zone001)
  movej([-1.4341, -1.6456, -1.6599, -2.9776, -1.4341, -3.1416], a=3.1416, v=0.0196, r=Zone001)
  movej([-1.4353, -1.6477, -1.6577, -2.9778, -1.4353, -3.1416], a=3.1416, v=0.0198, r=Zone001)
  movej([-1.4364, -1.6497, -1.6555, -2.978, -1.4364, -3.1416], a=3.1416, v=0.0199, r=Zone001)
  movej([-1.4376, -1.6518, -1.6532, -2.9782, -1.4376, -3.1416], a=3.1416, v=0.02, r=Zone001)
  movej([-1.4386, -1.6538, -1.651, -2.9784, -1.4386, -3.1416], a=3.1416, v=0.0202, r=Zone001)
  movej([-1.4397, -1.6559, -1.6487, -2.9786, -1.4397, -3.1416], a=3.1416, v=0.0203, r=Zone001)
  movej([-1.4407, -1.658, -1.6464, -2.9788, -1.4407, -3.1416], a=3.1416, v=0.0204, r=Zone001)
  movej([-1.4417, -1.6601, -1.6441, -2.979, -1.4417, -3.1416], a=3.1416, v=0.0206, r=Zone001)
  movej([-1.4427, -1.6622, -1.6418, -2.9792, -1.4427, -3.1416], a=3.1416, v=0.0207, r=Zone001)
  movej([-1.4436, -1.6643, -1.6394, -2.9794, -1.4436, -3.1416], a=3.1416, v=0.0208, r=Zone001)
  movej([-1.4445, -1.6664, -1.6371, -2.9797, -1.4445, -3.1416], a=3.1416, v=0.0209, r=Zone001)
  movej([-1.4454, -1.6685, -1.6347, -2.9799, -1.4454, -3.1416], a=3.1416, v=0.021, r=Zone001)
  movej([-1.4462, -1.6707, -1.6324, -2.9801, -1.4462, -3.1416], a=3.1416, v=0.0211, r=Zone001)
  movej([-1.447, -1.6728, -1.63, -2.9804, -1.447, -3.1416], a=3.1416, v=0.0212, r=Zone001)
  movej([-1.4478, -1.6749, -1.6276, -2.9806, -1.4478, -3.1416], a=3.1416, v=0.0213, r=Zone001)
  movej([-1.4485, -1.6771, -1.6252, -2.9809, -1.4485, -3.1416], a=3.1416, v=0.0213, r=Zone001)
  movej([-1.4492, -1.6792, -1.6228, -2.9812, -1.4492, -3.1416], a=3.1416, v=0.0214, r=Zone001)
  movej([-1.4498, -1.6813, -1.6204, -2.9814, -1.4498, -3.1416], a=3.1416, v=0.0215, r=Zone001)
  movej([-1.4505, -1.6835, -1.618, -2.9817, -1.4505, -3.1416], a=3.1416, v=0.0216, r=Zone001)
  movej([-1.4511, -1.6856, -1.6156, -2.982, -1.4511, -3.1416], a=3.1416, v=0.0216, r=Zone001)
  movej([-1.4516, -1.6878, -1.6131, -2.9823, -1.4516, -3.1416], a=3.1416, v=0.0217, r=Zone001)
  movej([-1.4521, -1.6899, -1.6107, -2.9825, -1.4521, -3.1416], a=3.1416, v=0.0217, r=Zone001)
  movej([-1.4526, -1.6921, -1.6083, -2.9828, -1.4526, -3.1416], a=3.1416, v=0.0218, r=Zone001)
  movej([-1.4531, -1.6942, -1.6058, -2.9831, -1.4531, -3.1416], a=3.1416, v=0.0218, r=Zone001)
  movej([-1.4535, -1.6964, -1.6034, -2.9834, -1.4535, -3.1416], a=3.1416, v=0.0218, r=Zone001)
  movej([-1.4539, -1.6985, -1.6009, -2.9837, -1.4539, -3.1416], a=3.1416, v=0.0219, r=Zone001)
  movej([-1.4543, -1.7006, -1.5985, -2.9841, -1.4543, -3.1416], a=3.1416, v=0.0219, r=Zone001)
  movej([-1.4546, -1.7028, -1.596, -2.9844, -1.4546, -3.1416], a=3.1416, v=0.0219, r=Zone001)
  movej([-1.4549, -1.7049, -1.5936, -2.9847, -1.4549, -3.1416], a=3.1416, v=0.0219, r=Zone001)
  movej([-1.4552, -1.707, -1.5911, -2.985, -1.4552, -3.1416], a=3.1416, v=0.0219, r=Zone001)
  movej([-1.4554, -1.7092, -1.5887, -2.9853, -1.4554, -3.1416], a=3.1416, v=0.0219, r=Zone001)
  movej([-1.4556, -1.7113, -1.5862, -2.9857, -1.4556, -3.1416], a=3.1416, v=0.0219, r=Zone001)
  movej([-1.4557, -1.7134, -1.5838, -2.986, -1.4557, -3.1416], a=3.1416, v=0.0219, r=Zone001)
  movej([-1.4559, -1.7155, -1.5813, -2.9864, -1.4559, -3.1416], a=3.1416, v=0.0219, r=Zone001)
  movej([-1.456, -1.7176, -1.5789, -2.9867, -1.456, -3.1416], a=3.1416, v=0.0219, r=Zone001)
  movej([-1.456, -1.7197, -1.5764, -2.987, -1.456, -3.1416], a=3.1416, v=0.0218, r=Zone001)
  movej([-1.4561, -1.7218, -1.574, -2.9874, -1.4561, -3.1416], a=3.1416, v=0.0218, r=Zone001)
  movej([-1.4561, -1.7239, -1.5715, -2.9878, -1.4561, -3.1416], a=3.1416, v=0.0218, r=Zone001)
  movej([-1.4561, -1.726, -1.5691, -2.9881, -1.4561, -3.1416], a=3.1416, v=0.0217, r=Zone001)
  movej([-1.456, -1.728, -1.5667, -2.9885, -1.456, -3.1416], a=3.1416, v=0.0217, r=Zone001)
  movej([-1.4559, -1.7301, -1.5643, -2.9888, -1.4559, -3.1416], a=3.1416, v=0.0216, r=Zone001)
  movej([-1.4558, -1.7321, -1.5618, -2.9892, -1.4558, -3.1416], a=3.1416, v=0.0216, r=Zone001)
  movej([-1.4557, -1.7342, -1.5594, -2.9896, -1.4557, -3.1416], a=3.1416, v=0.0215, r=Zone001)
  movej([-1.4555, -1.7362, -1.557, -2.9899, -1.4555, -3.1416], a=3.1416, v=0.0215, r=Zone001)
  movej([-1.4553, -1.7382, -1.5546, -2.9903, -1.4553, -3.1416], a=3.1416, v=0.0214, r=Zone001)
  movej([-1.455, -1.7402, -1.5523, -2.9907, -1.455, -3.1416], a=3.1416, v=0.0213, r=Zone001)
  movej([-1.4548, -1.7422, -1.5499, -2.9911, -1.4548, -3.1416], a=3.1416, v=0.0212, r=Zone001)
  movej([-1.4545, -1.7442, -1.5475, -2.9915, -1.4545, -3.1416], a=3.1416, v=0.0211, r=Zone001)
  movej([-1.4542, -1.7462, -1.5452, -2.9918, -1.4542, -3.1416], a=3.1416, v=0.021, r=Zone001)
  movej([-1.4538, -1.7481, -1.5428, -2.9922, -1.4538, -3.1416], a=3.1416, v=0.0209, r=Zone001)
  movej([-1.4534, -1.7501, -1.5405, -2.9926, -1.4534, -3.1416], a=3.1416, v=0.0208, r=Zone001)
  movej([-1.453, -1.752, -1.5382, -2.993, -1.453, -3.1416], a=3.1416, v=0.0207, r=Zone001)
  movej([-1.4526, -1.7539, -1.5359, -2.9934, -1.4526, -3.1416], a=3.1416, v=0.0206, r=Zone001)
  movej([-1.4521, -1.7558, -1.5336, -2.9938, -1.4521, -3.1416], a=3.1416, v=0.0205, r=Zone001)
  movej([-1.4516, -1.7577, -1.5313, -2.9942, -1.4516, -3.1416], a=3.1416, v=0.0204, r=Zone001)
  movej([-1.4511, -1.7596, -1.529, -2.9946, -1.4511, -3.1416], a=3.1416, v=0.0202, r=Zone001)
  movej([-1.4505, -1.7614, -1.5268, -2.995, -1.4505, -3.1416], a=3.1416, v=0.0201, r=Zone001)
  movej([-1.45, -1.7633, -1.5246, -2.9954, -1.45, -3.1416], a=3.1416, v=0.02, r=Zone001)
  movej([-1.4494, -1.7651, -1.5223, -2.9958, -1.4494, -3.1416], a=3.1416, v=0.0198, r=Zone001)
  movej([-1.4487, -1.7669, -1.5201, -2.9961, -1.4487, -3.1416], a=3.1416, v=0.0197, r=Zone001)
  movej([-1.4481, -1.7687, -1.518, -2.9965, -1.4481, -3.1416], a=3.1416, v=0.0195, r=Zone001)
  movej([-1.4474, -1.7705, -1.5158, -2.9969, -1.4474, -3.1416], a=3.1416, v=0.0194, r=Zone001)
  movej([-1.4467, -1.7722, -1.5137, -2.9973, -1.4467, -3.1416], a=3.1416, v=0.0192, r=Zone001)
  movej([-1.446, -1.7739, -1.5115, -2.9977, -1.446, -3.1416], a=3.1416, v=0.019, r=Zone001)
  movej([-1.4452, -1.7757, -1.5094, -2.9981, -1.4452, -3.1416], a=3.1416, v=0.0189, r=Zone001)
  movej([-1.4444, -1.7774, -1.5073, -2.9985, -1.4444, -3.1416], a=3.1416, v=0.0187, r=Zone001)
  movej([-1.4436, -1.779, -1.5053, -2.9989, -1.4436, -3.1416], a=3.1416, v=0.0185, r=Zone001)
  movej([-1.4428, -1.7807, -1.5032, -2.9993, -1.4428, -3.1416], a=3.1416, v=0.0183, r=Zone001)
  movej([-1.442, -1.7823, -1.5012, -2.9997, -1.442, -3.1416], a=3.1416, v=0.0181, r=Zone001)
  movej([-1.4411, -1.784, -1.4992, -3, -1.4411, -3.1416], a=3.1416, v=0.0179, r=Zone001)
  movej([-1.4402, -1.7856, -1.4972, -3.0004, -1.4402, -3.1416], a=3.1416, v=0.0178, r=Zone001)
  movej([-1.4393, -1.7871, -1.4952, -3.0008, -1.4393, -3.1416], a=3.1416, v=0.0175, r=Zone001)
  movej([-1.4383, -1.7887, -1.4933, -3.0012, -1.4383, -3.1416], a=3.1416, v=0.0173, r=Zone001)
  movej([-1.4374, -1.7902, -1.4914, -3.0016, -1.4374, -3.1416], a=3.1416, v=0.0171, r=Zone001)
  movej([-1.4364, -1.7918, -1.4895, -3.0019, -1.4364, -3.1416], a=3.1416, v=0.0169, r=Zone001)
  movej([-1.4354, -1.7933, -1.4876, -3.0023, -1.4354, -3.1416], a=3.1416, v=0.0167, r=Zone001)
  movej([-1.4344, -1.7947, -1.4858, -3.0027, -1.4344, -3.1416], a=3.1416, v=0.0165, r=Zone001)
  movej([-1.4333, -1.7962, -1.484, -3.003, -1.4333, -3.1416], a=3.1416, v=0.0162, r=Zone001)
  movej([-1.4322, -1.7976, -1.4822, -3.0034, -1.4322, -3.1416], a=3.1416, v=0.016, r=Zone001)
  movej([-1.4311, -1.799, -1.4804, -3.0037, -1.4311, -3.1416], a=3.1416, v=0.0158, r=Zone001)
  movej([-1.43, -1.8004, -1.4787, -3.0041, -1.43, -3.1416], a=3.1416, v=0.0155, r=Zone001)
  movej([-1.4289, -1.8017, -1.477, -3.0044, -1.4289, -3.1416], a=3.1416, v=0.0153, r=Zone001)
  movej([-1.4278, -1.8031, -1.4753, -3.0048, -1.4278, -3.1416], a=3.1416, v=0.015, r=Zone001)
  movej([-1.4266, -1.8044, -1.4737, -3.0051, -1.4266, -3.1416], a=3.1416, v=0.0148, r=Zone001)
  movej([-1.4254, -1.8057, -1.4721, -3.0055, -1.4254, -3.1416], a=3.1416, v=0.0145, r=Zone001)
  movej([-1.4242, -1.8069, -1.4705, -3.0058, -1.4242, -3.1416], a=3.1416, v=0.0143, r=Zone001)
  movej([-1.423, -1.8082, -1.4689, -3.0061, -1.423, -3.1416], a=3.1416, v=0.014, r=Zone001)
  movej([-1.4217, -1.8094, -1.4674, -3.0064, -1.4217, -3.1416], a=3.1416, v=0.0137, r=Zone001)
  movej([-1.4205, -1.8106, -1.4659, -3.0068, -1.4205, -3.1416], a=3.1416, v=0.0135, r=Zone001)
  movej([-1.4192, -1.8117, -1.4644, -3.0071, -1.4192, -3.1416], a=3.1416, v=0.0132, r=Zone001)
  movej([-1.4179, -1.8129, -1.463, -3.0074, -1.4179, -3.1416], a=3.1416, v=0.0129, r=Zone001)
  movej([-1.4166, -1.814, -1.4615, -3.0077, -1.4166, -3.1416], a=3.1416, v=0.0126, r=Zone001)
  movej([-1.4152, -1.815, -1.4602, -3.008, -1.4152, -3.1416], a=3.1416, v=0.0124, r=Zone001)
  movej([-1.4139, -1.8161, -1.4588, -3.0083, -1.4139, -3.1416], a=3.1416, v=0.0121, r=Zone001)
  movej([-1.4125, -1.8171, -1.4575, -3.0085, -1.4125, -3.1416], a=3.1416, v=0.0122, r=Zone001)
  movej([-1.4111, -1.8181, -1.4562, -3.0088, -1.4111, -3.1416], a=3.1416, v=0.0124, r=Zone001)
  movej([-1.4097, -1.8191, -1.455, -3.0091, -1.4097, -3.1416], a=3.1416, v=0.0125, r=Zone001)
  movej([-1.4083, -1.8201, -1.4538, -3.0094, -1.4083, -3.1416], a=3.1416, v=0.0126, r=Zone001)
  movej([-1.4069, -1.821, -1.4526, -3.0096, -1.4069, -3.1416], a=3.1416, v=0.0128, r=Zone001)
  movej([-1.4055, -1.8219, -1.4514, -3.0099, -1.4055, -3.1416], a=3.1416, v=0.0129, r=Zone001)
  movej([-1.404, -1.8227, -1.4503, -3.0101, -1.404, -3.1416], a=3.1416, v=0.013, r=Zone001)
  movej([-1.4026, -1.8236, -1.4493, -3.0103, -1.4026, -3.1416], a=3.1416, v=0.0132, r=Zone001)
  movej([-1.4011, -1.8244, -1.4482, -3.0106, -1.4011, -3.1416], a=3.1416, v=0.0133, r=Zone001)
  movej([-1.3996, -1.8252, -1.4472, -3.0108, -1.3996, -3.1416], a=3.1416, v=0.0134, r=Zone001)
  movej([-1.3981, -1.8259, -1.4462, -3.011, -1.3981, -3.1416], a=3.1416, v=0.0135, r=Zone001)
  movej([-1.3966, -1.8267, -1.4453, -3.0112, -1.3966, -3.1416], a=3.1416, v=0.0136, r=Zone001)
  movej([-1.395, -1.8274, -1.4444, -3.0114, -1.395, -3.1416], a=3.1416, v=0.0137, r=Zone001)
  movej([-1.3935, -1.828, -1.4435, -3.0116, -1.3935, -3.1416], a=3.1416, v=0.0139, r=Zone001)
  movej([-1.3919, -1.8287, -1.4427, -3.0118, -1.3919, -3.1416], a=3.1416, v=0.014, r=Zone001)
  movej([-1.3904, -1.8293, -1.4419, -3.012, -1.3904, -3.1416], a=3.1416, v=0.0141, r=Zone001)
  movej([-1.3888, -1.8299, -1.4412, -3.0122, -1.3888, -3.1416], a=3.1416, v=0.0142, r=Zone001)
  movej([-1.3872, -1.8304, -1.4404, -3.0123, -1.3872, -3.1416], a=3.1416, v=0.0143, r=Zone001)
  movej([-1.3856, -1.8309, -1.4398, -3.0125, -1.3856, -3.1416], a=3.1416, v=0.0144, r=Zone001)
  movej([-1.384, -1.8314, -1.4391, -3.0126, -1.384, -3.1416], a=3.1416, v=0.0145, r=Zone001)
  movej([-1.3824, -1.8319, -1.4385, -3.0128, -1.3824, -3.1416], a=3.1416, v=0.0145, r=Zone001)
  movej([-1.3807, -1.8323, -1.4379, -3.0129, -1.3807, -3.1416], a=3.1416, v=0.0146, r=Zone001)
  movej([-1.3791, -1.8327, -1.4374, -3.013, -1.3791, -3.1416], a=3.1416, v=0.0147, r=Zone001)
  movej([-1.3774, -1.8331, -1.4369, -3.0132, -1.3774, -3.1416], a=3.1416, v=0.0148, r=Zone001)
  movej([-1.3758, -1.8335, -1.4365, -3.0133, -1.3758, -3.1416], a=3.1416, v=0.0149, r=Zone001)
  movej([-1.3741, -1.8338, -1.436, -3.0134, -1.3741, -3.1416], a=3.1416, v=0.015, r=Zone001)
  movej([-1.3725, -1.8341, -1.4357, -3.0135, -1.3725, -3.1416], a=3.1416, v=0.015, r=Zone001)
  movej([-1.3708, -1.8343, -1.4353, -3.0135, -1.3708, -3.1416], a=3.1416, v=0.0151, r=Zone001)
  movej([-1.3691, -1.8346, -1.435, -3.0136, -1.3691, -3.1416], a=3.1416, v=0.0152, r=Zone001)
  movej([-1.3674, -1.8348, -1.4348, -3.0137, -1.3674, -3.1416], a=3.1416, v=0.0152, r=Zone001)
  movej([-1.3657, -1.8349, -1.4345, -3.0137, -1.3657, -3.1416], a=3.1416, v=0.0153, r=Zone001)
  movej([-1.364, -1.8351, -1.4343, -3.0138, -1.364, -3.1416], a=3.1416, v=0.0154, r=Zone001)
  movej([-1.3623, -1.8352, -1.4342, -3.0138, -1.3623, -3.1416], a=3.1416, v=0.0154, r=Zone001)
  movej([-1.3605, -1.8352, -1.4341, -3.0139, -1.3605, -3.1416], a=3.1416, v=0.0155, r=Zone001)
  movej([-1.3588, -1.8353, -1.434, -3.0139, -1.3588, -3.1416], a=3.1416, v=0.0155, r=Zone001)
  movej([-1.3571, -1.8353, -1.434, -3.0139, -1.3571, -3.1416], a=3.1416, v=0.0156, r=Zone001)
  movej([-1.3553, -1.8353, -1.434, -3.0139, -1.3553, -3.1416], a=3.1416, v=0.0156, r=Zone001)
  movej([-1.3536, -1.8353, -1.434, -3.0139, -1.3536, -3.1416], a=3.1416, v=0.0157, r=Zone001)
  movej([-1.3518, -1.8352, -1.4341, -3.0139, -1.3518, -3.1416], a=3.1416, v=0.0157, r=Zone001)
  movej([-1.3501, -1.8351, -1.4342, -3.0139, -1.3501, -3.1416], a=3.1416, v=0.0158, r=Zone001)
  movej([-1.3483, -1.835, -1.4344, -3.0138, -1.3483, -3.1416], a=3.1416, v=0.0158, r=Zone001)
  movej([-1.3466, -1.8348, -1.4346, -3.0138, -1.3466, -3.1416], a=3.1416, v=0.0158, r=Zone001)
  movej([-1.3448, -1.8346, -1.4348, -3.0138, -1.3448, -3.1416], a=3.1416, v=0.0159, r=Zone001)
  movej([-1.343, -1.8344, -1.4351, -3.0137, -1.343, -3.1416], a=3.1416, v=0.0159, r=Zone001)
  movej([-1.3413, -1.8341, -1.4354, -3.0136, -1.3413, -3.1416], a=3.1416, v=0.0159, r=Zone001)
  movej([-1.3395, -1.8338, -1.4358, -3.0136, -1.3395, -3.1416], a=3.1416, v=0.016, r=Zone001)
  movej([-1.3377, -1.8335, -1.4362, -3.0135, -1.3377, -3.1416], a=3.1416, v=0.016, r=Zone001)
  movej([-1.3359, -1.8332, -1.4366, -3.0134, -1.3359, -3.1416], a=3.1416, v=0.016, r=Zone001)
  movej([-1.3342, -1.8328, -1.4371, -3.0133, -1.3342, -3.1416], a=3.1416, v=0.016, r=Zone001)
  movej([-1.3324, -1.8324, -1.4376, -3.0132, -1.3324, -3.1416], a=3.1416, v=0.016, r=Zone001)
  movej([-1.3306, -1.832, -1.4381, -3.0131, -1.3306, -3.1416], a=3.1416, v=0.016, r=Zone001)
  movej([-1.3288, -1.8315, -1.4387, -3.013, -1.3288, -3.1416], a=3.1416, v=0.016, r=Zone001)
  movej([-1.327, -1.831, -1.4393, -3.0129, -1.327, -3.1416], a=3.1416, v=0.016, r=Zone001)
  movej([-1.3252, -1.8305, -1.4399, -3.0127, -1.3252, -3.1416], a=3.1416, v=0.016, r=Zone001)
  movej([-1.3235, -1.83, -1.4406, -3.0126, -1.3235, -3.1416], a=3.1416, v=0.016, r=Zone001)
  movej([-1.3217, -1.8294, -1.4414, -3.0124, -1.3217, -3.1416], a=3.1416, v=0.016, r=Zone001)
  movej([-1.3199, -1.8288, -1.4421, -3.0123, -1.3199, -3.1416], a=3.1416, v=0.016, r=Zone001)
  movej([-1.3181, -1.8282, -1.4429, -3.0121, -1.3181, -3.1416], a=3.1416, v=0.016, r=Zone001)
  movej([-1.3163, -1.8275, -1.4438, -3.0119, -1.3163, -3.1416], a=3.1416, v=0.016, r=Zone001)
  movej([-1.3146, -1.8268, -1.4446, -3.0117, -1.3146, -3.1416], a=3.1416, v=0.016, r=Zone001)
  movej([-1.3128, -1.8261, -1.4455, -3.0115, -1.3128, -3.1416], a=3.1416, v=0.016, r=Zone001)
  movej([-1.311, -1.8253, -1.4465, -3.0114, -1.311, -3.1416], a=3.1416, v=0.016, r=Zone001)
  movej([-1.3092, -1.8246, -1.4475, -3.0112, -1.3092, -3.1416], a=3.1416, v=0.0159, r=Zone001)
  movej([-1.3075, -1.8238, -1.4485, -3.0109, -1.3075, -3.1416], a=3.1416, v=0.0159, r=Zone001)
  movej([-1.3057, -1.8229, -1.4495, -3.0107, -1.3057, -3.1416], a=3.1416, v=0.0159, r=Zone001)
  movej([-1.304, -1.8221, -1.4506, -3.0105, -1.304, -3.1416], a=3.1416, v=0.0159, r=Zone001)
  movej([-1.3022, -1.8212, -1.4517, -3.0103, -1.3022, -3.1416], a=3.1416, v=0.0158, r=Zone001)
  movej([-1.3004, -1.8203, -1.4529, -3.01, -1.3004, -3.1416], a=3.1416, v=0.0158, r=Zone001)
  movej([-1.2987, -1.8193, -1.4541, -3.0098, -1.2987, -3.1416], a=3.1416, v=0.0157, r=Zone001)
  movej([-1.297, -1.8184, -1.4553, -3.0095, -1.297, -3.1416], a=3.1416, v=0.0157, r=Zone001)
  movej([-1.2952, -1.8174, -1.4565, -3.0093, -1.2952, -3.1416], a=3.1416, v=0.0157, r=Zone001)
  movej([-1.2935, -1.8164, -1.4578, -3.009, -1.2935, -3.1416], a=3.1416, v=0.0156, r=Zone001)
  movej([-1.2918, -1.8153, -1.4591, -3.0088, -1.2918, -3.1416], a=3.1416, v=0.0156, r=Zone001)
  movej([-1.29, -1.8142, -1.4605, -3.0085, -1.29, -3.1416], a=3.1416, v=0.0155, r=Zone001)
  movej([-1.2883, -1.8131, -1.4618, -3.0082, -1.2883, -3.1416], a=3.1416, v=0.0155, r=Zone001)
  movej([-1.2866, -1.812, -1.4632, -3.0079, -1.2866, -3.1416], a=3.1416, v=0.0154, r=Zone001)
  movej([-1.2849, -1.8109, -1.4647, -3.0076, -1.2849, -3.1416], a=3.1416, v=0.0153, r=Zone001)
  movej([-1.2832, -1.8097, -1.4662, -3.0073, -1.2832, -3.1416], a=3.1416, v=0.0153, r=Zone001)
  movej([-1.2815, -1.8085, -1.4677, -3.007, -1.2815, -3.1416], a=3.1416, v=0.0152, r=Zone001)
  movej([-1.2799, -1.8073, -1.4692, -3.0067, -1.2799, -3.1416], a=3.1416, v=0.0151, r=Zone001)
  movej([-1.2782, -1.806, -1.4707, -3.0064, -1.2782, -3.1416], a=3.1416, v=0.0151, r=Zone001)
  movej([-1.2765, -1.8047, -1.4723, -3.0061, -1.2765, -3.1416], a=3.1416, v=0.015, r=Zone001)
  movej([-1.2749, -1.8035, -1.4739, -3.0058, -1.2749, -3.1416], a=3.1416, v=0.0149, r=Zone001)
  movej([-1.2732, -1.8021, -1.4756, -3.0055, -1.2732, -3.1416], a=3.1416, v=0.0148, r=Zone001)
  movej([-1.2716, -1.8008, -1.4773, -3.0051, -1.2716, -3.1416], a=3.1416, v=0.0151, r=Zone001)
  movej([-1.27, -1.7994, -1.479, -3.0048, -1.27, -3.1416], a=3.1416, v=0.0153, r=Zone001)
  movej([-1.2684, -1.798, -1.4807, -3.0045, -1.2684, -3.1416], a=3.1416, v=0.0156, r=Zone001)
  movej([-1.2668, -1.7966, -1.4824, -3.0041, -1.2668, -3.1416], a=3.1416, v=0.0158, r=Zone001)
  movej([-1.2652, -1.7952, -1.4842, -3.0038, -1.2652, -3.1416], a=3.1416, v=0.016, r=Zone001)
  movej([-1.2636, -1.7937, -1.486, -3.0034, -1.2636, -3.1416], a=3.1416, v=0.0163, r=Zone001)
  movej([-1.262, -1.7922, -1.4878, -3.0031, -1.262, -3.1416], a=3.1416, v=0.0165, r=Zone001)
